;FLAVOR:Marlin
;TIME:3060
;Filament used: 1.93014m
;Layer height: 0.18
;MINX:111.7
;MINY:118.499
;MINZ:0.216
;MAXX:147.444
;MAXY:157.275
;MAXZ:20.616
;Generated with Cura_SteamEngine 5.0.0
M140 S100
M105
M190 S100
M104 S250
M105
M109 S250
M82 ;absolute extrusion mode
G28 ;Home
G1 Z15.0 F6000 ;Move the platform down 15mm
;Prime the extruder
G92 E0
G1 F200 E3
G92 E0
G92 E0
G92 E0
G1 F2700 E-5
;LAYER_COUNT:109
;LAYER:-6
M107
G0 F9000 X112.883 Y124.394 Z0.216
;TYPE:SUPPORT-INTERFACE
G1 F2700 E0
G1 F900 X112.518 Y124.855 E0.04224
G1 X112.228 Y125.334 E0.08247
G1 X111.98 Y125.887 E0.12601
G1 X111.819 Y126.434 E0.16698
G1 X111.723 Y127 E0.20822
G1 X111.7 Y127.59 E0.25064
G1 X111.735 Y128.112 E0.28822
G1 X112.435 Y134.001 E0.71428
G1 X112.537 Y134.518 E0.75214
G1 X112.691 Y135.035 E0.79089
G1 X112.941 Y135.594 E0.83489
G1 X113.372 Y136.419 E0.90176
G1 X113.595 Y136.867 E0.93771
G1 X113.798 Y137.483 E0.9843
G1 X113.925 Y138.141 E1.03245
G1 X113.971 Y138.816 E1.08105
G1 X113.971 Y145.01 E1.52604
G1 X114.048 Y145.766 E1.58064
G1 X114.171 Y146.414 E1.62802
G1 X114.366 Y146.953 E1.6692
G1 X114.6 Y147.419 E1.70666
G1 X115.091 Y148.336 E1.78139
G1 X115.327 Y148.979 E1.8306
G1 X115.477 Y149.644 E1.87957
G1 X115.538 Y150.427 E1.936
G1 X115.623 Y151.157 E1.98879
G1 X115.757 Y151.702 E2.02911
G1 X115.972 Y152.248 E2.07127
G1 X116.256 Y152.767 E2.11377
G1 X116.594 Y153.234 E2.15519
G1 X116.996 Y153.66 E2.19727
G1 X117.447 Y154.032 E2.23927
G1 X117.935 Y154.338 E2.28065
G1 X118.388 Y154.564 E2.31702
G1 X123.849 Y156.909 E2.74399
G1 X124.357 Y157.082 E2.78255
G1 X124.86 Y157.201 E2.81968
G1 X125.48 Y157.275 E2.86454
G1 X126.045 Y157.269 E2.90513
G1 X126.62 Y157.189 E2.94684
G1 X127.178 Y157.039 E2.98835
G1 X128.318 Y156.703 E3.07373
G1 X129.009 Y156.616 E3.12377
G1 X129.69 Y156.618 E3.17269
G1 X130.372 Y156.706 E3.22209
G1 X131.03 Y156.879 E3.27097
G1 X131.56 Y157.034 E3.31064
G1 X132.128 Y157.13 E3.35203
G1 X132.716 Y157.153 E3.3943
G1 X133.24 Y157.118 E3.43203
G1 X139.125 Y156.419 E3.85779
G1 X139.794 Y156.276 E3.90694
G1 X140.447 Y156.048 E3.95663
G1 X140.94 Y155.796 E3.99641
G1 X141.406 Y155.482 E4.03678
G1 X141.66 Y155.284 E4.05991
G1 X142.265 Y154.632 E4.12381
G1 X142.588 Y154.155 E4.1652
G1 X142.844 Y153.643 E4.20633
G1 X143.04 Y153.08 E4.24915
G1 X143.16 Y152.516 E4.29058
G1 X143.209 Y151.945 E4.33175
G1 X143.186 Y151.148 E4.38903
G1 X143.226 Y150.518 E4.43439
G1 X143.352 Y149.846 E4.4835
G1 X143.561 Y149.196 E4.53256
G1 X143.85 Y148.579 E4.5815
G1 X144.217 Y148.001 E4.63069
G1 X144.576 Y147.476 E4.67638
G1 X144.841 Y146.962 E4.71793
G1 X145.037 Y146.415 E4.75967
G1 X145.162 Y145.856 E4.80083
G1 X145.225 Y145.176 E4.84989
G1 X145.229 Y138.395 E5.33705
G1 X145.259 Y137.894 E5.3731
G1 X145.331 Y137.36 E5.41181
G1 X145.5 Y136.721 E5.4593
G1 X145.753 Y136.088 E5.50827
G1 X146.034 Y135.581 E5.54992
G1 X146.436 Y135.009 E5.60015
G1 X146.744 Y134.557 E5.63944
G1 X147.042 Y134 E5.68482
G1 X147.256 Y133.422 E5.7291
G1 X147.38 Y132.886 E5.76863
G1 X147.442 Y132.295 E5.81132
G1 X147.444 Y132.253 E5.81434
G1 X147.437 Y131.75 E5.85048
G1 X147.339 Y130.802 E5.91895
G1 X146.717 Y125.569 E6.29754
G1 X146.575 Y124.916 E6.34555
G1 X146.347 Y124.265 E6.39511
G1 X146.092 Y123.767 E6.4353
G1 X145.769 Y123.292 E6.47657
G1 X145.373 Y122.846 E6.51942
G1 X144.938 Y122.465 E6.56096
G1 X144.465 Y122.147 E6.60191
G1 X143.949 Y121.886 E6.64345
G1 X143.388 Y121.688 E6.68619
G1 X142.824 Y121.568 E6.72762
G1 X141.692 Y121.364 E6.81025
G1 X141.023 Y121.268 E6.85881
G1 X140.378 Y121.235 E6.9052
G1 X136.554 Y121.231 E7.17993
G1 X135.962 Y121.196 E7.22253
G1 X135.298 Y121.077 E7.271
G1 X134.646 Y120.873 E7.32008
G1 X134.029 Y120.591 E7.36881
G1 X133.446 Y120.228 E7.41815
G1 X132.918 Y119.802 E7.46689
G1 X132.499 Y119.441 E7.50662
G1 X132.024 Y119.121 E7.54777
G1 X131.51 Y118.863 E7.58909
G1 X130.947 Y118.667 E7.63192
G1 X130.392 Y118.548 E7.67269
G1 X129.815 Y118.499 E7.7143
G1 X129.229 Y118.523 E7.75643
G1 X128.663 Y118.62 E7.79769
G1 X128.115 Y118.786 E7.83882
G1 X127.573 Y119.028 E7.88147
G1 X127.003 Y119.378 E7.92952
G1 X125.934 Y120.171 E8.02514
G1 X125.338 Y120.557 E8.07616
G1 X124.72 Y120.848 E8.12523
G1 X124.068 Y121.062 E8.17453
G1 X123.392 Y121.19 E8.22396
G1 X122.737 Y121.231 E8.27111
G1 X118.691 Y121.231 E8.56178
G1 X118.175 Y121.269 E8.59895
G1 X117.672 Y121.342 E8.63546
G1 X117.038 Y121.513 E8.68264
G1 X116.547 Y121.72 E8.72092
G1 X116.032 Y122.018 E8.76367
G1 X115.572 Y122.369 E8.80524
G1 X114.838 Y122.977 E8.87371
G1 X114.21 Y123.377 E8.9272
G1 X113.761 Y123.64 E8.96458
G1 X113.299 Y123.989 E9.00618
G1 X112.883 Y124.394 E9.04789
G0 F9000 X113.265 Y124.579
G1 F900 X142.374 Y153.688 E12.00536
G0 F9000 X141.4 Y154.976
G1 F900 X112.395 Y125.971 E14.95226
G0 F9000 X112.129 Y127.968
G1 F900 X139.968 Y155.808 E17.78075
G0 F9000 X138.041 Y156.143
G1 F900 X112.424 Y130.526 E20.38343
G0 F9000 X112.729 Y133.093
G1 F900 X136.019 Y156.383 E22.74969
G0 F9000 X133.997 Y156.624
G1 F900 X113.847 Y136.475 E24.79687
G0 F9000 X114.369 Y139.259
G1 F900 X131.762 Y156.653 E26.56405
G0 F9000 X129.063 Y156.216
G1 F900 X114.369 Y141.522 E28.05696
G0 F9000 X114.37 Y143.785
G1 F900 X127.194 Y156.61 E29.35992
G0 F9000 X125.171 Y156.849
G1 F900 X114.529 Y146.207 E30.44115
G0 F9000 X115.899 Y149.84
G1 F900 X121.54 Y155.481 E31.01427
G0 F9000 X142.807 Y151.858
G1 F900 X114.572 Y123.623 E33.88294
G0 F9000 X115.86 Y122.648
G1 F900 X142.964 Y149.753 E36.63675
G0 F9000 X143.638 Y148.164
G1 F900 X117.313 Y121.839 E39.31137
G0 F9000 X119.372 Y121.635
G1 F900 X144.49 Y146.753 E41.86335
G0 F9000 X144.825 Y144.825
G1 F900 X121.632 Y121.632 E44.21975
G0 F9000 X123.784 Y121.521
G1 F900 X144.826 Y142.563 E46.35762
G0 F9000 X144.827 Y140.302
G1 F900 X125.463 Y120.937 E48.32504
G0 F9000 X126.808 Y120.02
G1 F900 X144.84 Y138.051 E50.15704
G0 F9000 X145.269 Y136.218
G1 F900 X128.225 Y119.174 E51.88871
G0 F9000 X130.252 Y118.938
G1 F900 X146.102 Y134.788 E53.49906
G0 F9000 X146.873 Y133.297
G1 F900 X134.97 Y121.393 E54.70846
G0 F9000 X137.472 Y121.632
G1 F900 X146.975 Y131.136 E55.67401
G0 F9000 X146.67 Y128.568
G1 F900 X139.737 Y121.635 E56.3784
G0 F9000 X142.243 Y121.879
G1 F900 X146.365 Y126 E56.79714
G0 F600 X146.365 Y126 Z0.486
G0 F9000 X142.666 Y152.904
;TIME_ELAPSED:57.792077
;LAYER:-5
;TYPE:SUPPORT
G1 F900 X139.676 Y155.894 E57.17687
G1 X140.025 Y155.795 E57.20945
G1 X140.526 Y155.579 E57.25845
G1 X140.974 Y155.313 E57.30523
G1 X141.385 Y154.995 E57.3519
G1 X141.783 Y154.593 E57.4027
G1 X142.095 Y154.188 E57.44861
G1 X142.36 Y153.736 E57.49566
G1 X142.571 Y153.237 E57.54432
G1 X142.715 Y152.732 E57.59148
G1 X142.81 Y151.954 E57.66186
G1 X142.791 Y151.364 E57.71487
G1 X138.008 Y156.148 E58.32237
G1 X136.403 Y156.339 E58.46752
G1 X142.957 Y149.784 E59.29994
G1 X143.198 Y149.023 E59.37163
G1 X143.512 Y148.36 E59.43751
G1 X143.894 Y147.761 E59.50131
G1 X144.225 Y147.285 E59.55337
G1 X144.418 Y146.909 E59.59133
G1 X134.797 Y156.53 E60.81319
G1 X133.193 Y156.72 E60.95824
G1 X144.824 Y145.089 E62.43537
G1 X144.825 Y143.674 E62.56244
G1 X131.823 Y156.675 E64.21363
G1 X131.155 Y156.498 E64.27569
G1 X130.705 Y156.379 E64.31749
G1 X144.826 Y142.259 E66.11079
G1 X144.826 Y140.844 E66.23786
G1 X129.454 Y156.216 E68.1901
G1 X129.01 Y156.213 E68.22997
G1 X128.271 Y156.3 E68.29679
G1 X127.834 Y156.422 E68.33754
G1 X144.827 Y139.429 E70.49565
G1 X144.828 Y138.393 E70.58868
G1 X144.841 Y138.001 E70.6239
G1 X125.968 Y156.873 E73.0207
G1 X125.232 Y156.863 E73.08681
G1 X124.713 Y156.772 E73.13412
G1 X124.669 Y156.758 E73.13827
G1 X145.308 Y136.12 E75.75935
G1 X145.603 Y135.538 E75.81795
G1 X145.563 Y135.505 E75.82261
G1 X146.307 Y134.505 E75.93454
G1 X146.569 Y134.077 E75.9796
G1 X146.793 Y133.576 E76.02888
G1 X146.945 Y133.068 E76.0765
G1 X123.634 Y156.379 E79.03699
G1 X122.645 Y155.954 E79.13366
G1 X147.024 Y131.575 E82.22979
G1 X146.877 Y130.308 E82.34433
G1 X121.656 Y155.529 E85.54739
G1 X120.667 Y155.104 E85.64406
G1 X146.726 Y129.044 E88.95361
G1 X146.576 Y127.78 E89.06791
G1 X119.677 Y154.679 E92.48408
G1 X118.688 Y154.254 E92.58075
G1 X146.426 Y126.516 E96.10347
G1 X146.32 Y125.626 E96.18395
G1 X146.255 Y125.273 E96.21619
G1 X117.768 Y153.76 E99.83403
G1 X117.469 Y153.543 E99.86721
G1 X117.074 Y153.172 E99.91587
G1 X117.014 Y153.099 E99.92436
G1 X145.892 Y124.222 E103.59179
G1 X145.613 Y123.74 E103.6418
G1 X145.327 Y123.373 E103.68359
G1 X116.432 Y152.268 E107.35324
G1 X116.147 Y151.607 E107.41789
G1 X116.053 Y151.232 E107.4526
G1 X144.589 Y122.697 E111.0766
G1 X144.022 Y122.349 E111.13635
G1 X143.672 Y122.2 E111.17051
G1 X115.905 Y149.966 E114.69685
G1 X115.877 Y149.606 E114.72927
G1 X115.719 Y148.891 E114.79503
G1 X115.679 Y148.778 E114.80579
G1 X142.529 Y121.928 E118.21574
G1 X142.389 Y121.908 E118.22844
G1 X141.342 Y121.7 E118.3243
G1 X115.256 Y147.786 E121.63721
G1 X114.829 Y147.021 E121.71589
G1 X114.764 Y146.865 E121.73107
G1 X139.995 Y121.634 E124.9354
G1 X138.582 Y121.632 E125.06229
G1 X114.448 Y145.767 E128.12736
G1 X114.38 Y145.206 E128.17811
G1 X114.37 Y144.43 E128.2478
G1 X137.169 Y121.631 E131.14327
G1 X136.554 Y121.631 E131.1985
G1 X135.896 Y121.592 E131.25769
G1 X135.81 Y121.576 E131.26555
G1 X114.37 Y143.015 E133.98836
G1 X114.37 Y141.601 E134.11534
G1 X134.672 Y121.3 E136.69362
G1 X133.812 Y120.93 E136.7777
G1 X133.699 Y120.858 E136.78973
G1 X114.37 Y140.187 E139.24451
G1 X114.368 Y138.775 E139.37131
G1 X132.868 Y120.275 E141.7208
G1 X132.257 Y119.757 E141.79274
G1 X132.086 Y119.643 E141.81119
G1 X114.212 Y137.517 E144.08118
G1 X113.954 Y136.682 E144.15967
G1 X113.846 Y136.469 E144.18111
G1 X131.154 Y119.16 E146.37929
G1 X130.329 Y118.941 E146.45594
G1 X129.989 Y118.912 E146.48659
G1 X113.364 Y135.537 E148.59796
G1 X113.174 Y135.192 E148.63333
G1 X112.987 Y134.685 E148.68185
G1 X112.955 Y134.532 E148.69589
G1 X128.358 Y119.128 E150.65213
G1 X127.755 Y119.38 E150.71082
G1 X127.243 Y119.696 E150.76485
G1 X126.173 Y120.492 E150.88461
G1 X125.536 Y120.903 E150.95269
G1 X124.845 Y121.227 E151.02123
G1 X112.755 Y133.317 E152.55665
G1 X112.605 Y132.053 E152.67096
G1 X123.047 Y121.611 E153.99709
G1 X122.748 Y121.63 E154.024
G1 X121.614 Y121.63 E154.12583
G1 X112.455 Y130.789 E155.28902
G1 X112.304 Y129.525 E155.40334
G1 X120.2 Y121.63 E156.40607
G1 X118.786 Y121.63 E156.53305
G1 X112.154 Y128.261 E157.37524
G1 X112.099 Y127.58 E157.4366
G1 X112.12 Y127.022 E157.48674
G1 X112.209 Y126.508 E157.53359
G1 X112.358 Y126.011 E157.58018
G1 X112.59 Y125.495 E157.63099
G1 X113.028 Y124.836 E157.70205
G1 X113.55 Y124.295 E157.76956
G1 X113.955 Y123.986 E157.81531
G1 X114.39 Y123.734 E157.86045
G1 X114.997 Y123.361 E157.92443
G1 X115.58 Y122.888 E157.99185
G1 X116.017 Y122.505 E158.04403
G1 X116.461 Y122.207 E158.09205
G1 X116.928 Y121.974 E158.13892
G1 X117.081 Y121.92 E158.15349
G1 X112.15 Y126.851 E158.77973
G0 F600 X112.15 Y126.851 Z0.666
G0 F9000 X116.587 Y152.898
;TIME_ELAPSED:133.781196
;LAYER:-4
;TYPE:SUPPORT-INTERFACE
G1 F1200 X116.934 Y153.314 E158.79594
G1 X117.33 Y153.688 E158.81225
G1 X117.851 Y154.055 E158.83132
G1 X116.4 Y152.604 E158.89275
G1 X116.273 Y152.404 E158.89984
G1 X116.041 Y151.902 E158.9164
G1 X115.936 Y151.574 E158.92671
G1 X118.941 Y154.579 E159.05392
G1 X119.933 Y155.005 E159.08623
G1 X115.776 Y150.848 E159.26221
G1 X115.735 Y150.242 E159.28039
G1 X120.925 Y155.431 E159.50008
G1 X121.917 Y155.858 E159.53241
G1 X115.675 Y149.616 E159.79666
G1 X115.502 Y148.877 E159.81937
G1 X122.909 Y156.284 E160.13294
G1 X123.9 Y156.71 E160.16523
G1 X115.088 Y147.898 E160.53827
G1 X114.912 Y147.561 E160.54965
G1 X114.638 Y147.086 E160.56606
G1 X114.487 Y146.731 E160.57761
G1 X124.732 Y156.976 E161.01131
G1 X125.393 Y157.071 E161.0313
G1 X114.267 Y145.945 E161.5023
G1 X114.191 Y145.304 E161.52163
G1 X125.961 Y157.073 E162.01987
G1 X126.468 Y157.015 E162.03514
G1 X114.17 Y144.717 E162.55576
G1 X114.17 Y144.152 E162.57267
G1 X126.929 Y156.911 E163.1128
G1 X127.351 Y156.766 E163.12616
G1 X114.17 Y143.586 E163.68413
G1 X114.17 Y143.02 E163.70107
G1 X127.791 Y156.641 E164.27769
G1 X128.234 Y156.518 E164.29146
G1 X114.17 Y142.455 E164.88681
G1 X114.17 Y141.889 E164.90375
G1 X128.729 Y156.448 E165.52008
G1 X129.261 Y156.414 E165.53604
G1 X114.17 Y141.323 E166.17489
G1 X114.17 Y140.758 E166.1918
G1 X129.846 Y156.433 E166.8554
G1 X130.512 Y156.533 E166.87556
G1 X114.17 Y140.192 E167.56735
G1 X114.17 Y139.626 E167.58429
G1 X131.29 Y156.746 E168.30903
G1 X132.02 Y156.91 E168.33143
G1 X114.17 Y139.061 E169.08706
G1 X114.148 Y138.473 E169.10467
G1 X132.624 Y156.949 E169.88682
G1 X133.163 Y156.922 E169.90298
G1 X114.068 Y137.827 E170.71133
G1 X113.994 Y137.438 E170.72318
G1 X113.869 Y137.062 E170.73504
G1 X133.672 Y156.865 E171.57337
G1 X134.177 Y156.805 E171.58859
G1 X113.392 Y136.019 E172.46851
G1 X112.982 Y135.249 E172.49462
G1 X112.862 Y134.923 E172.50502
G1 X134.683 Y156.745 E173.42879
G1 X135.188 Y156.684 E173.44402
G1 X112.673 Y134.169 E174.39715
G1 X112.574 Y133.505 E174.41725
G1 X135.694 Y156.624 E175.39597
G1 X136.2 Y156.564 E175.41123
G1 X112.498 Y132.863 E176.41459
G1 X112.422 Y132.221 E176.43394
G1 X136.705 Y156.504 E177.46192
G1 X137.211 Y156.444 E177.47717
G1 X112.345 Y131.579 E178.52981
G1 X112.269 Y130.937 E178.54916
G1 X137.716 Y156.384 E179.62641
G1 X138.222 Y156.324 E179.64167
G1 X112.193 Y130.295 E180.74356
G1 X112.116 Y129.652 E180.76294
G1 X138.727 Y156.264 E181.88949
G1 X139.226 Y156.197 E181.90457
G1 X112.04 Y129.01 E183.05546
G1 X111.963 Y128.368 E183.07481
G1 X139.691 Y156.095 E184.24861
G1 X140.123 Y155.963 E184.26213
G1 X111.909 Y127.748 E185.45654
G1 X111.913 Y127.187 E185.47334
G1 X140.521 Y155.795 E186.6844
G1 X140.892 Y155.6 E186.69695
G1 X111.975 Y126.683 E187.9211
G1 X112.085 Y126.227 E187.93514
G1 X141.228 Y155.37 E189.16886
G1 X141.538 Y155.115 E189.18088
G1 X112.23 Y125.807 E190.42158
G1 X112.405 Y125.418 E190.43435
G1 X141.826 Y154.837 E191.67979
G1 X142.089 Y154.534 E191.6918
G1 X112.62 Y125.065 E192.93932
G1 X112.859 Y124.739 E192.95142
G1 X142.319 Y154.198 E194.19854
G1 X142.523 Y153.837 E194.21095
G1 X113.122 Y124.436 E195.45559
G1 X113.409 Y124.157 E195.46757
G1 X142.7 Y153.448 E196.70755
G1 X142.847 Y153.029 E196.72084
G1 X113.728 Y123.91 E197.95355
G1 X114.069 Y123.685 E197.96577
G1 X142.947 Y152.563 E199.18827
G1 X143.001 Y152.052 E199.20366
G1 X114.423 Y123.474 E200.41345
G1 X114.776 Y123.262 E200.42578
G1 X142.996 Y151.481 E201.6204
G1 X143.001 Y150.921 E201.63717
G1 X115.1 Y123.02 E202.81831
G1 X115.413 Y122.767 E202.83035
G1 X143.042 Y150.396 E203.99998
G1 X143.135 Y149.923 E204.01441
G1 X115.715 Y122.504 E205.17517
G1 X116.032 Y122.255 E205.18723
G1 X143.259 Y149.481 E206.33982
G1 X143.402 Y149.059 E206.35316
G1 X116.372 Y122.028 E207.49744
G1 X116.749 Y121.84 E207.51006
G1 X143.585 Y148.676 E208.64611
G1 X143.783 Y148.308 E208.65862
G1 X117.156 Y121.681 E209.78583
G1 X117.598 Y121.558 E209.79956
G1 X144.003 Y147.963 E210.91737
G1 X144.231 Y147.625 E210.92957
G1 X118.083 Y121.477 E212.0365
G1 X118.606 Y121.434 E212.05221
G1 X144.453 Y147.281 E213.1464
G1 X144.643 Y146.906 E213.15898
G1 X119.167 Y121.43 E214.23746
G1 X119.733 Y121.43 E214.25441
G1 X144.797 Y146.494 E215.31545
G1 X144.915 Y146.047 E215.32929
G1 X120.299 Y121.43 E216.37138
G1 X120.865 Y121.43 E216.38833
G1 X144.991 Y145.557 E217.40968
G1 X145.026 Y145.026 E217.42561
G1 X121.43 Y121.43 E218.4245
G1 X121.996 Y121.43 E218.44145
G1 X145.026 Y144.46 E219.41638
G1 X145.026 Y143.894 E219.43332
G1 X122.562 Y121.43 E220.3843
G1 X123.105 Y121.408 E220.40056
G1 X145.026 Y143.329 E221.32855
G1 X145.026 Y142.764 E221.34546
G1 X123.614 Y121.352 E222.2519
G1 X124.089 Y121.261 E222.26638
G1 X145.026 Y142.198 E223.15271
G1 X145.027 Y141.633 E223.16962
G1 X124.518 Y121.124 E224.03784
G1 X124.93 Y120.97 E224.051
G1 X145.027 Y141.067 E224.90177
G1 X145.027 Y140.502 E224.91869
G1 X125.314 Y120.788 E225.75322
G1 X125.67 Y120.579 E225.76558
G1 X145.028 Y139.937 E226.58507
G1 X145.028 Y139.371 E226.60201
G1 X126.013 Y120.356 E227.40698
G1 X126.34 Y120.118 E227.41908
G1 X145.028 Y138.805 E228.21019
G1 X145.033 Y138.245 E228.22695
G1 X126.665 Y119.877 E229.00453
