;FLAVOR:Marlin
;TIME:808
;Filament used: 0.458712m
;Layer height: 0.18
;MINX:91.127
;MINY:93.401
;MINZ:0.216
;MAXX:120.841
;MAXY:126.599
;MAXZ:8.556
;Generated with Cura_SteamEngine 5.0.0
M140 S100
M105
M190 S100
M104 S250
M105
M109 S250
M82 ;absolute extrusion mode
G28 ;Home
G1 Z15.0 F6000 ;Move the platform down 15mm
;Prime the extruder
G92 E0
G1 F200 E3
G92 E0
G92 E0
G92 E0
G1 F2700 E-5
;LAYER_COUNT:42
;LAYER:-6
M107
G0 F9000 X92.193 Y97.388 Z0.216
;TYPE:SUPPORT-INTERFACE
G1 F2700 E0
G1 F900 X91.889 Y97.878 E0.04143
G1 X91.644 Y98.404 E0.08311
G1 X91.47 Y98.962 E0.12511
G1 X91.365 Y99.55 E0.16802
G1 X91.327 Y100.077 E0.20598
G1 X91.127 Y110.851 E0.98013
G1 X91.155 Y111.367 E1.01726
G1 X91.218 Y111.864 E1.05325
G1 X91.377 Y112.509 E1.10097
G1 X91.578 Y113.012 E1.13989
G1 X91.872 Y113.541 E1.18337
G1 X92.203 Y113.988 E1.22333
G1 X92.612 Y114.42 E1.26607
G1 X93.055 Y114.781 E1.30712
G1 X93.558 Y115.095 E1.34972
G1 X94.074 Y115.331 E1.39049
G1 X94.64 Y115.509 E1.43311
G1 X95.191 Y115.608 E1.47333
G1 X96.297 Y115.78 E1.55374
G1 X96.956 Y115.99 E1.60343
G1 X97.57 Y116.274 E1.65203
G1 X98.151 Y116.64 E1.70136
G1 X98.667 Y117.061 E1.74921
G1 X99.148 Y117.567 E1.79936
G1 X99.448 Y117.979 E1.83598
G1 X99.801 Y118.574 E1.88568
G1 X100.13 Y119.345 E1.9459
G1 X100.334 Y120.192 E2.00849
G1 X100.47 Y120.699 E2.0462
G1 X100.68 Y121.342 E2.0948
G1 X100.912 Y121.894 E2.13782
G1 X101.22 Y122.497 E2.18646
G1 X101.532 Y123 E2.22899
G1 X101.936 Y123.552 E2.27813
G1 X102.358 Y124.04 E2.32448
G1 X102.822 Y124.494 E2.37111
G1 X103.331 Y124.919 E2.41875
G1 X103.832 Y125.272 E2.46278
G1 X104.417 Y125.621 E2.51172
G1 X104.978 Y125.897 E2.55664
G1 X105.582 Y126.137 E2.60333
G1 X106.137 Y126.305 E2.64499
G1 X106.796 Y126.459 E2.69361
G1 X107.517 Y126.563 E2.74594
G1 X108.078 Y126.595 E2.78631
G1 X113.659 Y126.599 E3.18726
G1 X114.163 Y126.567 E3.22354
G1 X114.704 Y126.51 E3.26262
G1 X115.247 Y126.373 E3.30286
G1 X115.788 Y126.16 E3.34463
G1 X116.301 Y125.88 E3.38661
G1 X116.771 Y125.539 E3.42833
G1 X117.16 Y125.193 E3.46573
G1 X118.419 Y123.932 E3.59375
G1 X118.845 Y123.447 E3.64012
G1 X119.193 Y122.944 E3.68407
G1 X119.457 Y122.431 E3.72552
G1 X119.656 Y121.872 E3.76814
G1 X119.779 Y121.317 E3.80898
G1 X119.841 Y120.643 E3.85761
G1 X119.843 Y116.452 E4.1587
G1 X119.789 Y115.872 E4.20055
G1 X119.722 Y115.052 E4.25965
G1 X119.693 Y114.552 E4.29564
G1 X119.739 Y114.026 E4.33357
G1 X119.863 Y113.364 E4.38195
G1 X120.182 Y112.442 E4.45205
G1 X120.528 Y111.577 E4.51898
G1 X120.784 Y110.65 E4.58807
G1 X120.841 Y110.118 E4.6265
G1 X120.828 Y109.653 E4.65992
G1 X120.764 Y108.93 E4.71207
G1 X120.63 Y108.353 E4.75462
G1 X120.429 Y107.81 E4.79622
G1 X120.081 Y107.06 E4.85562
G1 X119.865 Y106.408 E4.90497
G1 X119.735 Y105.723 E4.95506
G1 X119.692 Y105.068 E5.00221
G1 X119.731 Y104.398 E5.05043
G1 X119.801 Y103.645 E5.10476
G1 X119.803 Y99.452 E5.40599
G1 X119.757 Y98.942 E5.44278
G1 X119.644 Y98.259 E5.49252
G1 X119.48 Y97.75 E5.53093
G1 X119.233 Y97.217 E5.57314
G1 X118.916 Y96.712 E5.61597
G1 X118.586 Y96.297 E5.65406
G1 X117.758 Y95.446 E5.73937
G1 X117.137 Y94.826 E5.80241
G1 X116.649 Y94.4 E5.84895
G1 X116.151 Y94.054 E5.89251
G1 X115.631 Y93.787 E5.93451
G1 X115.101 Y93.597 E5.97495
G1 X114.531 Y93.466 E6.01697
G1 X113.85 Y93.405 E6.06609
G1 X108.273 Y93.401 E6.46675
G1 X107.739 Y93.417 E6.50514
G1 X107.1 Y93.481 E6.55127
G1 X106.476 Y93.593 E6.59682
G1 X105.83 Y93.763 E6.64481
G1 X105.243 Y93.969 E6.6895
G1 X104.602 Y94.256 E6.73996
G1 X104.072 Y94.544 E6.78329
G1 X103.524 Y94.902 E6.83032
G1 X102.902 Y95.335 E6.88476
G1 X102.304 Y95.653 E6.93342
G1 X101.695 Y95.882 E6.98016
G1 X101.029 Y96.046 E7.02944
G1 X100.346 Y96.122 E7.07881
G1 X99.666 Y96.112 E7.12767
G1 X98.989 Y96.017 E7.17678
G1 X98.332 Y95.838 E7.2257
G1 X97.619 Y95.612 E7.27944
G1 X97.04 Y95.507 E7.32171
G1 X96.531 Y95.47 E7.35838
G1 X95.946 Y95.468 E7.4004
G1 X95.009 Y95.562 E7.46806
G1 X94.49 Y95.699 E7.50662
G1 X93.944 Y95.919 E7.54891
G1 X93.44 Y96.2 E7.59037
G1 X92.971 Y96.547 E7.63228
G1 X92.553 Y96.947 E7.67385
G1 X92.193 Y97.388 E7.71474
G0 F9000 X92.784 Y97.309
G1 F900 X118.588 Y123.114 E10.33648
G0 F9000 X117.499 Y124.287
G1 F900 X91.959 Y98.748 E12.93128
G0 F9000 X91.713 Y100.764
G1 F900 X116.318 Y125.369 E15.43115
G0 F9000 X114.759 Y126.073
G1 F900 X91.673 Y102.987 E17.77668
G0 F9000 X91.632 Y105.209
G1 F900 X112.618 Y126.195 E19.90885
G0 F9000 X110.355 Y126.194
G1 F900 X91.591 Y107.43 E21.81527
G0 F9000 X91.551 Y109.653
G1 F900 X97.912 Y116.014 E22.46155
G0 F9000 X99.994 Y118.096
G1 F900 X108.091 Y126.193 E23.2842
G0 F9000 X105.184 Y125.548
G1 F900 X101.217 Y121.582 E23.68719
G0 F9000 X98.804 Y117.876
G0 X97.567 Y116.832
G0 X94.761 Y115.126
G1 F900 X91.653 Y112.018 E24.00297
G0 F9000 X94.062 Y96.324
G1 F900 X119.312 Y121.574 E26.56836
G0 F9000 X119.442 Y119.442
G1 F900 X95.877 Y95.877 E28.96256
G0 F9000 X98.581 Y96.319
G1 F900 X119.443 Y117.181 E31.08213
G0 F9000 X119.308 Y114.782
G1 F900 X100.981 Y96.456 E32.9441
G0 F9000 X102.686 Y95.898
G1 F900 X119.612 Y112.824 E34.66378
G0 F9000 X120.224 Y111.173
G1 F900 X104.074 Y95.023 E36.30462
G0 F9000 X105.589 Y94.275
G1 F900 X120.374 Y109.06 E37.80677
G0 F9000 X119.339 Y105.762
G1 F900 X107.427 Y93.851 E39.01697
G0 F9000 X109.64 Y93.801
G1 F900 X119.4 Y103.561 E40.00859
G0 F9000 X119.401 Y101.299
G1 F900 X111.905 Y93.803 E40.77018
G0 F9000 X114.203 Y93.838
G1 F900 X119.358 Y98.994 E41.29398
G0 F600 X119.358 Y98.994 Z0.486
G0 F9000 X91.866 Y99.052
;TIME_ELAPSED:43.004448
;LAYER:-5
;TYPE:SUPPORT
G1 F900 X94.928 Y95.99 E41.68285
G1 X94.876 Y96 E41.68761
G1 X94.381 Y96.164 E41.73444
G1 X93.905 Y96.386 E41.7816
G1 X93.456 Y96.672 E41.82941
G1 X93.037 Y97.021 E41.87838
G1 X92.664 Y97.426 E41.92782
G1 X92.358 Y97.859 E41.97544
G1 X92.111 Y98.325 E42.0228
G1 X91.918 Y98.828 E42.07118
G1 X91.801 Y99.329 E42.11738
G1 X91.735 Y99.929 E42.17159
G1 X91.722 Y100.61 E42.23276
G1 X96.462 Y95.87 E42.83473
G1 X96.639 Y95.875 E42.85064
G1 X97.286 Y95.947 E42.9091
G1 X97.698 Y96.049 E42.94721
G1 X91.694 Y102.052 E43.70965
G1 X91.667 Y103.494 E43.83917
G1 X98.786 Y96.375 E44.74328
G1 X98.881 Y96.404 E44.7522
G1 X99.605 Y96.51 E44.81791
G1 X100.057 Y96.517 E44.85851
G1 X91.639 Y104.936 E45.92766
G1 X91.612 Y106.377 E46.05708
G1 X101.693 Y96.295 E47.33743
G1 X101.784 Y96.274 E47.34582
G1 X102.468 Y96.015 E47.4115
G1 X103.109 Y95.677 E47.47658
G1 X103.977 Y95.074 E47.57149
G1 X104.793 Y94.61 E47.65578
G1 X91.584 Y107.819 E49.33332
G1 X91.556 Y109.261 E49.46284
G1 X106.897 Y93.92 E51.41115
G1 X107.163 Y93.875 E51.43537
G1 X107.803 Y93.813 E51.49312
G1 X108.432 Y93.799 E51.54962
G1 X91.529 Y110.703 E53.69635
G1 X91.53 Y111.028 E53.72554
G1 X91.645 Y112 E53.81344
G1 X109.846 Y93.8 E56.1249
G1 X111.259 Y93.801 E56.25179
G1 X92.032 Y113.028 E58.69361
G1 X92.197 Y113.327 E58.72428
G1 X92.615 Y113.859 E58.78504
G1 X112.672 Y93.802 E61.33227
G1 X113.844 Y93.804 E61.43752
G1 X114.065 Y93.823 E61.45744
G1 X93.37 Y114.518 E64.0857
G1 X93.751 Y114.754 E64.12594
G1 X94.309 Y114.993 E64.18046
G1 X115.235 Y94.067 E66.83805
G1 X115.481 Y94.157 E66.86158
G1 X116.168 Y94.549 E66.93261
G1 X95.477 Y115.24 E69.56036
G1 X96.418 Y115.394 E69.64599
G1 X96.658 Y115.473 E69.66868
G1 X116.937 Y95.194 E72.2441
G1 X117.643 Y95.902 E72.33389
G1 X97.667 Y115.879 E74.8709
G1 X97.787 Y115.935 E74.88279
G1 X98.53 Y116.43 E74.96297
G1 X118.335 Y96.624 E77.47826
G1 X118.598 Y96.937 E77.51498
G1 X118.914 Y97.46 E77.56985
G1 X99.265 Y117.108 E80.0652
G1 X99.472 Y117.331 E80.09253
G1 X99.886 Y117.902 E80.15586
G1 X119.291 Y98.497 E82.62029
G1 X119.317 Y98.596 E82.62949
G1 X119.397 Y99.332 E82.69597
G1 X119.403 Y99.799 E82.73791
G1 X100.361 Y118.842 E85.1563
G1 X100.522 Y119.253 E85.19594
G1 X100.561 Y119.277 E85.20006
G1 X100.701 Y119.916 E85.2588
G1 X119.402 Y101.215 E87.63382
G1 X119.401 Y102.63 E87.76089
G1 X100.997 Y121.034 E90.09819
G1 X101.1 Y121.342 E90.12736
G1 X101.422 Y122.023 E90.19501
G1 X119.358 Y104.087 E92.47287
G1 X119.334 Y104.347 E92.49632
G1 X119.289 Y105.054 E92.55994
G1 X119.32 Y105.539 E92.60358
G1 X101.957 Y122.902 E94.80868
G1 X102.224 Y123.281 E94.85031
G1 X102.584 Y123.689 E94.89918
G1 X119.547 Y106.726 E97.05347
G1 X119.651 Y107.039 E97.08309
G1 X119.626 Y107.065 E97.08633
G1 X119.95 Y107.737 E97.15333
G1 X103.305 Y124.382 E99.26724
G1 X103.797 Y124.773 E99.32367
G1 X104.125 Y124.976 E99.35831
G1 X120.32 Y108.782 E101.41501
G1 X120.364 Y108.965 E101.43191
G1 X120.432 Y109.565 E101.48614
G1 X120.44 Y110.076 E101.53203
G1 X105.037 Y125.478 E103.48815
G1 X105.44 Y125.663 E103.52797
G1 X106.064 Y125.866 E103.58689
G1 X119.921 Y112.009 E105.34673
G1 X119.765 Y112.397 E105.38428
G1 X119.522 Y113.06 E105.4477
G1 X119.338 Y114.006 E105.53424
G1 X107.222 Y126.123 E107.07303
G1 X108.564 Y126.194 E107.19372
G1 X119.341 Y115.417 E108.56239
G1 X119.437 Y116.333 E108.6451
G1 X119.443 Y116.729 E108.68067
G1 X109.977 Y126.195 E109.88285
G1 X111.39 Y126.197 E110.00974
G1 X119.443 Y118.144 E111.03247
G1 X119.441 Y119.56 E111.15963
G1 X112.803 Y126.198 E112.00265
G1 X113.711 Y126.199 E112.08419
G1 X114.252 Y126.164 E112.13288
G1 X119.407 Y121.009 E112.78756
G1 X119.385 Y121.251 E112.80938
G1 X119.271 Y121.766 E112.85675
G1 X119.087 Y122.276 E112.90544
G1 X118.844 Y122.748 E112.95311
G1 X118.536 Y123.192 E113.00164
G1 X118.135 Y123.648 E113.05617
G1 X116.78 Y124.995 E113.22775
G1 X116.297 Y125.399 E113.28429
G1 X115.85 Y125.679 E113.33166
G1 X115.367 Y125.904 E113.37951
G1 X114.883 Y126.061 E113.42521
G1 X114.341 Y126.157 E113.47464
G0 F600 X114.341 Y126.157 Z0.666
G0 F9000 X104.535 Y125.466
;TIME_ELAPSED:96.757023
;LAYER:-4
;TYPE:SUPPORT-INTERFACE
G1 F1200 X101.313 Y122.243 E113.61105
G1 X101.52 Y122.624 E113.62403
G1 X101.814 Y123.069 E113.64
G1 X102.29 Y123.675 E113.66307
G1 X102.995 Y124.39 E113.69312
G1 X103.687 Y124.941 E113.7196
G1 X104.54 Y125.469 E113.74963
G1 X105.54 Y125.905 E113.78229
G1 X100.834 Y121.198 E113.98153
G1 X100.604 Y120.403 E114.0063
G1 X106.362 Y126.161 E114.25006
G1 X107.068 Y126.301 E114.2716
G1 X100.44 Y119.674 E114.55217
G1 X100.397 Y119.477 E114.5582
G1 X100.129 Y118.796 E114.58011
G1 X107.693 Y126.361 E114.90034
G1 X108.291 Y126.393 E114.91826
G1 X91.351 Y109.453 E115.63539
G1 X91.362 Y108.898 E115.65201
G1 X108.858 Y126.394 E116.39267
G1 X109.424 Y126.394 E116.40961
G1 X91.372 Y108.342 E117.17381
G1 X91.382 Y107.787 E117.19043
G1 X109.99 Y126.395 E117.97816
G1 X110.556 Y126.396 E117.99511
G1 X91.393 Y107.232 E118.80636
G1 X91.403 Y106.676 E118.82301
G1 X111.123 Y126.396 E119.65782
G1 X111.689 Y126.397 E119.67476
G1 X91.414 Y106.121 E120.53309
G1 X91.424 Y105.566 E120.5497
G1 X112.255 Y126.397 E121.43155
G1 X112.821 Y126.398 E121.44849
G1 X91.434 Y105.011 E122.35387
G1 X91.445 Y104.455 E122.37052
G1 X113.388 Y126.398 E123.29944
G1 X113.934 Y126.379 E123.31579
G1 X91.455 Y103.9 E124.2674
G1 X91.465 Y103.345 E124.28402
G1 X114.452 Y126.331 E125.25711
G1 X114.932 Y126.246 E125.2717
G1 X91.476 Y102.789 E126.26469
G1 X91.486 Y102.234 E126.28131
G1 X115.363 Y126.111 E127.2921
G1 X115.763 Y125.946 E127.30505
G1 X91.496 Y101.679 E128.33235
G1 X91.507 Y101.124 E128.34897
G1 X116.128 Y125.745 E129.39125
G1 X116.463 Y125.514 E129.40343
G1 X91.518 Y100.568 E130.45946
G1 X91.53 Y100.016 E130.47599
G1 X116.777 Y125.263 E131.54477
G1 X117.074 Y124.993 E131.55679
G1 X91.575 Y99.495 E132.63622
G1 X91.66 Y99.014 E132.65084
G1 X117.357 Y124.711 E133.73868
G1 X117.639 Y124.428 E133.75064
G1 X91.795 Y98.584 E134.8447
G1 X91.963 Y98.186 E134.85763
G1 X117.922 Y124.145 E135.95656
G1 X118.205 Y123.862 E135.96854
G1 X92.159 Y97.816 E137.07115
G1 X92.379 Y97.471 E137.0834
G1 X118.475 Y123.566 E138.18811
G1 X118.733 Y123.258 E138.20014
G1 X92.634 Y97.16 E139.30497
G1 X92.915 Y96.875 E139.31695
G1 X118.964 Y122.924 E140.41969
G1 X119.165 Y122.559 E140.43216
G1 X93.217 Y96.611 E141.53062
G1 X93.543 Y96.372 E141.54272
G1 X119.339 Y122.168 E142.63475
G1 X119.48 Y121.743 E142.64816
G1 X93.905 Y96.167 E143.73085
G1 X94.294 Y95.991 E143.74363
G1 X119.584 Y121.281 E144.81424
G1 X119.63 Y120.761 E144.82987
G1 X94.713 Y95.844 E145.88468
G1 X95.178 Y95.744 E145.89892
G1 X119.641 Y120.207 E146.93452
G1 X119.642 Y119.642 E146.95143
G1 X95.693 Y95.693 E147.96527
G1 X96.236 Y95.67 E147.98154
G1 X119.642 Y119.076 E148.97239
G1 X119.643 Y118.511 E148.9893
G1 X96.826 Y95.695 E149.9552
G1 X97.49 Y95.793 E149.97529
G1 X119.643 Y117.946 E150.9131
G1 X119.643 Y117.381 E150.93001
G1 X98.274 Y96.011 E151.83465
G1 X99.057 Y96.228 E151.85897
G1 X119.644 Y116.816 E152.73051
G1 X119.626 Y116.232 E152.748
G1 X99.707 Y96.312 E153.59126
G1 X100.282 Y96.322 E153.60847
G1 X119.558 Y115.598 E154.42449
G1 X119.518 Y114.992 E154.44267
G1 X100.798 Y96.273 E155.23512
G1 X101.281 Y96.189 E155.2498
G1 X119.501 Y114.409 E156.02111
G1 X119.551 Y113.894 E156.0366
G1 X101.737 Y96.08 E156.79072
G1 X102.147 Y95.924 E156.80385
G1 X119.646 Y113.423 E157.54464
G1 X119.766 Y112.977 E157.55847
G1 X102.541 Y95.752 E158.28766
G1 X102.91 Y95.556 E158.30017
G1 X119.917 Y112.563 E159.02013
G1 X120.078 Y112.158 E159.03317
G1 X103.253 Y95.334 E159.74541
G1 X103.587 Y95.102 E159.75758
G1 X120.242 Y111.756 E160.46262
G1 X120.388 Y111.337 E160.4759
G1 X103.926 Y94.875 E161.17279
G1 X104.285 Y94.668 E161.1852
G1 X120.511 Y110.894 E161.8721
G1 X120.608 Y110.426 E161.88641
G1 X104.644 Y94.462 E162.56221
G1 X105.032 Y94.284 E162.57499
G1 X120.638 Y109.89 E163.23564
G1 X120.602 Y109.289 E163.25367
G1 X105.426 Y94.113 E163.89612
G1 X105.853 Y93.973 E163.90957
G1 X120.485 Y108.605 E164.52899
G1 X120.443 Y108.427 E164.53446
G1 X120.171 Y107.726 E164.55697
G1 X106.292 Y93.847 E165.14451
G1 X106.754 Y93.743 E165.15869
G1 X119.77 Y106.759 E165.7097
G1 X119.583 Y106.007 E165.73289
G1 X107.251 Y93.674 E166.25497
G1 X107.758 Y93.615 E166.27025
G1 X119.51 Y105.368 E166.76777
G1 X119.506 Y104.798 E166.78483
G1 X108.308 Y93.6 E167.25888
G1 X108.873 Y93.6 E167.27579
G1 X119.542 Y104.269 E167.72745
G1 X119.59 Y103.75 E167.74305
G1 X109.44 Y93.601 E168.17271
G1 X110.006 Y93.601 E168.18965
G1 X119.6 Y103.195 E168.5958
G1 X119.601 Y102.63 E168.61271
G1 X110.572 Y93.601 E168.99494
G1 X111.138 Y93.602 E169.01188
G1 X119.602 Y102.065 E169.37017
G1 X119.602 Y101.5 E169.38708
G1 X111.704 Y93.602 E169.72143
G1 X112.27 Y93.603 E169.73837
G1 X119.602 Y100.935 E170.04876
G1 X119.603 Y100.37 E170.06567
G1 X112.836 Y93.603 E170.35214
G1 X113.402 Y93.603 E170.36908
G1 X119.604 Y99.805 E170.63163
G1 X119.586 Y99.221 E170.64912
G1 X113.981 Y93.616 E170.8864
G1 X114.621 Y93.69 E170.90569
G1 X119.518 Y98.587 E171.11299
G1 X119.515 Y98.566 E171.11363
G1 X119.28 Y97.784 E171.13807
G1 X115.418 Y93.922 E171.30156
G1 X115.548 Y93.968 E171.30569
G1 X116.044 Y94.222 E171.32237
G1 X116.518 Y94.55 E171.33962
G1 X116.995 Y94.967 E171.35859
G1 X118.25 Y96.223 E171.41174
G1 X118.598 Y96.611 E171.42734
G1 X118.911 Y97.044 E171.44333
G1 X119.183 Y97.539 E171.46024
G0 F9000 X100.129 Y118.796
G1 F1200 X100.073 Y118.654 E171.46481
G1 X99.732 Y118.032 E171.48604
G1 X99.318 Y117.458 E171.50723
G1 X98.835 Y116.941 E171.52841
G1 X98.289 Y116.49 E171.54961
G1 X97.691 Y116.109 E171.57083
G1 X97.223 Y115.891 E171.58629
G1 X91.341 Y110.009 E171.83529
G1 X91.331 Y110.564 E171.85191
G1 X96.352 Y115.585 E172.06446
G1 X95.675 Y115.474 E172.085
G1 X91.337 Y111.136 E172.26864
G1 X91.401 Y111.766 E172.28759
G1 X95.022 Y115.387 E172.44088
G1 X94.937 Y115.377 E172.44344
G1 X94.257 Y115.187 E172.46458
G1 X91.59 Y112.521 E172.57746
G1 X91.648 Y112.695 E172.58295
G1 X91.886 Y113.197 E172.59958
G1 X92.298 Y113.794 E172.62129
G1 X92.94 Y114.455 E172.64888
G1 X92.553 Y114.096 E172.66468
G0 F600 X92.553 Y114.096 Z0.846
G0 F9000 X119.316 Y122.231
;TIME_ELAPSED:196.214175
;LAYER:-3
;TYPE:SUPPORT-INTERFACE
G1 F1200 X115.481 Y126.066 E172.82703
G1 X116.19 Y125.712 E172.85075
G1 X116.636 Y125.39 E172.86722
G1 X117.021 Y125.046 E172.88267
G1 X118.282 Y123.785 E172.93605
G1 X118.693 Y123.315 E172.95474
G1 X119.021 Y122.841 E172.972
G1 X119.277 Y122.339 E172.98886
G1 X119.46 Y121.834 E173.00494
G1 X119.55 Y121.431 E173.0173
G1 X114.669 Y126.312 E173.22393
G1 X114.046 Y126.369 E173.24266
