;FLAVOR:Marlin
;TIME:9121
;Filament used: 6.53247m
;Layer height: 0.18
;MINX:50.398
;MINY:57.093
;MINZ:0.36
;MAXX:169.512
;MAXY:162.913
;MAXZ:16.02
;Generated with Cura_SteamEngine 5.0.0
M140 S100
M105
M190 S100
M104 S230
M105
M109 S230
M82 ;absolute extrusion mode
G28 ;Home
G1 Z15.0 F6000 ;Move the platform down 15mm
;Prime the extruder
G92 E0
G1 F200 E3
G92 E0
G92 E0
G92 E0
G1 F2700 E-5
;LAYER_COUNT:88
;LAYER:0
M107
G0 F1800 X74.966 Y82.493 Z0.36
G0 X72.853 Y85.998
;TYPE:SKIRT
G1 F2700 E0
G1 F600 X74.177 Y83.627 E0.24387
G1 X74.628 Y82.87 E0.323
G1 X74.966 Y82.493 E0.36847
G1 X75.358 Y82.174 E0.41386
G1 X76.261 Y81.676 E0.50646
G1 X77.628 Y80.985 E0.64401
G1 X80.082 Y79.658 E0.89455
G1 X82.432 Y78.299 E1.13833
G1 X84.752 Y76.869 E1.38307
G1 X87.499 Y75.058 E1.67854
G1 X90.442 Y73.332 E1.98493
G1 X92.752 Y71.885 E2.22971
G1 X95.02 Y70.375 E2.47439
G1 X97.263 Y68.788 E2.72114
G1 X99.481 Y67.122 E2.97025
G1 X101.574 Y65.456 E3.21048
G1 X103.692 Y63.669 E3.45934
G1 X105.767 Y61.815 E3.70922
G1 X107.543 Y60.148 E3.92796
G1 X107.938 Y59.832 E3.97339
G1 X108.378 Y59.582 E4.01883
G1 X108.851 Y59.405 E4.06419
G1 X109.347 Y59.304 E4.10964
G1 X109.962 Y59.273 E4.16494
G1 X122.552 Y59.272 E5.29555
G1 X125.349 Y59.232 E5.54676
G1 X128.066 Y59.117 E5.79097
G1 X130.812 Y58.922 E6.03819
G1 X133.518 Y58.654 E6.28238
G1 X136.227 Y58.308 E6.52763
G1 X139.336 Y57.805 E6.81046
G1 X141.404 Y57.46 E6.99873
G1 X142.368 Y57.33 E7.08609
G1 X143.418 Y57.222 E7.18088
G1 X144.428 Y57.148 E7.27182
G1 X145.397 Y57.106 E7.35892
G1 X146.446 Y57.093 E7.45313
G1 X147.459 Y57.112 E7.54412
G1 X148.48 Y57.163 E7.63592
G1 X149.467 Y57.241 E7.72483
G1 X150.45 Y57.35 E7.81365
G1 X151.511 Y57.5 E7.90988
G1 X152.477 Y57.667 E7.99791
G1 X153.479 Y57.871 E8.08974
G1 X154.348 Y58.118 E8.17087
G1 X154.799 Y58.347 E8.21629
G1 X155.208 Y58.645 E8.26174
G1 X155.565 Y59.002 E8.30707
G1 X155.862 Y59.412 E8.35254
G1 X156.1 Y59.887 E8.40025
G1 X156.263 Y60.294 E8.43962
G1 X157.317 Y62.821 E8.6855
G1 X158.437 Y65.306 E8.93028
G1 X159.641 Y67.788 E9.17801
G1 X160.893 Y70.193 E9.4215
G1 X162.241 Y72.614 E9.67034
G1 X163.629 Y74.946 E9.91404
G1 X165.104 Y77.273 E10.16146
G1 X166.634 Y79.544 E10.40736
G1 X167.267 Y80.444 E10.50617
G1 X167.571 Y80.979 E10.56143
G1 X168.034 Y82.133 E10.67309
G1 X168.412 Y83.219 E10.77636
G1 X168.607 Y83.862 E10.8367
G1 X168.871 Y84.863 E10.92966
G1 X169.049 Y85.657 E11.00274
G1 X169.202 Y86.491 E11.07888
G1 X169.327 Y87.345 E11.15639
G1 X169.43 Y88.301 E11.24274
G1 X169.479 Y89.015 E11.30701
G1 X169.512 Y90.015 E11.39686
G1 X169.509 Y90.796 E11.467
G1 X169.469 Y91.743 E11.55211
G1 X169.406 Y92.517 E11.62185
G1 X169.301 Y93.413 E11.70287
G1 X169.17 Y94.262 E11.78001
G1 X168.986 Y95.209 E11.86664
G1 X168.836 Y95.85 E11.92576
G1 X168.538 Y96.941 E12.02732
G1 X168.342 Y97.562 E12.0858
G1 X168.006 Y98.513 E12.17638
G1 X167.663 Y99.378 E12.25994
G1 X167.282 Y100.101 E12.33333
G1 X166.366 Y101.428 E12.47813
G1 X164.859 Y103.684 E12.72177
G1 X163.387 Y106.031 E12.97056
G1 X161.997 Y108.393 E13.21668
G1 X160.687 Y110.768 E13.46025
G1 X159.425 Y113.221 E13.70798
G1 X158.246 Y115.678 E13.95271
G1 X157.139 Y118.163 E14.19701
G1 X156.085 Y120.715 E14.44497
G1 X155.855 Y121.165 E14.49035
G1 X155.647 Y121.465 E14.52313
G1 X154.786 Y122.565 E14.64858
G1 X153.13 Y124.743 E14.89428
G1 X151.536 Y126.966 E15.13993
G1 X149.994 Y129.25 E15.38741
G1 X148.538 Y131.545 E15.63148
G1 X147.132 Y133.904 E15.8781
G1 X145.798 Y136.294 E16.12389
G1 X145.521 Y136.805 E16.17609
G1 X145.246 Y137.229 E16.22147
G1 X144.907 Y137.605 E16.26694
G1 X144.514 Y137.922 E16.31228
G1 X143.649 Y138.4 E16.40103
G1 X142.165 Y139.15 E16.55035
G1 X139.767 Y140.451 E16.79535
G1 X137.42 Y141.81 E17.0389
G1 X135.086 Y143.25 E17.28518
G1 X132.406 Y145.019 E17.57355
G1 X131.963 Y145.263 E17.61897
G1 X131.488 Y145.435 E17.66433
G1 X130.849 Y145.541 E17.7225
G1 X129.563 Y145.624 E17.83823
G1 X126.812 Y145.84 E18.08604
G1 X124.076 Y146.132 E18.33313
G1 X121.377 Y146.497 E18.57771
G1 X118.661 Y146.944 E18.8249
G1 X115.977 Y147.464 E19.07041
G1 X113.315 Y148.056 E19.3153
G1 X110.661 Y148.729 E19.56118
G1 X107.995 Y149.485 E19.81003
G1 X105.392 Y150.301 E20.05501
G1 X102.838 Y151.184 E20.29768
G1 X100.268 Y152.154 E20.54437
G1 X97.703 Y153.207 E20.79336
G1 X95.197 Y154.319 E21.03957
G1 X92.779 Y155.474 E21.28021
G1 X90.296 Y156.749 E21.53087
G1 X87.923 Y158.053 E21.77403
G1 X85.543 Y159.449 E22.02181
G1 X83.247 Y160.886 E22.26505
G1 X82.561 Y161.337 E22.33878
G1 X82.098 Y161.631 E22.38803
G1 X81.651 Y161.868 E22.43346
G1 X81.104 Y162.048 E22.48518
G1 X80.542 Y162.176 E22.53694
G1 X79.536 Y162.374 E22.62901
G1 X78.487 Y162.548 E22.7245
G1 X77.564 Y162.673 E22.80815
G1 X76.458 Y162.789 E22.90801
G1 X75.505 Y162.857 E22.99381
G1 X74.514 Y162.9 E23.08289
G1 X73.465 Y162.913 E23.1771
G1 X72.454 Y162.894 E23.26791
G1 X71.415 Y162.843 E23.36132
G1 X70.497 Y162.77 E23.44402
G1 X69.398 Y162.649 E23.54331
G1 X68.424 Y162.51 E23.63166
G1 X67.43 Y162.339 E23.72224
G1 X66.429 Y162.135 E23.81398
G1 X65.566 Y161.89 E23.89454
G1 X65.115 Y161.662 E23.93992
G1 X64.705 Y161.365 E23.98539
G1 X64.348 Y161.008 E24.03073
G1 X64.051 Y160.599 E24.07612
G1 X63.811 Y160.121 E24.12415
G1 X63.652 Y159.724 E24.16255
G1 X62.587 Y157.173 E24.4108
G1 X61.452 Y154.654 E24.65892
G1 X60.248 Y152.176 E24.90632
G1 X58.988 Y149.758 E25.15118
G1 X57.663 Y147.381 E25.39556
G1 X56.252 Y145.012 E25.64318
G1 X54.795 Y142.713 E25.88761
G1 X53.271 Y140.454 E26.13232
G1 X52.64 Y139.554 E26.23103
G1 X52.345 Y139.037 E26.28448
G1 X51.882 Y137.888 E26.39572
G1 X51.497 Y136.783 E26.50081
G1 X51.294 Y136.112 E26.56376
G1 X51.041 Y135.148 E26.65326
G1 X50.862 Y134.349 E26.72679
G1 X50.709 Y133.514 E26.80303
G1 X50.581 Y132.641 E26.88226
G1 X50.486 Y131.755 E26.96228
G1 X50.43 Y130.964 E27.03349
G1 X50.398 Y129.99 E27.12101
G1 X50.402 Y129.205 E27.19151
G1 X50.441 Y128.292 E27.27357
G1 X50.51 Y127.429 E27.35132
G1 X50.605 Y126.623 E27.4242
G1 X50.74 Y125.752 E27.50335
G1 X50.926 Y124.785 E27.59178
G1 X51.083 Y124.121 E27.65305
G1 X51.351 Y123.138 E27.74455
G1 X51.57 Y122.44 E27.81025
G1 X51.935 Y121.413 E27.90812
G1 X52.218 Y120.702 E27.97685
G1 X52.631 Y119.901 E28.05778
G1 X53.451 Y118.717 E28.18711
G1 X55.191 Y116.109 E28.46866
G1 X56.619 Y113.819 E28.71101
G1 X58.011 Y111.443 E28.9583
G1 X59.329 Y109.04 E29.20443
G1 X60.598 Y106.56 E29.4546
G1 X61.752 Y104.139 E29.69545
G1 X62.864 Y101.626 E29.94223
G1 X63.824 Y99.294 E30.1687
G1 X64.052 Y98.843 E30.21408
G1 X64.264 Y98.538 E30.24744
G1 X65.209 Y97.332 E30.38503
G1 X66.864 Y95.156 E30.63053
G1 X68.462 Y92.926 E30.8769
G1 X69.986 Y90.666 E31.12169
G1 X71.461 Y88.34 E31.36903
G1 X72.853 Y85.998 E31.61369
G1 F2700 E26.61369
;MESH:01.stl
G0 F1800 X76.502 Y85.998
G0 X77.597 Y85.998
G0 X82.737 Y85.376
G1 F2700 E31.61369
G0 F1800 X82.308 Y84.945
;TYPE:WALL-OUTER
G1 F600 X82.167 Y85.002 E31.62734
G1 X77.368 Y85.003 E32.05831
G1 X77.368 Y98.213 E33.2446
G1 X86.149 Y98.213 E34.03315
G1 X97.793 Y86.57 E35.51187
G1 X96.709 Y85.486 E35.64954
G1 X96.27 Y85.047 E35.70529
G1 X95.46 Y85.452 E35.78662
G1 X94.973 Y86.42 E35.88393
G1 X94.951 Y86.446 E35.88699
G1 X89.372 Y92.023 E36.59539
G1 X89.024 Y92.33 E36.63706
G1 X88.466 Y92.695 E36.69694
G1 X87.822 Y92.973 E36.75993
G1 X87.139 Y93.133 E36.82293
G1 X86.44 Y93.168 E36.88578
G1 X85.741 Y93.08 E36.94905
G1 X85.071 Y92.868 E37.01215
G1 X84.45 Y92.543 E37.0751
G1 X83.898 Y92.117 E37.13771
G1 X83.426 Y91.59 E37.20125
G1 X83.057 Y90.995 E37.26412
G1 X82.8 Y90.344 E37.32697
G1 X82.661 Y89.658 E37.38983
G1 X82.647 Y88.958 E37.4527
G1 X82.754 Y88.265 E37.51567
G1 X82.988 Y87.595 E37.5794
G1 X83.326 Y86.996 E37.64117
G1 X83.773 Y86.449 E37.70461
G1 X89.376 Y80.851 E38.41587
G1 X90.099 Y80.478 E38.48893
G1 X90.356 Y80.349 E38.51475
G1 X90.761 Y79.539 E38.59608
G1 X89.239 Y78.015 E38.7895
G1 X82.308 Y84.945 E39.66967
G0 F1800 X82.167 Y85.002
G0 X82.119 Y85.002
G0 X82.588 Y85.23
;TYPE:WALL-INNER
G1 F600 X82.274 Y85.393 E39.70144
G1 X81.515 Y85.403 E39.7696
G1 X80.482 Y85.402 E39.86237
G1 X77.768 Y85.403 E40.10609
G1 X77.768 Y97.813 E41.22054
G1 X85.983 Y97.813 E41.95827
G1 X96.151 Y87.645 E43.2496
G1 X97.227 Y86.57 E43.38619
G1 X96.425 Y85.768 E43.48804
G1 X96.191 Y85.534 E43.51776
G1 X95.758 Y85.75 E43.56122
G1 X95.346 Y86.573 E43.64387
G1 X95.234 Y86.729 E43.66111
G1 X89.638 Y92.322 E44.37161
G1 X89.243 Y92.665 E44.41859
G1 X88.685 Y93.03 E44.47847
G1 X87.979 Y93.341 E44.54775
G1 X87.228 Y93.523 E44.61714
G1 X86.458 Y93.568 E44.68641
G1 X85.689 Y93.476 E44.75596
G1 X84.949 Y93.249 E44.82547
G1 X84.263 Y92.897 E44.89471
G1 X83.652 Y92.433 E44.96361
G1 X83.127 Y91.856 E45.03366
G1 X82.716 Y91.204 E45.10288
G1 X82.427 Y90.489 E45.17213
G1 X82.269 Y89.736 E45.24122
G1 X82.247 Y88.964 E45.31058
G1 X82.359 Y88.202 E45.37974
G1 X82.611 Y87.461 E45.45003
G1 X82.978 Y86.798 E45.51808
G1 X83.465 Y86.194 E45.58776
G1 X83.51 Y86.146 E45.59367
G1 X89.093 Y80.568 E46.30239
G1 X89.57 Y80.295 E46.35174
G1 X90.057 Y80.051 E46.40066
G1 X90.274 Y79.618 E46.44415
G1 X89.239 Y78.581 E46.57573
G1 X82.588 Y85.23 E47.42027
G0 F1800 X82.817 Y85.6
G1 F562.1 X82.345 Y85.787 E47.46894
G1 F600 X81.515 Y85.803 E47.54349
G1 X80.482 Y85.802 E47.63626
G1 X78.168 Y85.803 E47.84406
G1 X78.168 Y97.413 E48.88667
G1 X85.817 Y97.413 E49.57357
G1 X89.335 Y93.895 E50.02035
G1 F549.2 X89.78 Y93.398 E50.0858
G1 F519.5 X90.229 Y92.966 E50.15043
G1 F534.5 X90.281 Y92.916 E50.1577
G1 F535.7 X95.85 Y87.345 E50.94997
G1 F484.8 X96.369 Y86.762 E51.03672
G1 F442 X96.561 Y86.57 E51.06982
G1 X96.103 Y86.112 E51.14878
G1 F468.8 X95.741 Y86.77 E51.2351
G1 F516.1 X95.534 Y87.029 E51.26972
G1 F535.7 X92.728 Y89.834 E51.66877
G1 F534.5 X89.921 Y92.639 E52.06879
G1 F519.5 X89.482 Y93.031 E52.12983
G1 F549.2 X88.904 Y93.365 E52.19532
G1 F600 X88.137 Y93.709 E52.27081
G1 X87.317 Y93.913 E52.3467
G1 X86.477 Y93.968 E52.42229
G1 X85.637 Y93.873 E52.49821
G1 X84.827 Y93.63 E52.57415
G1 X84.076 Y93.251 E52.64969
G1 X83.406 Y92.748 E52.72493
G1 X82.828 Y92.122 E52.80144
G1 X82.375 Y91.414 E52.87692
G1 X82.055 Y90.634 E52.95263
G1 X81.876 Y89.814 E53.02801
G1 X81.847 Y88.971 E53.10376
G1 X81.964 Y88.139 E53.17921
G1 X82.234 Y87.328 E53.25597
G1 X82.631 Y86.6 E53.33043
G1 F562.1 X83.136 Y85.921 E53.41155
G1 F531 X83.209 Y85.845 E53.42225
G1 F533.3 X86 Y83.056 E53.82087
G1 F532.2 X88.792 Y80.266 E54.22052
G1 F482.9 X89.36 Y79.874 E54.29752
G1 F442 X89.694 Y79.705 E54.34315
G1 X89.239 Y79.247 E54.42185
G1 F467.8 X88.773 Y79.673 E54.49457
G1 F512.8 X88.474 Y79.948 E54.53725
G1 F532.2 X85.683 Y82.737 E54.93676
G1 F533.3 X82.892 Y85.527 E55.33545
G1 F531 X82.817 Y85.6 E55.34607
G0 F1800 X82.126 Y88.635
G0 X82.113 Y89.701
G0 X82.35 Y90.734
G0 X82.822 Y91.685
G0 X83.503 Y92.5
G0 X84.36 Y93.131
G0 X87.406 Y94.303
G1 F600 X86.495 Y94.367 E55.42808
G1 X85.585 Y94.27 E55.51027
G1 X84.704 Y94.011 E55.59273
G1 X83.89 Y93.605 E55.67442
G1 X83.16 Y93.064 E55.75601
G1 X82.529 Y92.388 E55.83906
G1 X82.034 Y91.623 E55.92088
G1 X81.682 Y90.78 E56.00292
G1 X81.484 Y89.892 E56.08462
G1 X81.447 Y88.978 E56.16677
G1 X81.569 Y88.076 E56.24851
G1 X81.857 Y87.194 E56.33183
G1 X82.283 Y86.402 E56.41259
G1 X82.416 Y86.181 E56.43575
G1 X81.515 Y86.203 E56.51669
G1 X80.482 Y86.202 E56.60946
G1 X78.568 Y86.203 E56.78134
G1 X78.568 Y97.013 E57.7521
G1 X85.652 Y97.013 E58.38826
G1 X88.806 Y93.858 E58.78888
G1 X88.294 Y94.077 E58.83889
G1 X87.406 Y94.303 E58.92118
G0 F1800 X86.23 Y94.735
;TYPE:SKIN
G1 F600 X85.253 Y94.583 E59.00997
G1 X84.327 Y94.263 E59.09795
G1 X83.473 Y93.788 E59.18571
G1 X83.442 Y93.767 E59.18907
G1 X82.676 Y93.124 E59.27888
G1 X82.074 Y92.41 E59.36275
G1 X81.582 Y91.568 E59.45032
G1 X81.247 Y90.646 E59.53842
G1 X81.08 Y89.68 E59.62645
G1 X81.086 Y88.704 E59.7141
G1 X81.224 Y87.943 E59.78356
G1 X81.273 Y87.704 E59.80547
G1 X81.627 Y86.78 E59.89432
G1 X81.74 Y86.584 E59.91464
G1 X78.948 Y86.583 E60.16537
G1 X78.948 Y96.633 E61.06788
G1 X85.493 Y96.632 E61.65564
G1 X87.466 Y94.661 E61.90608
G1 X87.168 Y94.716 E61.9333
G1 X86.23 Y94.735 E62.01755
G0 F1800 X79.461 Y96.431
G1 F600 X79.147 Y96.118 E62.05736
G0 F1800 X79.147 Y95.552
G1 F600 X80.026 Y96.431 E62.169
G0 F1800 X80.592 Y96.431
G1 F600 X79.147 Y94.987 E62.35245
G0 F1800 X79.147 Y94.421
G1 F600 X81.158 Y96.431 E62.60778
G0 F1800 X81.723 Y96.431
G1 F600 X79.147 Y93.855 E62.93493
G0 F1800 X79.147 Y93.29
G1 F600 X82.288 Y96.43 E63.33377
G0 F1800 X82.854 Y96.43
G1 F600 X79.147 Y92.724 E63.8045
G0 F1800 X79.147 Y92.158
G1 F600 X83.42 Y96.43 E64.3471
G0 F1800 X83.985 Y96.43
G1 F600 X79.147 Y91.592 E64.96153
G0 F1800 X79.147 Y91.027
G1 F600 X84.551 Y96.43 E65.64777
G0 F1800 X85.117 Y96.43
G1 F600 X79.147 Y90.461 E66.4059
G0 F1800 X79.147 Y89.895
G1 F600 X85.546 Y96.294 E67.21857
G0 F1800 X85.829 Y96.011
G1 F600 X84.263 Y94.446 E67.41739
G1 X84.193 Y94.376
G0 F1800 X85.142 Y94.758
G1 F600 X86.112 Y95.728 E67.54058
G0 F1800 X86.395 Y95.446
G1 F600 X85.823 Y94.874 E67.61322
G0 F1800 X86.442 Y94.927
G1 F600 X86.678 Y95.163 E67.64319
G0 F1800 X81.355 Y91.537
G1 F600 X79.147 Y89.33 E67.92354
G0 F1800 X79.147 Y88.764
G1 F600 X81.047 Y90.664 E68.16484
G0 F1800 X80.934 Y89.984
G1 F600 X79.147 Y88.198 E68.39173
G0 F1800 X79.147 Y87.633
G1 F600 X80.882 Y89.367 E68.61201
G0 F1800 X80.889 Y88.809
G1 F600 X79.147 Y87.067 E68.83324
G0 F1800 X79.428 Y86.782
G1 F600 X80.954 Y88.308 E69.02704
G0 F1800 X81.047 Y87.835
G1 F600 X79.994 Y86.782 E69.16078
G0 F1800 X80.56 Y86.783
G1 F600 X81.175 Y87.398 E69.23888
G0 F1800 X81.332 Y86.988
G1 F600 X81.126 Y86.783 E69.26498
G1 F2700 E64.26498
;MESH:02.stl(2)
G0 F1800 X82.826 Y91.089
G0 X83.37 Y91.921
G0 X84.094 Y92.601
G0 X84.961 Y93.092
G0 X85.916 Y93.367
G0 X86.908 Y93.408
G0 X87.784 Y93.236
G0 X92.979 Y91.06
G0 X93.753 Y91.834
G0 X102.486 Y91.06
G0 X103.581 Y91.06
G0 X103.961 Y102.043
G1 F2700 E69.26498
G0 F1800 X103.351 Y102.043
;TYPE:WALL-OUTER
G1 F600 X103.28 Y102.186 E69.27932
G1 X103.151 Y102.232 E69.29162
G1 X91.76 Y102.232 E70.31455
G1 X91.533 Y102.783 E70.36807
G1 X91.275 Y103.48 E70.43481
G1 X91.053 Y104.154 E70.49854
G1 X90.846 Y104.865 E70.56504
G1 X90.665 Y105.583 E70.63153
G1 X90.512 Y106.307 E70.69799
G1 X90.405 Y106.935 E70.75519
G1 X90.304 Y107.657 E70.82066
G1 X90.23 Y108.384 E70.88629
G1 X90.182 Y109.107 E70.95136
G1 X90.161 Y109.845 E71.01766
G1 X90.167 Y110.583 E71.08393
G1 X90.204 Y111.342 E71.15218
G1 X90.267 Y112.085 E71.21914
G1 X90.359 Y112.829 E71.28646
G1 X90.48 Y113.573 E71.35415
G1 X90.63 Y114.319 E71.42248
G1 X90.806 Y115.046 E71.48966
G1 X91.01 Y115.768 E71.55703
G1 X91.254 Y116.532 E71.62906
G1 X91.519 Y117.24 E71.69694
G1 X91.761 Y117.832 E71.75438
G1 X103.159 Y117.832 E72.77794
G1 X103.3 Y117.897 E72.79189
G1 X103.352 Y118.032 E72.80488
G1 X103.351 Y133.626 E74.20526
G1 X103.352 Y139.088 E74.69576
G1 X104.044 Y139.238 E74.75934
G1 X104.954 Y139.407 E74.84246
G1 X105.868 Y139.548 E74.92551
G1 X106.727 Y139.656 E75.00326
G1 X107.567 Y139.733 E75.07901
G1 X108.457 Y139.792 E75.15911
G1 X109.351 Y139.824 E75.23944
G1 X109.95 Y139.828 E75.29324
G1 X110.453 Y139.827 E75.33841
G1 X111.265 Y139.802 E75.41136
G1 X112.174 Y139.748 E75.49313
G1 X113.081 Y139.667 E75.57491
G1 X114.024 Y139.552 E75.66022
G1 X114.882 Y139.421 E75.73816
G1 X115.762 Y139.261 E75.81849
G1 X116.563 Y139.088 E75.89208
G1 X116.563 Y118.016 E77.78439
G1 X116.628 Y117.883 E77.79769
G1 X116.763 Y117.832 E77.81064
G1 X128.155 Y117.831 E78.83367
G1 X128.382 Y117.281 E78.88711
G1 X128.639 Y116.586 E78.95365
G1 X128.861 Y115.911 E79.01746
G1 X129.084 Y115.138 E79.08971
G1 X129.25 Y114.482 E79.15048
G1 X129.402 Y113.758 E79.21691
G1 X129.508 Y113.139 E79.27331
G1 X129.611 Y112.402 E79.34013
G1 X129.684 Y111.68 E79.4053
G1 X129.732 Y110.957 E79.47037
G1 X129.753 Y110.219 E79.53667
G1 X129.747 Y109.481 E79.60295
G1 X129.711 Y108.722 E79.67119
G1 X129.646 Y107.975 E79.73852
G1 X129.557 Y107.241 E79.80492
G1 X129.433 Y106.485 E79.87372
G1 X129.286 Y105.751 E79.94094
G1 X129.108 Y105.017 E80.00877
G1 X128.904 Y104.297 E80.07597
G1 X128.672 Y103.572 E80.14433
G1 X128.408 Y102.853 E80.21311
G1 X128.154 Y102.232 E80.27336
G1 X116.736 Y102.231 E81.29873
