;FLAVOR:Marlin
;TIME:3046
;Filament used: 2.2056m
;Layer height: 0.18
;MINX:83.841
;MINY:35.881
;MINZ:0.36
;MAXX:131.007
;MAXY:124.055
;MAXZ:16.02
;Generated with Cura_SteamEngine 5.0.0
M140 S100
M105
M190 S100
M104 S230
M105
M109 S230
M82 ;absolute extrusion mode
G28 ;Home
G1 Z15.0 F6000 ;Move the platform down 15mm
;Prime the extruder
G92 E0
G1 F200 E3
G92 E0
G92 E0
G92 E0
G1 F2700 E-5
;LAYER_COUNT:88
;LAYER:0
M107
G0 F1800 X86.137 Y59.435 Z0.36
G0 X83.841 Y69.738
;TYPE:SKIRT
G1 F2700 E0
G1 F600 X83.845 Y68.945 E0.07121
G1 X83.885 Y67.984 E0.15759
G1 X83.949 Y67.187 E0.22939
G1 X84.056 Y66.277 E0.31167
G1 X84.189 Y65.423 E0.38929
G1 X84.378 Y64.453 E0.47804
G1 X84.538 Y63.772 E0.54086
G1 X84.821 Y62.736 E0.6373
G1 X85.039 Y62.046 E0.70228
G1 X85.39 Y61.058 E0.79644
G1 X85.759 Y60.139 E0.88537
G1 X86.137 Y59.435 E0.95713
G1 X86.885 Y58.351 E1.0754
G1 X87.444 Y57.535 E1.16423
G1 X88.939 Y55.26 E1.40869
G1 X90.373 Y52.94 E1.65362
G1 X91.731 Y50.593 E1.89713
G1 X93.045 Y48.17 E2.14465
G1 X94.258 Y45.772 E2.38598
G1 X95.43 Y43.284 E2.63296
G1 X96.519 Y40.792 E2.87718
G1 X97.295 Y38.898 E3.06099
G1 X97.535 Y38.419 E3.1091
G1 X97.843 Y37.98 E3.15726
G1 X98.214 Y37.592 E3.20547
G1 X98.637 Y37.263 E3.25359
G1 X99.105 Y37.001 E3.30176
G1 X99.812 Y36.757 E3.36892
G1 X100.388 Y36.625 E3.42199
G1 X101.411 Y36.423 E3.51563
G1 X102.444 Y36.252 E3.60966
G1 X103.42 Y36.121 E3.69809
G1 X104.482 Y36.011 E3.79397
G1 X105.504 Y35.937 E3.88599
G1 X106.486 Y35.894 E3.97426
G1 X107.546 Y35.881 E4.06946
G1 X108.572 Y35.9 E4.16161
G1 X109.605 Y35.952 E4.2545
G1 X110.604 Y36.031 E4.34449
G1 X111.599 Y36.142 E4.4344
G1 X112.671 Y36.294 E4.53163
G1 X113.654 Y36.463 E4.6212
G1 X114.676 Y36.672 E4.71488
G1 X115.569 Y36.926 E4.79825
G1 X116.05 Y37.163 E4.8464
G1 X116.491 Y37.468 E4.89456
G1 X116.881 Y37.836 E4.94271
G1 X117.213 Y38.258 E4.99093
G1 X117.564 Y38.923 E5.05845
G1 X118.794 Y41.882 E5.34622
G1 X119.912 Y44.364 E5.59068
G1 X121.099 Y46.809 E5.83475
G1 X122.369 Y49.247 E6.08162
G1 X123.686 Y51.608 E6.3244
G1 X125.092 Y53.969 E6.57117
G1 X126.536 Y56.249 E6.81353
G1 X128.083 Y58.54 E7.06177
G1 X128.69 Y59.405 E7.15667
G1 X129.027 Y59.996 E7.21777
G1 X129.494 Y61.154 E7.3299
G1 X129.891 Y62.295 E7.43839
G1 X130.097 Y62.98 E7.50262
G1 X130.354 Y63.958 E7.59343
G1 X130.535 Y64.768 E7.66796
G1 X130.692 Y65.62 E7.74576
G1 X130.82 Y66.503 E7.82589
G1 X130.92 Y67.426 E7.90926
G1 X130.974 Y68.204 E7.9793
G1 X131.007 Y69.205 E8.06924
G1 X131.003 Y70.004 E8.14099
G1 X130.963 Y70.939 E8.22503
G1 X130.893 Y71.8 E8.30261
G1 X130.796 Y72.626 E8.37729
G1 X130.658 Y73.52 E8.45853
G1 X130.469 Y74.498 E8.54798
G1 X130.308 Y75.177 E8.61064
G1 X130.036 Y76.173 E8.70336
G1 X129.82 Y76.862 E8.76821
G1 X129.425 Y77.982 E8.87486
G1 X128.551 Y80.574 E9.1205
G1 X127.755 Y83.176 E9.36486
G1 X127.032 Y85.803 E9.60954
G1 X126.387 Y88.434 E9.85281
G1 X125.802 Y91.156 E10.10283
G1 X125.314 Y93.78 E10.34251
G1 X124.888 Y96.5 E10.58975
G1 X124.54 Y99.213 E10.83538
G1 X124.273 Y101.901 E11.07796
G1 X124.081 Y104.616 E11.32238
G1 X123.965 Y107.346 E11.56776
G1 X123.933 Y111.205 E11.91432
G1 X123.941 Y111.876 E11.97458
G1 X123.941 Y119.769 E12.68339
G1 X123.931 Y120.496 E12.74868
G1 X123.883 Y121.03 E12.79683
G1 X123.757 Y121.551 E12.84497
G1 X123.555 Y122.048 E12.89315
G1 X123.281 Y122.509 E12.9413
G1 X122.942 Y122.924 E12.98943
G1 X122.545 Y123.285 E13.03761
G1 X122.099 Y123.582 E13.08573
G1 X121.613 Y123.81 E13.13394
G1 X121.099 Y123.963 E13.1821
G1 X120.432 Y124.045 E13.24245
G1 X120.011 Y124.055 E13.28027
G1 X107.386 Y124.055 E14.41402
G1 X106.685 Y124.045 E14.47698
G1 X106.15 Y123.997 E14.52522
G1 X105.629 Y123.871 E14.57335
G1 X105.133 Y123.668 E14.62148
G1 X104.672 Y123.394 E14.66964
G1 X104.256 Y123.055 E14.71783
G1 X103.896 Y122.658 E14.76596
G1 X103.545 Y122.112 E14.82425
G1 X103.233 Y121.514 E14.88482
G1 X102.523 Y120.109 E15.02619
G1 X101.211 Y117.69 E15.27331
G1 X99.855 Y115.347 E15.51642
G1 X98.435 Y113.048 E15.75908
G1 X96.664 Y110.364 E16.04785
G1 X96.403 Y109.896 E16.09597
G1 X96.214 Y109.394 E16.14414
G1 X96.125 Y109.015 E16.1791
G1 X95.916 Y107.846 E16.28575
G1 X95.399 Y105.176 E16.52997
G1 X94.812 Y102.541 E16.7724
G1 X94.135 Y99.867 E17.02011
G1 X93.384 Y97.219 E17.26729
G1 X92.581 Y94.662 E17.50797
G1 X91.684 Y92.065 E17.7547
G1 X90.72 Y89.514 E17.9996
G1 X89.687 Y86.994 E18.24418
G1 X88.578 Y84.494 E18.48978
G1 X87.393 Y82.017 E18.73637
G1 X86.439 Y80.143 E18.92521
G1 X85.912 Y79.136 E19.02727
G1 X85.68 Y78.624 E19.07775
G1 X85.301 Y77.645 E19.17203
G1 X84.953 Y76.634 E19.26805
G1 X84.759 Y75.993 E19.32819
G1 X84.489 Y74.971 E19.42312
G1 X84.311 Y74.17 E19.4968
G1 X84.154 Y73.315 E19.57487
G1 X84.032 Y72.474 E19.65118
G1 X83.923 Y71.469 E19.74196
G1 X83.874 Y70.754 E19.80632
G1 X83.841 Y69.738 E19.89761
G0 F1800 X84.241 Y69.738
G1 F600 X84.244 Y68.96 E19.96747
G1 X84.284 Y68.015 E20.05241
G1 X84.347 Y67.232 E20.12296
G1 X84.452 Y66.338 E20.20379
G1 X84.582 Y65.499 E20.28003
G1 X84.768 Y64.543 E20.3675
G1 X84.924 Y63.876 E20.42901
G1 X85.203 Y62.855 E20.52406
G1 X85.416 Y62.179 E20.58771
G1 X85.761 Y61.207 E20.68033
G1 X86.13 Y60.288 E20.76926
G1 X86.467 Y59.662 E20.83311
G1 X87.243 Y58.538 E20.95577
G1 X87.773 Y57.762 E21.04016
G1 X89.287 Y55.459 E21.28766
G1 X90.717 Y53.145 E21.53194
G1 X92.08 Y50.79 E21.77629
G1 X93.388 Y48.377 E22.02277
G1 X94.619 Y45.944 E22.26763
G1 X95.787 Y43.465 E22.51373
G1 X96.896 Y40.925 E22.76262
G1 X97.665 Y39.05 E22.94461
G1 X97.893 Y38.599 E22.98999
G1 X98.19 Y38.189 E23.03546
G1 X98.547 Y37.831 E23.08086
G1 X98.956 Y37.534 E23.12625
G1 X99.407 Y37.305 E23.17167
G1 X99.902 Y37.147 E23.21833
G1 X100.466 Y37.018 E23.27029
G1 X101.477 Y36.818 E23.36284
G1 X102.498 Y36.648 E23.45579
G1 X103.462 Y36.518 E23.54314
G1 X104.512 Y36.41 E23.63793
G1 X105.522 Y36.336 E23.72888
G1 X106.491 Y36.294 E23.81598
G1 X107.54 Y36.281 E23.91019
G1 X108.553 Y36.3 E24.00117
G1 X109.574 Y36.351 E24.09298
G1 X110.561 Y36.429 E24.18189
G1 X111.544 Y36.538 E24.2707
G1 X112.603 Y36.688 E24.36675
G1 X113.575 Y36.855 E24.45532
G1 X114.584 Y37.061 E24.5478
G1 X115.447 Y37.308 E24.62841
G1 X115.897 Y37.537 E24.67375
G1 X116.306 Y37.835 E24.7192
G1 X116.663 Y38.193 E24.7646
G1 X116.958 Y38.603 E24.80996
G1 X117.193 Y39.072 E24.85707
G1 X118.424 Y42.035 E25.1452
G1 X119.559 Y44.553 E25.39324
G1 X120.742 Y46.99 E25.63651
G1 X122.008 Y49.42 E25.88257
G1 X123.342 Y51.813 E26.1286
G1 X124.753 Y54.182 E26.37622
G1 X126.21 Y56.481 E26.62064
G1 X127.733 Y58.738 E26.86515
G1 X128.363 Y59.635 E26.96359
G1 X128.662 Y60.16 E27.01785
G1 X129.121 Y61.3 E27.12821
G1 X129.508 Y62.412 E27.23394
G1 X129.711 Y63.082 E27.29681
G1 X129.964 Y64.046 E27.38631
G1 X130.142 Y64.842 E27.45956
G1 X130.297 Y65.679 E27.536
G1 X130.423 Y66.547 E27.61477
G1 X130.521 Y67.455 E27.69678
G1 X130.574 Y68.219 E27.76556
G1 X130.607 Y69.205 E27.85415
G1 X130.603 Y69.988 E27.92447
G1 X130.564 Y70.908 E28.00716
G1 X130.496 Y71.754 E28.08338
G1 X130.401 Y72.566 E28.15679
G1 X130.265 Y73.445 E28.23667
G1 X130.079 Y74.407 E28.32466
G1 X129.922 Y75.073 E28.38611
G1 X129.654 Y76.055 E28.47752
G1 X129.443 Y76.729 E28.54094
G1 X129.048 Y77.849 E28.64759
G1 X128.176 Y80.434 E28.89258
G1 X127.373 Y83.058 E29.13901
G1 X126.645 Y85.707 E29.38572
G1 X125.994 Y88.36 E29.63103
G1 X125.41 Y91.077 E29.8806
G1 X124.914 Y93.744 E30.12421
G1 X124.494 Y96.424 E30.36782
G1 X124.144 Y99.155 E30.61507
G1 X123.874 Y101.87 E30.86009
G1 X123.681 Y104.607 E31.10649
G1 X123.566 Y107.326 E31.35088
G1 X123.533 Y111.206 E31.69932
G1 X123.541 Y111.88 E31.75985
G1 X123.541 Y119.763 E32.46777
G1 X123.531 Y120.49 E32.53306
G1 X123.484 Y120.993 E32.57843
G1 X123.358 Y121.483 E32.62386
G1 X123.157 Y121.947 E32.66927
G1 X122.885 Y122.373 E32.71466
G1 X122.55 Y122.752 E32.76008
G1 X122.159 Y123.072 E32.80546
G1 X121.723 Y123.327 E32.85082
G1 X121.252 Y123.511 E32.89623
G1 X120.757 Y123.617 E32.94169
G1 X120.101 Y123.654 E33.00069
G1 X107.391 Y123.655 E34.14208
G1 X106.69 Y123.645 E34.20504
G1 X106.187 Y123.598 E34.2504
G1 X105.697 Y123.472 E34.29584
G1 X105.234 Y123.27 E34.3412
G1 X104.807 Y122.998 E34.38667
G1 X104.429 Y122.663 E34.43202
G1 X104.109 Y122.272 E34.4774
G1 X103.61 Y121.372 E34.56981
G1 X102.867 Y119.903 E34.71764
G1 X101.566 Y117.505 E34.96264
G1 X100.207 Y115.158 E35.20619
G1 X98.767 Y112.824 E35.45247
G1 X96.998 Y110.144 E35.74084
G1 X96.754 Y109.701 E35.78626
G1 X96.582 Y109.226 E35.83163
G1 X96.519 Y108.944 E35.85758
G1 X96.318 Y107.821 E35.96003
G1 X95.788 Y105.085 E36.21029
G1 X95.197 Y102.428 E36.45473
G1 X94.522 Y99.765 E36.70144
G1 X93.777 Y97.138 E36.94665
G1 X92.954 Y94.518 E37.19327
G1 X92.06 Y91.93 E37.43915
G1 X91.088 Y89.357 E37.68615
G1 X90.051 Y86.829 E37.93153
G1 X88.941 Y84.325 E38.1775
G1 X87.769 Y81.873 E38.42155
G1 X86.777 Y79.926 E38.61779
G1 X86.184 Y78.781 E38.73358
G1 X85.721 Y77.628 E38.84516
G1 X85.335 Y76.517 E38.95078
G1 X85.145 Y75.889 E39.0097
G1 X84.879 Y74.884 E39.10306
G1 X84.704 Y74.097 E39.17546
G1 X84.55 Y73.256 E39.25224
G1 X84.429 Y72.43 E39.32721
G1 X84.322 Y71.44 E39.41663
G1 X84.274 Y70.74 E39.47964
G1 X84.241 Y69.738 E39.56967
G1 F2700 E34.56967
;MESH:02.stl
G0 F1800 X86.772 Y70.185
G0 X87.866 Y70.168
G0 X100.626 Y76.662
G1 F2700 E39.56967
G0 F1800 X100.626 Y77.272
;TYPE:WALL-OUTER
G1 F600 X100.767 Y77.338 E39.58365
G1 X100.819 Y77.472 E39.59656
G1 X100.818 Y93.077 E40.99793
G1 X100.819 Y95.333 E41.20052
G1 X100.819 Y98.527 E41.48735
G1 X101.511 Y98.677 E41.55093
G1 X102.419 Y98.846 E41.63388
G1 X103.292 Y98.982 E41.71322
G1 X104.194 Y99.096 E41.79486
G1 X105.036 Y99.172 E41.87079
G1 X105.925 Y99.231 E41.9508
G1 X106.806 Y99.263 E42.02996
G1 X107.44 Y99.266 E42.0869
G1 X108.444 Y99.263 E42.17706
G1 X108.539 Y99.248 E42.1857
G1 X109.64 Y99.187 E42.28472
G1 X110.545 Y99.107 E42.36631
G1 X111.489 Y98.991 E42.45172
G1 X112.348 Y98.86 E42.52975
G1 X113.228 Y98.7 E42.61007
G1 X114.03 Y98.527 E42.68375
G1 X114.03 Y77.456 E44.57598
G1 X114.095 Y77.323 E44.58927
G1 X114.23 Y77.272 E44.60223
G1 X125.621 Y77.272 E45.62517
G1 X125.848 Y76.72 E45.67877
G1 X126.106 Y76.023 E45.74551
G1 X126.328 Y75.35 E45.80915
G1 X126.535 Y74.638 E45.87574
G1 X126.716 Y73.921 E45.94215
G1 X126.869 Y73.197 E46.0086
G1 X126.976 Y72.569 E46.06581
G1 X127.077 Y71.847 E46.13128
G1 X127.151 Y71.12 E46.1969
G1 X127.199 Y70.397 E46.26197
G1 X127.22 Y69.659 E46.32827
G1 X127.214 Y68.921 E46.39455
G1 X127.178 Y68.162 E46.46279
G1 X127.114 Y67.418 E46.52984
G1 X127.022 Y66.673 E46.59726
G1 X126.902 Y65.932 E46.66467
G1 X126.751 Y65.184 E46.73319
G1 X126.558 Y64.389 E46.80666
G1 X126.358 Y63.691 E46.87186
G1 X126.127 Y62.972 E46.93968
G1 X125.862 Y62.264 E47.00757
G1 X125.62 Y61.672 E47.065
G1 X114.204 Y61.671 E48.09019
G1 X114.065 Y61.587 E48.10477
G1 X114.03 Y61.472 E48.11557
G1 X114.03 Y40.416 E50.00645
G1 X113.337 Y40.266 E50.07012
G1 X112.427 Y40.097 E50.15324
G1 X111.557 Y39.961 E50.23231
G1 X110.653 Y39.848 E50.31413
G1 X109.814 Y39.771 E50.38979
G1 X108.925 Y39.712 E50.4698
G1 X108.03 Y39.68 E50.55022
G1 X107.431 Y39.676 E50.60402
G1 X106.928 Y39.677 E50.64919
G1 X106.116 Y39.702 E50.72214
G1 X105.207 Y39.756 E50.80391
G1 X104.3 Y39.837 E50.88569
G1 X103.357 Y39.952 E50.971
G1 X102.499 Y40.083 E51.04894
G1 X101.619 Y40.243 E51.12927
G1 X100.818 Y40.416 E51.20286
G1 X100.818 Y61.483 E53.09472
G1 X100.747 Y61.626 E53.10906
G1 X100.618 Y61.672 E53.12136
G1 X89.226 Y61.672 E54.14439
G1 X88.999 Y62.223 E54.1979
G1 X88.742 Y62.918 E54.26445
G1 X88.506 Y63.638 E54.33249
G1 X88.312 Y64.305 E54.39487
G1 X88.131 Y65.022 E54.46128
G1 X87.978 Y65.746 E54.52773
G1 X87.871 Y66.374 E54.58494
G1 X87.771 Y67.094 E54.65022
G1 X87.696 Y67.827 E54.71639
G1 X87.649 Y68.547 E54.78118
G1 X87.628 Y69.285 E54.84748
G1 X87.634 Y70.023 E54.91376
G1 X87.671 Y70.787 E54.98245
G1 X87.733 Y71.523 E55.04878
G1 X87.825 Y72.27 E55.11637
G1 X87.946 Y73.013 E55.18397
G1 X88.096 Y73.757 E55.25213
G1 X88.271 Y74.482 E55.3191
G1 X88.477 Y75.209 E55.38696
G1 X88.721 Y75.971 E55.45881
G1 X88.984 Y76.678 E55.52655
G1 X89.227 Y77.272 E55.58419
G1 X100.626 Y77.272 E56.60784
G0 F1800 X100.767 Y77.338
G0 X100.783 Y77.38
G0 X101.428 Y77.38
G0 X105.294 Y73.836
G0 X105.9 Y73.766
G1 F600 X105.887 Y73.317 E56.64818
G1 X106.003 Y72.883 E56.68852
G1 X106.239 Y72.497 E56.72915
G1 X106.58 Y72.197 E56.76994
G1 X106.988 Y72.008 E56.81032
G1 X107.421 Y71.945 E56.84961
G1 X107.852 Y72.02 E56.8889
G1 X108.093 Y72.099 E56.91167
G1 X108.461 Y72.348 E56.95158
G1 X108.749 Y72.696 E56.99214
G1 X108.924 Y73.109 E57.03242
G1 X108.971 Y73.559 E57.07305
G1 X108.885 Y74.001 E57.11349
G1 X108.678 Y74.4 E57.15386
G1 X108.36 Y74.727 E57.19482
G1 X107.965 Y74.943 E57.23525
G1 X107.524 Y75.038 E57.27576
G1 X107.075 Y75.002 E57.31621
G1 X106.656 Y74.838 E57.35661
G1 X106.433 Y74.671 E57.38163
G1 X106.3 Y74.559 E57.39725
G1 X106.042 Y74.191 E57.43761
G1 X105.9 Y73.766 E57.47785
G0 F1800 X105.895 Y73.566
G0 X105.267 Y73.551
G0 X105.286 Y65.174
G0 X105.887 Y65.273
G1 F600 X106.003 Y64.838 E57.51828
G1 X106.239 Y64.452 E57.55891
G1 X106.58 Y64.152 E57.59969
G1 X106.987 Y63.963 E57.63999
G1 X107.422 Y63.9 E57.67946
G1 X107.656 Y63.92 E57.70055
G1 X108.093 Y64.054 E57.7416
G1 X108.461 Y64.303 E57.7815
G1 X108.749 Y64.652 E57.82214
G1 X108.924 Y65.065 E57.86242
G1 X108.971 Y65.515 E57.90305
G1 X108.857 Y66.013 E57.94893
G1 X108.678 Y66.356 E57.98367
G1 X108.36 Y66.683 E58.02463
G1 X107.969 Y66.897 E58.06466
G1 X107.523 Y66.994 E58.10565
G1 X107.076 Y66.957 E58.14593
G1 X106.682 Y66.811 E58.18366
G1 X106.3 Y66.514 E58.22711
G1 X106.042 Y66.147 E58.2674
G1 X105.9 Y65.721 E58.30772
G1 X105.887 Y65.273 E58.34797
G0 F1800 X105.938 Y65.08
G0 X105.482 Y65.349
;TYPE:WALL-INNER
G1 F600 X105.593 Y64.795 E58.39871
G1 X105.855 Y64.297 E58.44924
G1 X106.263 Y63.888 E58.50112
G1 X106.756 Y63.621 E58.55147
G1 X107.315 Y63.507 E58.60271
G1 X107.766 Y63.536 E58.64329
G1 X108.311 Y63.719 E58.69492
G1 X108.765 Y64.043 E58.74501
G1 X109.111 Y64.48 E58.79506
G1 X109.321 Y65.016 E58.84676
G1 X109.365 Y65.584 E58.89792
G1 X109.269 Y66.075 E58.94285
G1 X109.041 Y66.537 E58.98911
G1 X108.699 Y66.919 E59.03516
G1 X108.22 Y67.224 E59.08615
G1 X107.676 Y67.378 E59.13692
G1 X107.122 Y67.37 E59.18668
G1 X106.57 Y67.198 E59.2386
G1 X106.493 Y67.164 E59.24616
G1 X106.089 Y66.867 E59.29119
G1 X105.746 Y66.433 E59.34086
G1 X105.534 Y65.913 E59.39129
G1 X105.482 Y65.349 E59.44216
G0 F1800 X105.271 Y65.344
G0 X105.291 Y73.186
G0 X105.499 Y73.221
G1 F600 X105.636 Y72.72 E59.4888
G1 X105.899 Y72.278 E59.53499
G1 X106.263 Y71.933 E59.58003
G1 X106.756 Y71.666 E59.63037
G1 X107.298 Y71.555 E59.68006
G1 X107.726 Y71.57 E59.71852
G1 X108.213 Y71.712 E59.76407
G1 X108.696 Y72.02 E59.81551
G1 X109.051 Y72.423 E59.86374
G1 X109.273 Y72.889 E59.9101
G1 X109.369 Y73.45 E59.96121
G1 X109.297 Y74.016 E60.01245
G1 X109.069 Y74.53 E60.06294
G1 X108.699 Y74.963 E60.11409
G1 X108.217 Y75.269 E60.16536
G1 X107.675 Y75.423 E60.21596
G1 X107.108 Y75.413 E60.26689
G1 X106.569 Y75.241 E60.31769
G1 X106.193 Y74.991 E60.35824
G1 X105.976 Y74.794 E60.38456
G1 X105.665 Y74.325 E60.4351
G1 X105.5 Y73.784 E60.48589
G1 X105.499 Y73.221 E60.53645
G0 F1800 X105.291 Y73.186
G0 X105.617 Y72.424
G0 X114.198 Y62.282
G0 X114.198 Y62.072
G1 F600 X113.926 Y61.99 E60.56196
G1 X113.737 Y61.816 E60.58503
G1 X113.633 Y61.535 E60.61194
G1 X113.63 Y60.833 E60.67498
G1 X113.63 Y40.738 E62.47956
G1 X112.408 Y40.499 E62.59138
G1 X111.501 Y40.357 E62.67382
G1 X110.61 Y40.246 E62.75445
G1 X109.654 Y40.159 E62.84066
G1 X108.823 Y40.106 E62.91543
G1 X107.925 Y40.076 E62.99612
G1 X106.94 Y40.077 E63.08458
G1 X106.134 Y40.102 E63.15699
G1 X105.237 Y40.155 E63.23769
G1 X104.342 Y40.235 E63.31838
G1 X103.417 Y40.348 E63.40206
G1 X102.565 Y40.477 E63.47945
G1 X101.674 Y40.64 E63.56079
G1 X101.218 Y40.739 E63.60269
G1 X101.218 Y61.503 E65.46735
G1 X101.137 Y61.775 E65.49284
G1 X100.95 Y61.973 E65.51729
G1 X100.674 Y62.07 E65.54357
G1 X99.701 Y62.073 E65.63094
G1 X89.493 Y62.072 E66.54765
G1 X89.139 Y62.996 E66.6365
G1 X88.901 Y63.712 E66.70426
G1 X88.698 Y64.41 E66.76954
G1 X88.521 Y65.112 E66.83456
G1 X88.371 Y65.822 E66.89972
