;FLAVOR:Marlin
;TIME:1617
;Filament used: 0.875048m
;Layer height: 0.15
;MINX:94.17
;MINY:87.413
;MINZ:0.3
;MAXX:125.764
;MAXY:132.567
;MAXZ:6
;Generated with Cura_SteamEngine 5.0.0
M140 S60
M105
M190 S60
M104 S200
M105
M109 S200
M82 ;absolute extrusion mode
G28 ;Home
G1 Z15.0 F6000 ;Move the platform down 15mm
;Prime the extruder
G92 E0
G1 F200 E3
G92 E0
G92 E0
G92 E0
G1 F2700 E-5
;LAYER_COUNT:39
;LAYER:0
M106 S255
;MESH:?????????A2.stl
G0 F1800 X104.412 Y92.694 Z0.3
;TYPE:WALL-OUTER
G1 F2700 E0
G1 F600 X104.072 Y93.148 E0.0283
G1 X103.771 Y93.622 E0.05631
G1 X103.499 Y94.142 E0.08559
G1 X103.267 Y94.684 E0.115
G1 X103.091 Y95.221 E0.1432
G1 X102.953 Y95.778 E0.17182
G1 X102.857 Y96.367 E0.2016
G1 X102.813 Y96.931 E0.22982
G1 X102.814 Y97.528 E0.25961
G1 X102.861 Y98.087 E0.28759
G1 F601.5 X102.947 Y98.623 E0.31461
G1 X103.149 Y99.394 E0.35427
G1 F600 X103.347 Y99.933 E0.38292
G1 X103.582 Y100.444 E0.41098
G1 X103.858 Y100.938 E0.43921
G1 X104.172 Y101.409 E0.46745
G1 X104.536 Y101.873 E0.49688
G1 X104.919 Y102.286 E0.52498
G1 X105.337 Y102.67 E0.55329
G1 X105.791 Y103.025 E0.58205
G1 X106.249 Y103.329 E0.60947
G1 X106.853 Y103.648 E0.64355
G1 X107.559 Y103.954 E0.68194
G1 X108.081 Y104.117 E0.70922
G1 X108.649 Y104.248 E0.7383
G1 X109.195 Y104.329 E0.76584
G1 X110.056 Y104.37 E0.80885
G1 X110.631 Y104.344 E0.83756
G1 X111.19 Y104.269 E0.8657
G1 X111.743 Y104.149 E0.89393
G1 X112.22 Y103.999 E0.91888
G1 X113.062 Y103.671 E0.96396
G1 X113.811 Y103.253 E1.00675
G1 X114.269 Y102.938 E1.03449
G1 X114.899 Y102.402 E1.07575
G1 X115.52 Y101.737 E1.12115
G1 X115.871 Y101.273 E1.15017
G1 X116.173 Y100.797 E1.1783
G1 X116.444 Y100.281 E1.20738
G1 X116.676 Y99.737 E1.23688
G1 X116.849 Y99.21 E1.26455
G1 X116.994 Y98.626 E1.29457
G1 X117.085 Y98.051 E1.32362
G1 X117.127 Y97.526 E1.34989
G1 X117.13 Y96.933 E1.37948
G1 X117.087 Y96.367 E1.4078
G1 F601.5 X116.993 Y95.778 E1.43748
G1 X116.854 Y95.222 E1.466
G1 F600 X116.686 Y94.709 E1.49293
G1 X116.461 Y94.175 E1.52184
G1 X116.23 Y93.725 E1.54708
G1 X115.923 Y93.242 E1.57563
G1 X115.463 Y92.617 E1.61435
G1 X115.023 Y92.133 E1.64698
G1 X114.625 Y91.768 E1.67392
G1 X114.165 Y91.404 E1.70319
G1 X113.715 Y91.116 E1.72984
G1 X112.933 Y90.69 E1.77427
G1 X112.442 Y90.49 E1.80072
G1 X111.866 Y90.306 E1.83089
G1 X111.358 Y90.187 E1.85692
G1 X110.75 Y90.092 E1.88762
G1 X110.184 Y90.052 E1.91593
G1 X109.609 Y90.057 E1.94462
G1 X109.095 Y90.104 E1.97037
G1 X108.46 Y90.21 E2.00249
G1 X107.942 Y90.343 E2.02917
G1 X107.382 Y90.532 E2.05865
G1 X106.876 Y90.751 E2.08616
G1 X106.367 Y91.02 E2.11488
G1 X105.88 Y91.344 E2.14407
G1 X105.199 Y91.869 E2.18697
G1 X104.795 Y92.258 E2.21495
G1 X104.412 Y92.694 E2.2439
G0 F1800 X104.293 Y92.854
G0 X104.7 Y93.154
G0 X103.534 Y95.772
G0 X103.534 Y98.648
G0 X105.539 Y98.9
G0 X105.903 Y98.411
G1 F600 X103.959 Y98.41 E2.34089
G1 X103.782 Y98.276 E2.35196
G1 X103.772 Y97.49 E2.39118
G1 X103.772 Y96.21 E2.45504
G1 X103.797 Y96.111 E2.46013
G1 X103.972 Y96.01 E2.47021
G1 X105.895 Y96.009 E2.56615
G1 X106.154 Y95.34 E2.60194
G1 X106.498 Y94.761 E2.63554
G1 X106.927 Y94.244 E2.66906
G1 X107.423 Y93.813 E2.70184
G1 X108.005 Y93.443 E2.73625
G1 X108.626 Y93.178 E2.76993
G1 X109.279 Y93.017 E2.80349
G1 X110.168 Y92.966 E2.84791
G1 X110.797 Y93.044 E2.87953
G1 X111.451 Y93.229 E2.91344
G1 X112.055 Y93.51 E2.94668
G1 X112.654 Y93.914 E2.98272
G1 X113.143 Y94.379 E3.01639
G1 X113.544 Y94.908 E3.04951
G1 X113.863 Y95.503 E3.08319
G1 X114.04 Y96.01 E3.10998
G1 X115.972 Y96.009 E3.20637
G1 F601.5 X116.146 Y96.112 E3.21643
G1 X116.172 Y96.932 E3.25726
G1 F600 X116.173 Y98.21 E3.32102
G1 X116.147 Y98.309 E3.32612
G1 X116.035 Y98.401 E3.33336
G1 X115.306 Y98.411 E3.36973
G1 X114.047 Y98.41 E3.43254
G1 X113.788 Y99.081 E3.46842
G1 X113.445 Y99.66 E3.502
G1 X113.015 Y100.178 E3.53559
G1 X112.501 Y100.625 E3.56957
G1 X111.932 Y100.982 E3.60308
G1 X111.311 Y101.244 E3.63671
G1 X110.793 Y101.376 E3.66338
G1 X110.204 Y101.455 E3.69303
G1 X109.533 Y101.438 E3.72651
G1 X108.87 Y101.316 E3.76015
G1 X108.246 Y101.095 E3.79317
G1 X107.742 Y100.822 E3.82177
G1 X107.211 Y100.433 E3.85461
G1 X106.742 Y99.963 E3.88773
G1 X106.337 Y99.401 E3.92229
G1 X106.078 Y98.912 E3.9499
G1 X105.903 Y98.411 E3.97638
G0 F1800 X105.703 Y98.411
G0 X105.539 Y98.9
G0 X103.933 Y98.92
G0 X103.933 Y98.809
;TYPE:WALL-INNER
G1 F555.6 X103.418 Y98.517 E4.00828
G1 F503.1 X103.362 Y98.421 E4.01489
G1 F539.3 X103.536 Y99.292 E4.06419
G1 F600 X103.732 Y99.82 E4.09229
G1 X103.962 Y100.313 E4.11943
G1 X104.226 Y100.776 E4.14602
G1 X104.526 Y101.219 E4.17271
G1 X104.876 Y101.658 E4.20072
G1 X105.239 Y102.043 E4.22712
G1 X105.636 Y102.402 E4.25382
G1 X106.07 Y102.736 E4.28114
G1 X106.51 Y103.021 E4.3073
G1 X107.037 Y103.293 E4.33689
G1 X107.706 Y103.582 E4.37324
G1 X108.196 Y103.734 E4.39884
G1 X108.737 Y103.858 E4.42653
G1 X109.25 Y103.933 E4.4524
G1 X110.071 Y103.97 E4.4934
G1 X110.607 Y103.944 E4.52017
G1 X111.134 Y103.873 E4.5467
G1 X111.655 Y103.759 E4.57331
G1 X112.218 Y103.579 E4.6028
G1 X112.9 Y103.305 E4.63946
G1 X113.612 Y102.905 E4.68021
G1 X114.039 Y102.61 E4.7061
G1 X114.637 Y102.1 E4.74531
G1 X115.224 Y101.469 E4.78831
G1 X115.549 Y101.036 E4.81532
G1 X115.833 Y100.586 E4.84187
G1 X116.088 Y100.097 E4.86938
G1 X116.307 Y99.582 E4.8973
G1 X116.467 Y99.088 E4.92321
G1 F560.7 X116.574 Y98.542 E4.95291
G1 F511.7 X116.581 Y98.419 E4.96011
G1 X116.519 Y98.521 E4.9671
G1 F560.7 X116.159 Y98.782 E4.99083
G1 F600 X115.306 Y98.811 E5.03341
G1 X114.327 Y98.81 E5.08226
G1 X114.117 Y99.316 E5.10959
G1 X113.788 Y99.866 E5.14156
G1 X113.322 Y100.435 E5.17826
G1 X112.763 Y100.928 E5.21544
G1 X112.15 Y101.318 E5.25169
G1 X111.672 Y101.526 E5.2777
G1 X111.145 Y101.703 E5.30543
G1 X110.403 Y101.832 E5.34301
G1 X109.536 Y101.838 E5.38626
G1 X108.812 Y101.713 E5.42292
G1 X108.112 Y101.472 E5.45985
G1 X107.55 Y101.173 E5.49161
G1 X106.966 Y100.749 E5.52762
G1 X106.45 Y100.237 E5.56388
G1 X106.005 Y99.625 E5.60163
G1 X105.72 Y99.092 E5.63179
G1 X105.617 Y98.811 E5.64672
G1 X103.933 Y98.809 E5.73073
G0 F1800 X103.362 Y98.421
G1 F457.1 X103.292 Y97.49 E5.79187
G1 F428.6 X103.292 Y96.932 E5.83084
G1 F445.3 X103.313 Y96.422 E5.86516
G1 F463.3 X103.398 Y95.886 E5.90022
G0 F1800 X103.312 Y96.439
G0 X107.971 Y92.782
G0 X109.199 Y92.412
G0 X110.475 Y92.378
G0 X111.719 Y92.676
G0 X112.651 Y93.156
G0 X115.972 Y95.5
G0 X115.972 Y95.609
G1 F600 X116.17 Y95.642 E5.91023
G1 F576.9 X116.509 Y95.907 E5.93256
G1 F528.6 X116.603 Y96.107 E5.94507
G1 F547.9 X116.478 Y95.363 E5.98629
G1 F600 X116.311 Y94.849 E6.01325
G1 X116.099 Y94.345 E6.04053
G1 X115.849 Y93.861 E6.06771
G1 X115.409 Y93.187 E6.10786
G1 X115.07 Y92.765 E6.13487
G1 X114.703 Y92.376 E6.16155
G1 X114.308 Y92.019 E6.18811
G1 X113.877 Y91.687 E6.21526
G1 X113.202 Y91.269 E6.25487
G1 X112.717 Y91.03 E6.28184
G1 X112.221 Y90.833 E6.30847
G1 X111.71 Y90.676 E6.33514
G1 X111.218 Y90.565 E6.3603
G1 X110.694 Y90.488 E6.38672
G1 X110.16 Y90.451 E6.41343
G1 X109.617 Y90.457 E6.44052
G1 X109.088 Y90.507 E6.46703
G1 X108.532 Y90.604 E6.49519
G1 X108.044 Y90.73 E6.52033
G1 X107.513 Y90.91 E6.54831
G1 X107.038 Y91.117 E6.57416
G1 X106.558 Y91.372 E6.60127
G1 X106.106 Y91.675 E6.62842
G1 X105.456 Y92.176 E6.66936
G1 X105.075 Y92.544 E6.69579
G1 X104.714 Y92.956 E6.72312
G1 X104.394 Y93.385 E6.74982
G1 X104.111 Y93.834 E6.7763
G1 X103.855 Y94.325 E6.80393
G1 X103.636 Y94.839 E6.8318
G1 X103.471 Y95.344 E6.85831
G1 F522.9 X103.398 Y95.886 E6.88962
G1 X103.776 Y95.642 E6.91537
G1 F600 X104.639 Y95.61 E6.95846
G1 X105.617 Y95.609 E7.00725
G1 X105.826 Y95.105 E7.03447
G1 X106.154 Y94.555 E7.06642
G1 X106.62 Y93.987 E7.10307
G1 X107.161 Y93.51 E7.13906
G1 X107.629 Y93.206 E7.1669
G1 X107.877 Y93.06 E7.18126
G1 X108.47 Y92.809 E7.21338
G1 X108.97 Y92.681 E7.23913
G1 X109.294 Y92.612 E7.25566
G1 X110.149 Y92.566 E7.29838
G1 X110.849 Y92.648 E7.33354
G1 X111.566 Y92.845 E7.37064
G1 X112.229 Y93.15 E7.40705
G1 X112.667 Y93.436 E7.43314
G1 X112.956 Y93.645 E7.45094
G1 X113.442 Y94.111 E7.48453
G1 X113.864 Y94.668 E7.51939
G1 X114.216 Y95.315 E7.55614
G1 X114.325 Y95.61 E7.57183
G1 X115.972 Y95.609 E7.654
G0 F1800 X116.603 Y96.107
G1 F464.2 X116.651 Y96.932 E7.70729
G1 F430.1 X116.651 Y97.488 E7.74598
G1 F447.8 X116.63 Y98.013 E7.78111
G1 F481.9 X116.581 Y98.419 E7.80651
G0 F1800 X116.632 Y97.972
G0 X116.41 Y95.772
G0 X111.682 Y92.462
G1 F600 X112.402 Y92.789 E7.84596
G1 X112.894 Y93.107 E7.87519
G1 X113.233 Y93.357 E7.8962
G1 X113.733 Y93.836 E7.93075
G1 X114.183 Y94.428 E7.96785
G1 X114.57 Y95.127 E8.00771
G1 X114.605 Y95.21 E8.0122
G1 X115.972 Y95.209 E8.0804
G1 X116.009 Y95.215 E8.08227
G1 X115.743 Y94.532 E8.11884
G1 X115.503 Y94.063 E8.14512
G1 X115.085 Y93.422 E8.1833
G1 X114.768 Y93.028 E8.20853
G1 X114.423 Y92.662 E8.23362
G1 X114.032 Y92.312 E8.25981
G1 X113.62 Y91.999 E8.28562
G1 X113.008 Y91.619 E8.32156
G1 X112.529 Y91.386 E8.34813
G1 X111.631 Y91.071 E8.39561
G1 X111.13 Y90.955 E8.42127
G1 X110.612 Y90.88 E8.44738
G1 X110.11 Y90.848 E8.47248
G1 X109.598 Y90.858 E8.49802
G1 X109.1 Y90.909 E8.523
G1 X108.578 Y91.003 E8.54946
G1 X108.082 Y91.136 E8.57508
G1 X107.594 Y91.308 E8.6009
G1 X107.125 Y91.519 E8.62655
G1 X106.331 Y92.005 E8.673
G1 X105.713 Y92.482 E8.71195
G1 X105.336 Y92.848 E8.73816
G1 X104.998 Y93.238 E8.76391
G1 X104.701 Y93.642 E8.78892
G1 X104.423 Y94.093 E8.81536
G1 X104.195 Y94.542 E8.84048
G1 X104.001 Y95.006 E8.86557
G1 X103.932 Y95.216 E8.8766
G1 X104.639 Y95.21 E8.91187
G1 X105.345 Y95.209 E8.94709
G1 X105.58 Y94.736 E8.97344
G1 X105.863 Y94.271 E9.0006
G1 X106.318 Y93.725 E9.03606
G1 X106.9 Y93.207 E9.07493
G1 X107.417 Y92.867 E9.1058
G1 X107.722 Y92.691 E9.12337
G1 X108.315 Y92.44 E9.1555
G1 X108.876 Y92.292 E9.18444
G1 X109.273 Y92.213 E9.20464
G1 X110.129 Y92.167 E9.2474
G1 X110.9 Y92.251 E9.2861
G1 X111.682 Y92.462 E9.32651
G0 F1800 X108.934 Y92.462
G0 X107.739 Y92.894
G0 X103.534 Y95.772
G0 X103.534 Y98.648
G0 X106.721 Y101.065
G1 F600 X106.159 Y100.511 E9.36588
G1 X105.673 Y99.848 E9.40689
G1 X105.362 Y99.271 E9.43959
G1 X105.337 Y99.211 E9.44283
G1 X103.93 Y99.209 E9.51303
G1 X104.307 Y100.106 E9.56157
G1 X104.553 Y100.542 E9.58655
G1 X104.835 Y100.96 E9.61171
G1 X105.162 Y101.374 E9.63803
G1 X105.519 Y101.757 E9.66415
G1 X105.893 Y102.094 E9.68926
G1 X106.302 Y102.409 E9.71502
G1 X106.739 Y102.689 E9.74091
G1 X107.221 Y102.938 E9.76798
G1 X107.853 Y103.21 E9.80231
G1 X108.334 Y103.358 E9.82741
G1 X108.852 Y103.474 E9.8539
G1 X109.37 Y103.543 E9.87997
G1 X110.118 Y103.572 E9.91731
G1 X110.636 Y103.539 E9.94321
G1 X111.181 Y103.456 E9.97071
G1 X111.887 Y103.266 E10.00719
G1 X112.739 Y102.939 E10.05272
G1 X113.413 Y102.558 E10.09134
G1 X113.836 Y102.263 E10.11707
G1 X114.432 Y101.747 E10.1564
G1 X114.95 Y101.175 E10.1949
G1 X115.255 Y100.757 E10.22072
G1 X115.518 Y100.329 E10.24578
G1 X115.749 Y99.878 E10.27106
G1 X115.943 Y99.414 E10.29615
G1 X116.01 Y99.205 E10.3071
G1 X115.306 Y99.211 E10.34223
G1 X114.598 Y99.21 E10.37755
G1 X114.363 Y99.685 E10.40399
G1 X114.081 Y100.151 E10.43116
G1 X113.605 Y100.721 E10.46821
G1 X113.024 Y101.23 E10.50675
G1 X112.362 Y101.658 E10.54608
G1 X111.826 Y101.895 E10.57532
G1 X111.251 Y102.089 E10.60559
G1 X110.456 Y102.228 E10.64586
G1 X110.128 Y102.255 E10.66227
G1 X109.512 Y102.238 E10.69302
G1 X108.74 Y102.106 E10.73209
G1 X107.978 Y101.849 E10.77221
G1 X107.358 Y101.524 E10.80714
G1 X106.721 Y101.065 E10.84631
G0 F1800 X108.994 Y101.807
G0 X110.22 Y101.904
G0 X113.833 Y101.08
;TYPE:SKIN
G1 F506.3 X113.298 Y101.547 E10.88829
G1 F504.2 X112.588 Y101.997 E10.9382
G1 F500 X112 Y102.274 E10.97711
G1 F496.9 X111.365 Y102.487 E11.01746
G1 F497.9 X110.944 Y102.586 E11.04346
G1 F499 X110.385 Y102.651 E11.07722
G1 F501 X109.529 Y102.654 E11.12836
G1 F502.1 X109.03 Y102.586 E11.15839
G1 F500 X108.512 Y102.472 E11.19014
G1 F501 X107.859 Y102.243 E11.23148
G1 F499 X107.184 Y101.899 E11.27693
G1 X106.815 Y101.668 E11.30305
G1 F506.3 X106.308 Y101.267 E11.34127
G1 F504.2 X105.862 Y100.805 E11.37939
G1 F499 X105.571 Y100.444 E11.40721
G1 F503.1 X105.278 Y100.008 E11.43846
G1 F507.4 X105.078 Y99.627 E11.46385
G1 F509.6 X104.548 Y99.626 E11.49498
G1 F507.4 X104.874 Y100.257 E11.53688
G1 F503.1 X105.184 Y100.726 E11.57033
G1 F499 X105.497 Y101.119 E11.60047
G1 F504.2 X105.962 Y101.585 E11.63956
G1 F506.3 X106.521 Y102.047 E11.68243
G1 F499 X106.944 Y102.318 E11.71257
G1 F504.2 X107.431 Y102.572 E11.74518
G1 F508.5 X108.009 Y102.806 E11.78189
G1 F507.4 X108.511 Y102.965 E11.81295
G1 F508.5 X109.331 Y103.111 E11.86199
G1 F511.7 X110.144 Y103.136 E11.90957
G1 F506.3 X110.999 Y103.063 E11.9603
G1 F497.9 X111.497 Y102.951 E11.99098
G1 F496.9 X112.166 Y102.728 E12.03347
G1 F505.3 X112.631 Y102.51 E12.06389
G1 F511.7 X113.195 Y102.181 E12.10209
G1 F508.5 X113.608 Y101.907 E12.13126
G1 F506.3 X114.118 Y101.466 E12.17112
G1 F503.1 X114.608 Y100.925 E12.21455
G1 F501 X114.908 Y100.52 E12.24466
G1 F504.2 X115.229 Y99.978 E12.28206
G1 F505.3 X115.234 Y99.966 E12.28283
G1 X115.389 Y99.629 E12.30481
G1 X114.872 Y99.628 E12.33543
G1 F504.2 X114.498 Y100.275 E12.3798
G1 F505.3 X113.833 Y101.08 E12.44166
G0 F1800 X116.41 Y98.648
G0 X116.41 Y95.772
G0 X110.24 Y91.752
G1 F505.3 X110.937 Y91.834 E12.48324
G1 F503.1 X111.801 Y92.061 E12.53639
G1 F502.1 X112.632 Y92.445 E12.59097
G1 F497.9 X113.146 Y92.775 E12.62769
G1 F500 X113.519 Y93.052 E12.6555
G1 F508.5 X114.026 Y93.538 E12.69685
G1 F505.3 X114.345 Y93.944 E12.72744
G1 F499 X114.725 Y94.524 E12.76904
G1 F501 X114.866 Y94.791 E12.78708
G1 F503.1 X115.383 Y94.791 E12.81783
G1 F501 X115.155 Y94.308 E12.84974
G1 F499 X114.738 Y93.667 E12.89562
G1 F507.4 X114.4 Y93.254 E12.9271
G1 F510.6 X113.848 Y92.709 E12.97258
G1 F500 X113.437 Y92.387 E13.00384
G1 F497.9 X112.868 Y92.028 E13.04428
G1 F500 X112.41 Y91.793 E13.0751
G1 F502.1 X111.942 Y91.605 E13.10517
G1 F509.6 X111.266 Y91.42 E13.14634
G1 F512.8 X110.334 Y91.288 E13.20129
G1 F502.1 X109.638 Y91.283 E13.24278
G1 F503.1 X109.069 Y91.344 E13.27683
G1 F506.3 X108.253 Y91.521 E13.32619
G1 F499 X107.774 Y91.69 E13.35666
G1 F504.2 X107.234 Y91.945 E13.39212
G1 F509.6 X106.525 Y92.378 E13.44092
G1 F508.5 X105.991 Y92.816 E13.48158
G1 F506.3 X105.627 Y93.154 E13.51095
G1 F505.3 X105.163 Y93.721 E13.55435
G1 X104.719 Y94.433 E13.60407
G1 F504.2 X104.555 Y94.791 E13.62744
G1 X105.071 Y94.791 E13.65808
G1 F503.1 X105.446 Y94.148 E13.70236
G1 F502.1 X105.989 Y93.463 E13.75448
G1 F501 X106.616 Y92.904 E13.80466
G1 F497.9 X107.207 Y92.503 E13.8476
G1 X107.949 Y92.14 E13.89726
G1 F499 X108.363 Y91.988 E13.92372
G1 F503.1 X108.995 Y91.834 E13.96242
G1 F500 X109.646 Y91.769 E14.00158
G1 F501 X110.24 Y91.752 E14.03709
G1 F2700 E9.03709
;MESH:B.stl(1)
G0 F1800 X103.534 Y95.772
G0 X103.534 Y98.648
G0 X105.971 Y102.876
G0 X105.378 Y103.796
G0 X105.971 Y108.108
G0 X105.971 Y109.203
G0 X101.456 Y109.479
G1 F2700 E14.03709
G0 F1800 X101.332 Y108.973
;TYPE:WALL-OUTER
G1 F600 X100.607 Y109.378 E14.07852
G1 X99.842 Y109.874 E14.124
G1 X99.117 Y110.42 E14.16928
G1 X98.43 Y111.016 E14.21466
G1 X97.784 Y111.658 E14.2601
G1 X97.184 Y112.34 E14.30542
G1 X96.631 Y113.063 E14.35083
G1 X96.128 Y113.823 E14.3963
G1 X95.681 Y114.613 E14.44158
G1 X95.288 Y115.434 E14.48699
G1 X94.947 Y116.292 E14.53306
G1 X94.675 Y117.144 E14.57768
G1 X94.455 Y118.027 E14.62308
G1 X94.299 Y118.924 E14.6685
G1 X94.204 Y119.829 E14.7139
G1 X94.17 Y120.735 E14.75913
G1 X94.192 Y121.454 E14.79502
G1 X94.243 Y122.088 E14.82675
G1 X94.323 Y122.742 E14.85962
G1 X94.444 Y123.446 E14.89526
G1 X94.649 Y124.317 E14.9399
G1 X94.928 Y125.198 E14.98601
G1 X95.261 Y126.043 E15.03132
G1 X95.651 Y126.867 E15.0768
G1 X96.094 Y127.66 E15.12212
G1 X96.592 Y128.421 E15.16749
G1 X97.14 Y129.145 E15.21279
G1 X97.738 Y129.833 E15.25827
G1 X98.378 Y130.477 E15.30357
G1 X99.063 Y131.075 E15.34893
G1 X99.788 Y131.627 E15.39439
G1 X100.548 Y132.126 E15.43975
G1 X101.332 Y132.567 E15.48463
G1 X125.764 Y132.567 E16.70355
G1 X125.764 Y117.373 E17.46158
G1 X125.764 Y108.973 E17.88066
G1 X101.332 Y108.973 E19.09957
G0 F1800 X101.158 Y109.07
G0 X101.397 Y109.515
G0 X104.928 Y120.372
G0 X105.431 Y120.439
G1 F600 X105.583 Y119.956 E19.12484
