;FLAVOR:Marlin
;TIME:548
;Filament used: 0.296995m
;Layer height: 0.15
;MINX:97.4
;MINY:71.981
;MINZ:0.3
;MAXX:126.235
;MAXY:148.008
;MAXZ:3.45
;Generated with Cura_SteamEngine 5.0.0
M140 S60
M105
M190 S60
M104 S200
M105
M109 S200
M82 ;absolute extrusion mode
G28 ;Home
G1 Z15.0 F6000 ;Move the platform down 15mm
;Prime the extruder
G92 E0
G1 F200 E3
G92 E0
G92 E0
G92 E0
G1 F2700 E-5
;LAYER_COUNT:22
;LAYER:0
M106 S255
G0 F1800 X105.45 Y73.523 Z0.3
G0 X104.788 Y76.201
;TYPE:SKIRT
G1 F2700 E0
G1 F600 X104.798 Y75.536 E0.03318
G1 X104.846 Y75.002 E0.05993
G1 X104.973 Y74.481 E0.08668
G1 X105.176 Y73.984 E0.11347
G1 X105.45 Y73.523 E0.14022
G1 X105.79 Y73.108 E0.16699
G1 X106.188 Y72.749 E0.19373
G1 X106.634 Y72.452 E0.22046
G1 X107.12 Y72.224 E0.24724
G1 X107.634 Y72.072 E0.27399
G1 X108.297 Y71.991 E0.30731
G1 X108.718 Y71.981 E0.32832
G1 X110.982 Y71.981 E0.44127
G1 X111.682 Y71.991 E0.4762
G1 X112.217 Y72.039 E0.503
G1 X112.738 Y72.165 E0.52974
G1 X113.234 Y72.368 E0.55648
G1 X113.695 Y72.642 E0.58323
G1 X114.111 Y72.981 E0.61
G1 X114.471 Y73.378 E0.63674
G1 X114.768 Y73.825 E0.66351
G1 X115.269 Y74.897 E0.72255
G1 X115.661 Y75.796 E0.77148
G1 X116.81 Y78.246 E0.90648
G1 X118.053 Y80.712 E1.04426
G1 X119.328 Y83.071 E1.17804
G1 X120.693 Y85.438 E1.31436
G1 X122.129 Y87.772 E1.45108
G1 X123.629 Y90.062 E1.58765
G1 X125.249 Y92.384 E1.72891
G1 X125.552 Y92.807 E1.75487
G1 X125.831 Y93.265 E1.78162
G1 X126.038 Y93.759 E1.80834
G1 X126.17 Y94.279 E1.83511
G1 X126.223 Y94.792 E1.86084
G1 X126.235 Y95.228 E1.8826
G1 X126.235 Y121.51 E3.19381
G1 X126.224 Y122.217 E3.22909
G1 X126.175 Y122.751 E3.25584
G1 X126.051 Y123.263 E3.28213
G1 X125.222 Y125.84 E3.41718
G1 X124.452 Y128.487 E3.55471
G1 X123.757 Y131.151 E3.69207
G1 X123.148 Y133.799 E3.82763
G1 X122.637 Y136.326 E3.95625
G1 X122.304 Y138.077 E4.04518
G1 X122.157 Y138.688 E4.07653
G1 X121.961 Y139.343 E4.11064
G1 X121.717 Y140.022 E4.14664
G1 X121.434 Y140.685 E4.1826
G1 X121.102 Y141.352 E4.21977
G1 X120.786 Y141.911 E4.25181
G1 X120.365 Y142.563 E4.29053
G1 X119.987 Y143.083 E4.3226
G1 X119.399 Y143.793 E4.36859
G1 X118.957 Y144.263 E4.40078
G1 X118.387 Y144.805 E4.44002
G1 X117.865 Y145.249 E4.47421
G1 X117.352 Y145.638 E4.50633
G1 X116.709 Y146.07 E4.54498
G1 X116.133 Y146.413 E4.57842
G1 X115.526 Y146.728 E4.61254
G1 X114.8 Y147.055 E4.65227
G1 X114.181 Y147.292 E4.68534
G1 X113.54 Y147.499 E4.71894
G1 X112.771 Y147.698 E4.75857
G1 X112.205 Y147.813 E4.78739
G1 X111.375 Y147.932 E4.82922
G1 X110.778 Y147.984 E4.85912
G1 X110.056 Y148.008 E4.89516
G1 X109.379 Y147.992 E4.92894
G1 X108.529 Y147.921 E4.9715
G1 X107.968 Y147.843 E4.99975
G1 X107.149 Y147.681 E5.0414
G1 X106.503 Y147.513 E5.07471
G1 X105.912 Y147.325 E5.10565
G1 X105.211 Y147.061 E5.14302
G1 X104.614 Y146.796 E5.1756
G1 X103.94 Y146.451 E5.21338
G1 X103.278 Y146.062 E5.25169
G1 X102.753 Y145.712 E5.28317
G1 X102.206 Y145.304 E5.31721
G1 X101.622 Y144.814 E5.35524
G1 X101.156 Y144.376 E5.38715
G1 X100.614 Y143.806 E5.42639
G1 X100.161 Y143.273 E5.46129
G1 X99.758 Y142.739 E5.49467
G1 X99.356 Y142.14 E5.53066
G1 X98.98 Y141.504 E5.56752
G1 X98.676 Y140.916 E5.60054
G1 X98.381 Y140.26 E5.63643
G1 X98.121 Y139.585 E5.67251
G1 X97.916 Y138.946 E5.70599
G1 X97.729 Y138.224 E5.7432
G1 X97.597 Y137.567 E5.77664
G1 X97.486 Y136.788 E5.81589
G1 X97.422 Y135.953 E5.85767
G1 X97.4 Y134.793 E5.91556
G1 X97.401 Y131.883 E6.06074
G1 X97.425 Y130.632 E6.12316
G1 X97.465 Y130.04 E6.15276
G1 X97.546 Y129.35 E6.18743
G1 X97.677 Y128.619 E6.22448
G1 X97.83 Y127.971 E6.25769
G1 X98.025 Y127.31 E6.29208
G1 X98.16 Y126.911 E6.31309
G1 X98.555 Y125.84 E6.37004
G1 X98.908 Y124.916 E6.41939
G1 X99.824 Y122.3 E6.55767
G1 X100.637 Y119.746 E6.69139
G1 X101.404 Y117.083 E6.82965
G1 X102.069 Y114.499 E6.96277
G1 X102.688 Y111.775 E7.10213
G1 X103.212 Y109.121 E7.2371
G1 X103.666 Y106.428 E7.37335
G1 X104.039 Y103.755 E7.508
G1 X104.341 Y101.037 E7.64443
G1 X104.565 Y98.318 E7.78054
G1 X104.711 Y95.589 E7.91689
G1 X104.788 Y91.765 E8.10771
G1 X104.788 Y76.201 E8.8842
G0 F1800 X105.188 Y76.207
G1 F600 X105.198 Y75.542 E8.91738
G1 X105.246 Y75.039 E8.94259
G1 X105.372 Y74.549 E8.96783
G1 X105.574 Y74.085 E8.99308
G1 X105.846 Y73.659 E9.01829
G1 X106.182 Y73.282 E9.04349
G1 X106.573 Y72.961 E9.06873
G1 X107.01 Y72.707 E9.09394
G1 X107.481 Y72.524 E9.11915
G1 X107.976 Y72.418 E9.14441
G1 X108.628 Y72.382 E9.17699
G1 X110.977 Y72.381 E9.29418
G1 X111.677 Y72.391 E9.32911
G1 X112.18 Y72.438 E9.35431
G1 X112.67 Y72.564 E9.37955
G1 X113.133 Y72.766 E9.40475
G1 X113.56 Y73.038 E9.43001
G1 X113.938 Y73.373 E9.45521
G1 X114.258 Y73.764 E9.48042
G1 X114.546 Y74.27 E9.50946
G1 X114.924 Y75.105 E9.55519
G1 X115.296 Y75.96 E9.60171
G1 X116.449 Y78.417 E9.73712
G1 X117.701 Y80.903 E9.87598
G1 X118.979 Y83.266 E10.01001
G1 X120.357 Y85.657 E10.14769
G1 X121.786 Y87.979 E10.28372
G1 X123.293 Y90.281 E10.42099
G1 X125.226 Y93.04 E10.58905
G1 X125.487 Y93.473 E10.61428
G1 X125.677 Y93.941 E10.63948
G1 X125.79 Y94.434 E10.66471
G1 X125.833 Y95.13 E10.6995
G1 X125.835 Y121.504 E12.0153
G1 X125.824 Y122.211 E12.05058
G1 X125.776 Y122.714 E12.07579
G1 X125.67 Y123.141 E12.09774
G1 X124.835 Y125.738 E12.23384
G1 X124.064 Y128.389 E12.37158
G1 X123.366 Y131.065 E12.50955
G1 X122.762 Y133.689 E12.64388
G1 X122.245 Y136.247 E12.77408
G1 X121.915 Y137.987 E12.86244
G1 X121.773 Y138.576 E12.89267
G1 X121.584 Y139.21 E12.92567
G1 X121.347 Y139.868 E12.96057
G1 X121.074 Y140.509 E12.99533
G1 X120.752 Y141.158 E13.03147
G1 X120.448 Y141.697 E13.06234
G1 X120.041 Y142.329 E13.09985
G1 X119.673 Y142.836 E13.1311
G1 X119.094 Y143.534 E13.17635
G1 X118.668 Y143.986 E13.20733
G1 X118.113 Y144.514 E13.24555
G1 X117.609 Y144.942 E13.27854
G1 X117.113 Y145.317 E13.30956
G1 X116.488 Y145.737 E13.34713
G1 X115.931 Y146.067 E13.37943
G1 X115.344 Y146.372 E13.41243
G1 X114.638 Y146.69 E13.45106
G1 X114.042 Y146.917 E13.48288
G1 X113.42 Y147.117 E13.51548
G1 X112.673 Y147.31 E13.55397
G1 X112.129 Y147.42 E13.58166
G1 X111.321 Y147.535 E13.62238
G1 X110.747 Y147.585 E13.65112
G1 X110.045 Y147.608 E13.68616
G1 X109.392 Y147.592 E13.71875
G1 X108.565 Y147.523 E13.76015
G1 X108.029 Y147.447 E13.78716
G1 X107.229 Y147.289 E13.82785
G1 X106.608 Y147.127 E13.85986
G1 X106.036 Y146.944 E13.88983
G1 X105.355 Y146.687 E13.92614
G1 X104.779 Y146.432 E13.95757
G1 X104.124 Y146.096 E13.99429
G1 X103.484 Y145.719 E14.03135
G1 X102.978 Y145.381 E14.06171
G1 X102.447 Y144.985 E14.09476
G1 X101.882 Y144.51 E14.13158
G1 X101.433 Y144.087 E14.16236
G1 X100.905 Y143.532 E14.20058
G1 X100.469 Y143.017 E14.23424
G1 X100.079 Y142.501 E14.26651
G1 X99.69 Y141.919 E14.30144
G1 X99.326 Y141.303 E14.33713
G1 X99.033 Y140.735 E14.36902
G1 X98.747 Y140.099 E14.40381
G1 X98.496 Y139.445 E14.43876
G1 X98.298 Y138.827 E14.47113
G1 X98.117 Y138.127 E14.5072
G1 X97.99 Y137.492 E14.53951
G1 X97.883 Y136.734 E14.5777
G1 X97.821 Y135.926 E14.61813
G1 X97.8 Y134.74 E14.67731
G1 X97.801 Y131.889 E14.81955
G1 X97.824 Y130.656 E14.88108
G1 X97.863 Y130.084 E14.90968
G1 X97.941 Y129.418 E14.94313
G1 X98.067 Y128.708 E14.97911
G1 X98.214 Y128.083 E15.01114
G1 X98.404 Y127.437 E15.04473
G1 X98.536 Y127.049 E15.06518
G1 X98.929 Y125.983 E15.12186
G1 X99.284 Y125.054 E15.17148
G1 X100.197 Y122.448 E15.30924
G1 X101.027 Y119.84 E15.44579
G1 X101.781 Y117.22 E15.5818
G1 X102.47 Y114.541 E15.71981
G1 X103.076 Y111.876 E15.85616
G1 X103.599 Y109.228 E15.99082
G1 X104.063 Y106.478 E16.12996
G1 X104.439 Y103.782 E16.26577
G1 X104.739 Y101.081 E16.40135
G1 X104.965 Y98.336 E16.53876
G1 X105.111 Y95.618 E16.67456
G1 X105.188 Y91.765 E16.86682
G1 X105.188 Y76.207 E17.64301
G1 F2700 E12.64301
;MESH:pp_fukA.stl
G0 F1800 X107.723 Y76.207
G0 X108.818 Y76.207
G0 X109.098 Y122.358
G1 F2700 E17.64301
G0 F1800 X108.588 Y122.358
;TYPE:WALL-OUTER
G1 F600 X108.519 Y122.49 E17.65044
G1 X108.023 Y122.619 E17.67601
G1 X107.511 Y122.751 E17.70239
G1 X106.586 Y123.083 E17.75142
G1 X106.098 Y123.309 E17.77825
G1 X105.286 Y123.762 E17.82464
G1 X104.854 Y124.056 E17.85071
G1 X104.422 Y124.391 E17.87799
G1 X103.791 Y124.959 E17.92034
G1 X103.43 Y125.339 E17.94649
G1 X102.819 Y126.106 E17.99541
G1 X102.301 Y126.935 E18.04418
G1 X101.875 Y127.817 E18.09305
G1 X101.551 Y128.74 E18.14185
G1 X101.33 Y129.694 E18.19071
G1 X101.217 Y130.668 E18.23963
G1 X101.201 Y131.192 E18.26578
G1 X101.202 Y135.485 E18.47996
G1 X101.249 Y136.31 E18.52119
G1 X101.403 Y137.276 E18.56999
G1 X101.525 Y137.782 E18.59596
G1 X101.683 Y138.288 E18.62241
G1 X101.88 Y138.797 E18.64964
G1 X102.285 Y139.644 E18.69647
G1 X102.55 Y140.099 E18.72274
G1 X103.075 Y140.844 E18.76821
G1 X103.415 Y141.253 E18.79475
G1 X103.779 Y141.639 E18.82122
G1 X104.457 Y142.251 E18.86679
G1 X104.878 Y142.573 E18.89323
G1 X105.316 Y142.865 E18.91949
G1 X105.892 Y143.195 E18.95261
G1 X106.545 Y143.509 E18.98876
G1 X107.091 Y143.708 E19.01775
G1 X107.584 Y143.876 E19.04374
G1 X108.155 Y144.018 E19.07309
G1 X108.945 Y144.152 E19.11307
G1 X109.47 Y144.202 E19.13938
G1 X109.998 Y144.218 E19.16573
G1 X110.548 Y144.198 E19.19319
G1 X111.659 Y144.048 E19.24912
G1 X112.363 Y143.893 E19.28509
G1 X112.87 Y143.736 E19.31157
G1 X113.363 Y143.548 E19.33789
G1 X113.98 Y143.262 E19.37182
G1 X114.616 Y142.907 E19.40816
G1 X115.06 Y142.616 E19.43464
G1 X115.482 Y142.298 E19.461
G1 X115.957 Y141.889 E19.49228
G1 X116.509 Y141.337 E19.53122
G1 X116.857 Y140.933 E19.55782
G1 X117.173 Y140.512 E19.58409
G1 X117.489 Y140.032 E19.61276
G1 X117.894 Y139.302 E19.65441
G1 X118.114 Y138.823 E19.6807
G1 X118.444 Y137.887 E19.73022
G1 X118.575 Y137.378 E19.75644
G1 X118.703 Y136.688 E19.79145
G1 X118.779 Y135.987 E19.82663
G1 X118.798 Y135.474 E19.85224
G1 X118.799 Y131.344 E20.05829
G1 X118.76 Y131.02 E20.07457
G1 X118.565 Y130.711 E20.0928
G1 X118.361 Y130.56 E20.10546
G1 X118.112 Y130.479 E20.11852
G1 X117.488 Y130.465 E20.14966
G1 X116.88 Y130.471 E20.18
G1 X116.539 Y130.61 E20.19837
G1 X116.359 Y130.785 E20.21089
G1 X116.239 Y131.017 E20.22393
G1 X116.201 Y131.328 E20.23956
G1 X116.2 Y135.432 E20.44431
G1 X116.146 Y136.235 E20.48446
G1 X115.979 Y137.058 E20.52635
G1 X115.703 Y137.85 E20.5682
G1 X115.383 Y138.48 E20.60345
G1 X115.022 Y139.03 E20.63627
G1 X114.607 Y139.546 E20.66931
G1 X114.243 Y139.937 E20.69596
G1 X113.595 Y140.47 E20.73782
G1 X112.879 Y140.91 E20.77975
G1 X112.079 Y141.259 E20.82329
G1 X111.267 Y141.487 E20.86537
G1 X110.454 Y141.602 E20.90634
G1 X109.595 Y141.605 E20.94919
G1 X108.78 Y141.499 E20.99019
G1 X107.953 Y141.269 E21.03302
G1 X107.188 Y140.944 E21.07449
G1 X106.655 Y140.626 E21.10545
G1 X106.125 Y140.241 E21.13813
G1 X105.63 Y139.801 E21.17118
G1 X105.21 Y139.356 E21.2017
G1 X104.725 Y138.676 E21.24337
G1 X104.334 Y137.935 E21.28517
G1 X104.144 Y137.417 E21.3127
G1 X103.969 Y136.798 E21.34479
G1 X103.863 Y136.297 E21.37034
G1 X103.801 Y135.45 E21.41271
G1 X103.8 Y131.185 E21.62549
G1 X103.903 Y130.079 E21.68091
G1 X104.063 Y129.45 E21.71329
G1 X104.284 Y128.825 E21.74636
G1 X104.562 Y128.23 E21.77913
G1 X104.889 Y127.682 E21.81097
G1 X105.405 Y127.029 E21.85249
G1 X105.892 Y126.559 E21.88625
G1 X106.411 Y126.15 E21.91922
G1 X106.704 Y125.939 E21.93723
G1 X107.425 Y125.552 E21.97806
G1 X108.203 Y125.256 E22.01959
G1 X108.986 Y125.076 E22.05967
G1 X109.797 Y124.999 E22.10031
G1 X111.438 Y123.015 E22.22877
G1 X111.438 Y75.781 E24.58528
G1 X108.588 Y75.781 E24.72747
G1 X108.588 Y122.358 E27.0512
G0 F1800 X108.519 Y122.49
G0 X108.469 Y122.503
G0 X108.988 Y122.337
;TYPE:WALL-INNER
G1 F600 X108.89 Y122.669 E27.06847
G1 X108.67 Y122.867 E27.08324
G1 X108.106 Y123.011 E27.11228
G1 X107.591 Y123.146 E27.13884
G1 X106.771 Y123.441 E27.18232
G1 X106.293 Y123.659 E27.20853
G1 X105.496 Y124.103 E27.25405
G1 X104.762 Y124.628 E27.29907
G1 X104.368 Y124.963 E27.32487
G1 X103.869 Y125.455 E27.35983
G1 X103.178 Y126.297 E27.41417
G1 X102.678 Y127.087 E27.46082
G1 X102.267 Y127.926 E27.50743
G1 X102.079 Y128.443 E27.53487
G1 X101.925 Y128.899 E27.55889
G1 X101.803 Y129.428 E27.58597
G1 X101.72 Y129.813 E27.60562
G1 X101.617 Y130.698 E27.65007
G1 X101.601 Y131.192 E27.67473
G1 X101.602 Y135.474 E27.88836
G1 X101.647 Y136.277 E27.92848
G1 X101.798 Y137.212 E27.97574
G1 X101.92 Y137.71 E28.00132
G1 X102.211 Y138.556 E28.04595
G1 X102.623 Y139.425 E28.09393
G1 X102.884 Y139.878 E28.12001
G1 X103.396 Y140.605 E28.16438
G1 X103.732 Y141.005 E28.19044
G1 X104.216 Y141.503 E28.22508
G1 X104.716 Y141.946 E28.25841
G1 X105.132 Y142.262 E28.28447
G1 X105.887 Y142.739 E28.32903
G1 X106.35 Y142.981 E28.35509
G1 X107.136 Y143.299 E28.3974
G1 X107.612 Y143.468 E28.4226
G1 X108.099 Y143.598 E28.44774
G1 X109.002 Y143.756 E28.49348
G1 X109.52 Y143.803 E28.51943
G1 X110.408 Y143.807 E28.56373
G1 X110.931 Y143.763 E28.58991
G1 X111.831 Y143.614 E28.63543
G1 X112.317 Y143.491 E28.66044
G1 X112.87 Y143.308 E28.6895
G1 X113.59 Y143.011 E28.72836
G1 X114.051 Y142.774 E28.75422
G1 X114.765 Y142.331 E28.79614
G1 X115.188 Y142.02 E28.82233
G1 X115.586 Y141.687 E28.84822
G1 X116.22 Y141.06 E28.89271
G1 X116.56 Y140.662 E28.91882
G1 X117.077 Y139.94 E28.96313
G1 X117.342 Y139.493 E28.98905
G1 X117.668 Y138.837 E29.0256
G1 X118.048 Y137.805 E29.08046
G1 X118.179 Y137.32 E29.10553
G1 X118.307 Y136.631 E29.14049
G1 X118.38 Y135.951 E29.17461
G1 X118.399 Y135.447 E29.19977
G1 X118.399 Y131.344 E29.40447
G1 X118.345 Y131.086 E29.41762
G1 X118.234 Y130.945 E29.42658
G1 X117.967 Y130.861 E29.44054
G1 X116.927 Y130.871 E29.49243
G1 X116.729 Y130.983 E29.50378
G1 X116.624 Y131.143 E29.51332
G1 X116.601 Y131.764 E29.54433
G1 X116.602 Y135.438 E29.72762
G1 X116.543 Y136.292 E29.77033
G1 X116.367 Y137.16 E29.81452
G1 X116.081 Y137.984 E29.85803
G1 X115.739 Y138.662 E29.89592
G1 X115.349 Y139.26 E29.93154
G1 X114.901 Y139.818 E29.96724
G1 X114.526 Y140.222 E29.99474
G1 X113.844 Y140.785 E30.03886
G1 X113.125 Y141.229 E30.08102
G1 X112.475 Y141.523 E30.11661
G1 X111.799 Y141.753 E30.15223
G1 X111.323 Y141.883 E30.17685
G1 X110.487 Y142.001 E30.21897
G1 X109.591 Y142.006 E30.26368
G1 X108.829 Y141.91 E30.30199
G1 X108.157 Y141.742 E30.33655
G1 X107.439 Y141.486 E30.37458
G1 X106.958 Y141.274 E30.40081
G1 X106.227 Y140.835 E30.44335
G1 X105.551 Y140.291 E30.48664
G1 X105.049 Y139.769 E30.52277
G1 X104.608 Y139.203 E30.55857
G1 X104.24 Y138.616 E30.59313
G1 X103.97 Y138.101 E30.62214
G1 X103.768 Y137.553 E30.65128
G1 X103.577 Y136.88 E30.68618
G1 X103.469 Y136.362 E30.71258
G1 X103.42 Y135.736 E30.74391
G1 X103.401 Y135.397 E30.76085
G1 X103.4 Y131.172 E30.97163
G1 X103.506 Y130.029 E31.0289
G1 X103.677 Y129.344 E31.06412
G1 X103.915 Y128.67 E31.09979
G1 X104.127 Y128.18 E31.12642
G1 X104.549 Y127.47 E31.16763
G1 X105.091 Y126.78 E31.2114
G1 X105.615 Y126.271 E31.24785
G1 X106.175 Y125.827 E31.2835
G1 X106.514 Y125.587 E31.30422
G1 X107.223 Y125.205 E31.3444
G1 X108.058 Y124.883 E31.38905
G1 X108.898 Y124.686 E31.4321
G1 X109.595 Y124.615 E31.46705
G1 X111.038 Y122.871 E31.57998
G1 X111.038 Y76.181 E33.90935
G1 X108.988 Y76.181 E34.01163
G1 X108.988 Y122.337 E36.31436
G0 F1800 X109.039 Y123.099
G1 F600 X108.745 Y123.272 E36.33138
G1 X108.189 Y123.402 E36.35987
G1 X107.597 Y123.568 E36.39054
G1 X106.906 Y123.817 E36.42719
G1 X105.848 Y124.364 E36.48661
G1 X105.36 Y124.678 E36.51556
G1 X104.939 Y125.002 E36.54206
G1 X104.34 Y125.539 E36.5822
G1 X103.997 Y125.911 E36.60744
G1 X103.473 Y126.568 E36.64937
G1 X103.003 Y127.323 E36.69374
G1 X102.616 Y128.125 E36.73816
G1 X102.32 Y128.964 E36.78255
G1 X102.193 Y129.518 E36.81091
G1 X102.034 Y130.571 E36.86404
G1 X102.001 Y131.128 E36.89187
G1 X102 Y135.41 E37.1055
G1 X102.046 Y136.245 E37.14723
G1 X102.192 Y137.147 E37.19281
G1 X102.323 Y137.666 E37.21952
G1 X102.586 Y138.414 E37.25907
G1 X102.984 Y139.252 E37.30536
G1 X103.249 Y139.706 E37.33158
G1 X103.717 Y140.365 E37.37191
G1 X104.312 Y141.04 E37.4168
G1 X104.976 Y141.641 E37.46148
G1 X105.448 Y141.994 E37.49089
G1 X106.091 Y142.395 E37.52869
G1 X106.876 Y142.78 E37.57231
G1 X107.358 Y142.955 E37.5979
G1 X108.177 Y143.204 E37.6406
G1 X109.059 Y143.36 E37.68529
G1 X109.557 Y143.405 E37.71024
G1 X110.399 Y143.407 E37.75224
