;FLAVOR:Marlin
;TIME:759
;Filament used: 0.450861m
;Layer height: 0.18
;MINX:92.89
;MINY:98.9
;MINZ:0.36
;MAXX:122.289
;MAXY:119.913
;MAXZ:7.92
;Generated with Cura_SteamEngine 5.0.0
M140 S100
M105
M190 S100
M104 S230
M105
M109 S230
M82 ;absolute extrusion mode
G28 ;Home
G1 Z15.0 F6000 ;Move the platform down 15mm
;Prime the extruder
G92 E0
G1 F200 E3
G92 E0
G92 E0
G92 E0
G1 F2700 E-5
;LAYER_COUNT:43
;LAYER:0
M107
G0 F2250 X93.902 Y100.06 Z0.36
G0 X92.9 Y103.152
;TYPE:SKIRT
G1 F2700 E0
G1 F600 X92.91 Y102.488 E0.05964
G1 X92.958 Y101.954 E0.10778
G1 X93.085 Y101.433 E0.15594
G1 X93.288 Y100.936 E0.20415
G1 X93.562 Y100.475 E0.25231
G1 X93.902 Y100.06 E0.30049
G1 X94.3 Y99.7 E0.34868
G1 X94.746 Y99.404 E0.39675
G1 X95.232 Y99.176 E0.44496
G1 X95.746 Y99.024 E0.4931
G1 X96.409 Y98.943 E0.55308
G1 X96.83 Y98.933 E0.59089
G1 X98.352 Y98.933 E0.72757
G1 X100.874 Y98.974 E0.95408
G1 X104.927 Y98.939 E1.31807
G1 X106.301 Y98.9 E1.44151
G1 X113.344 Y98.9 E2.07398
G1 X114.05 Y98.91 E2.13739
G1 X114.584 Y98.958 E2.18554
G1 X115.248 Y99.134 E2.24723
G1 X115.94 Y99.39 E2.31349
G1 X118.932 Y100.448 E2.59848
G1 X119.819 Y100.888 E2.68739
G1 X120.53 Y101.41 E2.7666
G1 X121.038 Y101.937 E2.83234
G1 X121.372 Y102.356 E2.88046
G1 X121.789 Y103.105 E2.95744
G1 X122.051 Y103.766 E3.02129
G1 X122.239 Y104.616 E3.09947
G1 X122.289 Y105.296 E3.1607
G1 X122.279 Y106.625 E3.28005
G1 X122.266 Y107.288 E3.3396
G1 X122.287 Y109.809 E3.566
G1 X122.271 Y111.355 E3.70484
G1 X122.287 Y114.446 E3.98243
G1 X122.272 Y115.045 E4.03623
G1 X122.163 Y115.839 E4.10821
G1 X121.825 Y116.853 E4.20419
G1 X121.392 Y117.642 E4.28501
G1 X120.999 Y118.141 E4.34205
G1 X120.631 Y118.531 E4.39021
G1 X120.167 Y118.906 E4.44378
G1 X119.658 Y119.239 E4.4984
G1 X118.901 Y119.592 E4.57341
G1 X118.056 Y119.822 E4.65206
G1 X117.161 Y119.913 E4.73284
G1 X115.938 Y119.873 E4.84273
G1 X114.823 Y119.812 E4.94301
G1 X110.976 Y119.731 E5.28856
G1 X106.709 Y119.733 E5.67174
G1 X104.188 Y119.766 E5.89815
G1 X97.148 Y119.767 E6.53036
G1 X96.458 Y119.757 E6.59233
G1 X95.924 Y119.709 E6.64048
G1 X95.403 Y119.582 E6.68864
G1 X94.906 Y119.38 E6.73682
G1 X94.445 Y119.106 E6.78498
G1 X94.03 Y118.766 E6.83315
G1 X93.67 Y118.369 E6.88128
G1 X93.373 Y117.922 E6.92947
G1 X93.145 Y117.437 E6.9776
G1 X92.992 Y116.923 E7.02576
G1 X92.912 Y116.265 E7.08529
G1 X92.897 Y115.43 E7.16028
G1 X92.89 Y114.751 E7.22126
G1 X92.9 Y114.598 E7.23503
G1 X92.9 Y103.152 E8.26291
G0 F2250 X93.3 Y103.158
G1 F600 X93.31 Y102.494 E8.32255
G1 X93.358 Y101.99 E8.36801
G1 X93.484 Y101.501 E8.41336
G1 X93.686 Y101.037 E8.4588
G1 X93.958 Y100.611 E8.50419
G1 X94.294 Y100.233 E8.54961
G1 X94.685 Y99.913 E8.59498
G1 X95.122 Y99.659 E8.64037
G1 X95.593 Y99.476 E8.68575
G1 X96.088 Y99.37 E8.73121
G1 X96.74 Y99.334 E8.78985
G1 X98.346 Y99.333 E8.93407
G1 X100.871 Y99.375 E9.16086
G1 X104.894 Y99.339 E9.52215
G1 X106.301 Y99.3 E9.64855
G1 X113.338 Y99.3 E10.28049
G1 X114.044 Y99.31 E10.34389
G1 X114.548 Y99.357 E10.38935
G1 X115.109 Y99.509 E10.44154
G1 X115.807 Y99.767 E10.50837
G1 X118.781 Y100.818 E10.79163
G1 X119.597 Y101.22 E10.87332
G1 X119.885 Y101.412 E10.9044
G1 X120.454 Y101.896 E10.97149
G1 X121.059 Y102.605 E11.05519
G1 X121.434 Y103.288 E11.12516
G1 X121.666 Y103.876 E11.18192
G1 X121.842 Y104.659 E11.25399
G1 X121.889 Y105.293 E11.31108
G1 X121.879 Y106.617 E11.42998
G1 X121.866 Y107.286 E11.49007
G1 X121.887 Y109.805 E11.71629
G1 X121.871 Y111.351 E11.85514
G1 X121.887 Y114.436 E12.13218
G1 X121.872 Y115.035 E12.18599
G1 X121.775 Y115.741 E12.24998
G1 X121.466 Y116.676 E12.33842
G1 X121.305 Y117.003 E12.37115
G1 X120.916 Y117.61 E12.43589
G1 X120.689 Y117.889 E12.46819
G1 X120.177 Y118.391 E12.53258
G1 X119.468 Y118.887 E12.61029
G1 X118.771 Y119.214 E12.67942
G1 X117.995 Y119.427 E12.75169
G1 X117.165 Y119.513 E12.82662
G1 X115.955 Y119.473 E12.93534
G1 X114.854 Y119.413 E13.03436
G1 X110.984 Y119.331 E13.38198
G1 X106.704 Y119.333 E13.76633
G1 X104.187 Y119.366 E13.99238
G1 X97.154 Y119.367 E14.62396
G1 X96.464 Y119.357 E14.68593
G1 X95.96 Y119.309 E14.7314
G1 X95.471 Y119.184 E14.77672
G1 X95.007 Y118.982 E14.82217
G1 X94.581 Y118.71 E14.86756
G1 X94.203 Y118.374 E14.91298
G1 X93.882 Y117.983 E14.95841
G1 X93.627 Y117.547 E15.00376
G1 X93.445 Y117.075 E15.04919
G1 X93.338 Y116.581 E15.09458
G1 X93.301 Y115.92 E15.15404
G1 X93.29 Y114.746 E15.25947
G1 X93.3 Y114.602 E15.27243
G1 X93.3 Y103.158 E16.30013
G1 F2700 E11.30013
G0 F2250 X95.847 Y101.88
G0 X99.653 Y101.88
G0 X99.665 Y104.013
G0 X99.435 Y104.013
;TYPE:SUPPORT
G1 F2700 E16.30013
G1 F600 X100.591 Y104.013 E16.40394
G0 F2250 X100.591 Y106.68
G1 F600 X99.435 Y106.68 E16.50775
G1 F2700 E11.50775
G0 F2250 X99.665 Y106.68
G0 X99.653 Y101.88
G0 X95.847 Y101.88
G0 X95.847 Y115.366
G0 X98.679 Y115.383
G0 X98.679 Y115.154
G1 F2700 E16.50775
G1 F600 X98.679 Y116.431 E16.62243
G0 F2250 X101.346 Y116.431
G1 F600 X101.346 Y115.011 E16.74995
G0 F2250 X104.013 Y115.152
G1 F600 X104.013 Y116.431 E16.86481
G0 F2250 X106.68 Y116.398
G1 F600 X106.68 Y115.119 E16.97966
G0 F2250 X109.347 Y114.977
G1 F600 X109.347 Y116.398 E17.10727
G0 F2250 X112.014 Y116.398
G1 F600 X112.014 Y115.12 E17.22204
G1 F2700 E12.22204
;MESH:JntB.stl
G0 F2250 X112.015 Y115.349
G0 X105.347 Y115.333
G0 X105.165 Y114.292
G0 X104.076 Y114.292
G0 X102.532 Y111.493
G0 X98.987 Y109.443
G1 F2700 E17.22204
G0 F2250 X98.987 Y108.733
;TYPE:WALL-OUTER
G1 F600 X98.84 Y108.654 E17.23703
G1 X98.8 Y108.533 E17.24847
G1 X98.8 Y102.733 E17.76933
G1 X96.7 Y102.733 E17.95791
G1 X96.7 Y114.514 E19.01587
G1 X98.7 Y114.517 E19.19548
G1 X98.7 Y111.937 E19.42717
G1 X98.745 Y111.809 E19.43935
G1 X98.899 Y111.736 E19.45466
G1 X102.094 Y111.732 E19.74157
G1 X102.254 Y111.809 E19.75752
G1 X102.295 Y111.931 E19.76908
G1 X102.3 Y114.517 E20.00131
G1 X104.3 Y114.516 E20.18091
G1 X104.3 Y110.294 E20.56006
G1 X104.3 Y108.733 E20.70024
G1 X98.987 Y108.733 E21.17736
G0 F2250 X98.84 Y108.654
G0 X98.83 Y108.622
G0 X98.09 Y108.622
G0 X97.99 Y111.937
G0 X98.3 Y111.937
;TYPE:WALL-INNER
G1 F600 X98.436 Y111.555 E21.21377
G1 X98.707 Y111.368 E21.24334
G1 X99.001 Y111.337 E21.26989
G1 X102.093 Y111.332 E21.54756
G1 X102.315 Y111.373 E21.56783
G1 X102.572 Y111.565 E21.59664
G1 X102.695 Y111.931 E21.63131
G1 X102.7 Y114.117 E21.82762
G1 X103.9 Y114.116 E21.93539
G1 X103.9 Y110.294 E22.27861
G1 X103.9 Y109.133 E22.38287
G1 X99 Y109.133 E22.8229
G1 X98.774 Y109.09 E22.84356
G1 X98.521 Y108.896 E22.87219
G1 X98.408 Y108.637 E22.89757
G1 X98.4 Y108.533 E22.90694
G1 X98.4 Y103.133 E23.39187
G1 X97.1 Y103.133 E23.50861
G1 X97.1 Y114.115 E24.49482
G1 X98.3 Y114.117 E24.60258
G1 X98.3 Y111.937 E24.79835
G0 F2250 X98.578 Y110.989
G1 F600 X99 Y110.937 E24.83654
G1 X102.093 Y110.932 E25.1143
G1 X102.461 Y111.001 E25.14792
G1 X102.889 Y111.32 E25.19586
G1 F598.5 X103.096 Y111.93 E25.25385
G1 F597 X103.099 Y113.717 E25.41513
G1 F598.5 X103.5 Y113.716 E25.45123
G1 F600 X103.5 Y110.294 E25.75853
G1 X103.5 Y109.533 E25.82687
G1 X99 Y109.533 E26.23098
G1 X98.623 Y109.46 E26.26547
G1 X98.202 Y109.138 E26.31306
G1 F559.4 X97.985 Y108.711 E26.3592
G1 F528.6 X97.975 Y108.533 E26.37737
G1 F533.3 X97.975 Y103.558 E26.87998
G1 X97.525 Y103.558 E26.92544
G1 X97.525 Y108.533 E27.42805
G1 F564.7 X97.5 Y109.374 E27.50833
G1 F600 X97.5 Y113.715 E27.89817
G1 X97.9 Y113.716 E27.93409
G1 X97.9 Y111.937 E28.09385
G1 X98.127 Y111.301 E28.15449
G1 X98.578 Y110.989 E28.20374
G0 F2250 X99 Y109.984
G1 F516.1 X98.679 Y109.911 E28.2381
G1 F579.7 X98.473 Y109.831 E28.25864
G1 F600 X97.901 Y109.392 E28.32339
G1 X97.901 Y110.99 E28.4669
G1 X98.45 Y110.61 E28.52686
G1 F532.2 X98.897 Y110.485 E28.57385
G1 F478.1 X100.495 Y110.484 E28.75395
G1 F480 X102.093 Y110.483 E28.93333
G1 F452.8 X102.637 Y110.555 E28.99863
G1 F427.8 X103.02 Y110.841 E29.05883
G1 X103.02 Y110.294 E29.12772
G1 X103.02 Y110.013 E29.16311
G1 F452.8 X102.092 Y109.983 E29.27359
G1 F481 X100.546 Y109.983 E29.44679
G1 F479 X99 Y109.984 E29.62068
G0 F2250 X98.371 Y110.216
G1 F555.6 X98.344 Y110.262 E29.62585
G1 X98.29 Y110.262 E29.63109
G1 X98.264 Y110.216 E29.63621
G1 X98.291 Y110.17 E29.64139
G1 X98.344 Y110.17 E29.64653
G1 F2700 E24.64653
;MESH:JntA.stl
G0 F2250 X104.07 Y110.993
G0 X106.43 Y110.993
G0 X108.399 Y110.993
G1 F2700 E29.64653
G0 F2250 X108.399 Y111.703
;TYPE:WALL-OUTER
G1 F600 X111.603 Y111.7 E29.93425
G1 X111.759 Y111.782 E29.95008
G1 X111.796 Y111.899 E29.9611
G1 X111.8 Y114.485 E30.19333
G1 X113.8 Y114.484 E30.37293
G1 X113.8 Y103.727 E31.33894
G1 X113.8 Y102.7 E31.43117
G1 X111.23 Y102.701 E31.66196
G1 F529.8 X110.636 Y102.754 E31.72261
G1 F493.8 X110.071 Y102.733 E31.7843
G1 F502.1 X109.516 Y102.743 E31.84387
G1 F539.3 X108.995 Y102.7 E31.89609
G1 F600 X106.2 Y102.7 E32.14709
G1 X106.2 Y114.481 E33.20505
G1 X108.2 Y114.484 E33.38466
G1 X108.2 Y111.904 E33.61635
G1 X108.238 Y111.786 E33.62748
G1 X108.399 Y111.703 E33.64375
G0 F2250 X108.599 Y111.703
G0 X108.599 Y110.993
G0 X107.166 Y106.413
G0 X107.835 Y106.174
G1 F600 X107.737 Y105.662 E33.69056
G1 X107.784 Y105.012 E33.74909
G1 X107.954 Y104.516 E33.79617
G1 X108.234 Y104.075 E33.84308
G1 X108.602 Y103.711 E33.88956
G1 X109.06 Y103.432 E33.93772
G1 F536.9 X109.525 Y103.232 E33.98852
G1 F500 X110.052 Y103.198 E34.04543
G1 F493.8 X110.597 Y103.257 E34.10524
G1 F529.8 X111.072 Y103.501 E34.15955
G1 F600 X111.5 Y103.798 E34.20634
G1 X111.848 Y104.184 E34.25301
G1 X112.099 Y104.639 E34.29967
G1 X112.24 Y105.14 E34.34641
G1 X112.264 Y105.656 E34.3928
G1 X112.168 Y106.168 E34.43958
G1 X111.948 Y106.661 E34.48806
G1 X111.632 Y107.076 E34.5349
G1 X111.23 Y107.406 E34.58161
G1 X110.767 Y107.637 E34.62807
G1 X110.259 Y107.755 E34.67491
G1 X109.741 Y107.755 E34.72143
G1 X109.234 Y107.637 E34.76817
G1 X108.77 Y107.407 E34.81468
G1 X108.367 Y107.077 E34.86145
G1 X108.038 Y106.64 E34.91058
G1 X107.835 Y106.174 E34.95622
G0 F2250 X107.798 Y105.978
G0 X107.095 Y106.145
G0 X107.653 Y107.239
G0 X111.615 Y110.989
G0 X111.615 Y111.3
;TYPE:WALL-INNER
G1 F600 X111.843 Y111.352 E34.97722
G1 X112.083 Y111.548 E35.00505
G1 X112.196 Y111.899 E35.03816
G1 X112.2 Y114.085 E35.23447
G1 X113.4 Y114.084 E35.34223
G1 X113.4 Y103.727 E36.27232
G1 X113.4 Y103.1 E36.32862
G1 X111.149 Y103.101 E36.53077
G1 X111.344 Y103.197 E36.55029
G1 X111.834 Y103.564 E36.60526
G1 X112.224 Y104.028 E36.6597
G1 X112.501 Y104.576 E36.71484
G1 X112.647 Y105.171 E36.76986
G1 X112.656 Y105.768 E36.82347
G1 X112.518 Y106.377 E36.87955
G1 X112.24 Y106.948 E36.93658
G1 X111.851 Y107.42 E36.99151
G1 X111.366 Y107.791 E37.04634
G1 X110.809 Y108.042 E37.10121
G1 X110.319 Y108.15 E37.14627
G1 X109.737 Y108.155 E37.19853
G1 X109.14 Y108.026 E37.25338
G1 X108.589 Y107.764 E37.30817
G1 X108.111 Y107.384 E37.36301
G1 X107.716 Y106.878 E37.42066
G1 X107.466 Y106.329 E37.47483
G1 X107.343 Y105.734 E37.52939
G1 X107.385 Y104.978 E37.59739
G1 X107.577 Y104.382 E37.65362
G1 X107.898 Y103.857 E37.70888
G1 X108.324 Y103.423 E37.76349
G1 X108.838 Y103.101 E37.81796
G1 X106.6 Y103.1 E38.01894
G1 X106.6 Y114.082 E39.00515
G1 X107.8 Y114.084 E39.11291
G1 X107.8 Y111.904 E39.30868
G1 X107.914 Y111.551 E39.34199
G1 X108.154 Y111.356 E39.36976
G1 X108.399 Y111.303 E39.39227
G1 X109.225 Y111.303 E39.46645
G1 X110.193 Y111.301 E39.55338
G1 X111.615 Y111.3 E39.68108
G0 F2250 X111.615 Y110.989
G0 X107.99 Y110.991
G1 F600 X108.398 Y110.903 E39.71856
G1 X109.225 Y110.903 E39.79282
G1 X110.193 Y110.901 E39.87975
G1 X111.627 Y110.9 E40.00853
G1 X112.007 Y110.987 E40.04354
G1 X112.407 Y111.313 E40.08988
G1 F598.5 X112.597 Y111.898 E40.14525
G1 X112.599 Y113.685 E40.30613
G1 X113 Y113.684 E40.34223
G1 F600 X113 Y106.329 E41.00273
G1 F638.3 X113.022 Y105.856 E41.0427
G1 X112.953 Y106.325 E41.08271
G1 F600 X112.676 Y106.993 E41.14765
G1 X112.262 Y107.568 E41.21128
G1 X111.731 Y108.029 E41.27443
G1 X111.116 Y108.357 E41.33702
G1 X110.432 Y108.536 E41.40052
G1 X109.733 Y108.555 E41.46331
G1 X109.046 Y108.415 E41.52627
G1 X108.407 Y108.12 E41.58948
G1 X107.854 Y107.691 E41.65233
G1 X107.394 Y107.116 E41.71846
G1 X107.098 Y106.485 E41.78105
G1 F641.7 X106.975 Y105.801 E41.8394
G1 F689.7 X106.974 Y105.794 E41.83995
G1 F641.7 X107 Y106.504 E41.89961
G1 F600 X107 Y113.682 E42.54421
G1 X107.4 Y113.683 E42.58013
G1 X107.4 Y111.904 E42.73989
G1 X107.59 Y111.317 E42.7953
G1 X107.99 Y110.991 E42.84164
G0 F2250 X106.974 Y105.794
G1 F654 X106.994 Y104.946 E42.91152
G0 F2250 X107.29 Y104.032
G1 F558.1 X107.645 Y103.516 E42.97199
G1 X107.015 Y103.515 E43.03281
G1 X107.016 Y104.213 E43.10019
G1 F588.2 X106.994 Y104.946 E43.16736
G1 F600 X107.035 Y104.689 E43.19073
G1 F568.7 X107.29 Y104.032 E43.2575
G0 F2250 X107.086 Y105.343
G0 X107.465 Y106.947
G0 X108.668 Y108.1
G0 X109.96 Y108.419
G0 X111.562 Y107.968
G0 X112.308 Y107.29
G0 X112.863 Y106.078
G0 X112.84 Y104.876
G0 X112.34 Y103.513
G1 F562.1 X112.591 Y103.837 E43.29679
G1 X112.899 Y104.467 E43.36402
G1 F589.7 X113.006 Y104.932 E43.40762
G1 X112.987 Y104.211 E43.47352
G1 F562.1 X112.987 Y103.727 E43.51992
G1 X112.987 Y103.513 E43.54043
G1 X112.34 Y103.513 E43.60246
G0 F2250 X113.006 Y104.932
G1 F663 X113.032 Y105.629 E43.65914
G1 F699.7 X113.025 Y105.832 E43.67478
G0 F2250 X111.64 Y110.5
G1 F600 X112.172 Y110.622 E43.7238
G1 X112.6 Y110.972 E43.77345
G1 X112.6 Y107.784 E44.05974
G1 X112.353 Y108.043 E44.09188
G1 X111.716 Y108.511 E44.16286
G1 X111.232 Y108.743 E44.21106
G1 X110.519 Y108.926 E44.27717
G1 X109.729 Y108.955 E44.34816
G1 X109.235 Y108.873 E44.39313
G1 X108.747 Y108.737 E44.43862
G1 X108.226 Y108.477 E44.49091
G1 X107.597 Y107.998 E44.56191
G1 X107.401 Y107.788 E44.58771
G1 X107.4 Y110.973 E44.87373
G1 X107.827 Y110.626 E44.92314
G1 X108.359 Y110.504 E44.97215
G1 X109.042 Y110.502 E45.03349
G1 X109.721 Y110.501 E45.09446
G1 X111.64 Y110.5 E45.26679
G0 F2250 X109.724 Y109.441
G1 F417.4 X109.479 Y109.424 E45.2985
G1 F491.8 X109.141 Y109.261 E45.33961
G1 F600 X108.594 Y109.107 E45.39064
G1 X108.045 Y108.834 E45.4457
G1 X107.801 Y108.672 E45.472
G1 X107.8 Y110.23 E45.61192
G1 X108.347 Y110.104 E45.66232
G1 X109.041 Y110.101 E45.72465
G1 F491.8 X109.439 Y110.001 E45.76961
G1 F418.1 X110.192 Y110.016 E45.86666
G1 F431.7 X110.691 Y110.03 E45.92898
G1 F509.6 X111.166 Y110.101 E45.97976
G1 F600 X111.652 Y110.1 E46.02341
G1 X112.2 Y110.226 E46.0739
G1 X112.2 Y108.673 E46.21336
G1 X111.465 Y109.077 E46.28868
G1 F509.6 X110.621 Y109.386 E46.38372
G1 F424.8 X110.544 Y109.425 E46.39467
G1 F413.8 X109.724 Y109.441 E46.50147
G0 F2250 X110.969 Y109.677
;TYPE:SKIN
G1 F678 X111.216 Y109.744 E46.52181
G1 X111.628 Y109.746 E46.55455
G1 X111.838 Y109.788 E46.57157
G1 X111.833 Y109.527 E46.59232
G1 X111.827 Y109.296 E46.61068
G1 X111.184 Y109.552 E46.66569
G1 X110.969 Y109.677 E46.68545
G0 F2250 X108.157 Y109.287
G1 F679.9 X108.157 Y109.785 E46.72492
G1 X108.436 Y109.747 E46.74723
G1 X109.003 Y109.745 E46.79217
G1 X109.131 Y109.684 E46.80341
G1 X109.034 Y109.607 E46.81322
G1 X108.478 Y109.443 E46.85916
G1 X108.157 Y109.287 E46.88744
G1 F2700 E41.88744
;MESH:JntC.stl
G0 F2250 X113.57 Y109.89
G0 X115.83 Y109.89
;TYPE:WALL-OUTER
G1 F2700 E46.88744
G1 F386.5 X115.878 Y110.388 E46.9572
G1 F384 X116.119 Y110.822 E47.02685
G1 X116.48 Y111.118 E47.09236
G1 X116.915 Y111.266 E47.15683
G1 F385.9 X117.352 Y111.256 E47.21787
G1 F387.1 X117.813 Y111.062 E47.28749
G1 F385.9 X118.142 Y110.739 E47.35187
G1 X118.338 Y110.315 E47.4171
G1 F383.4 X118.381 Y109.96 E47.46736
G1 F384.6 X118.265 Y109.469 E47.53804
G1 F389.6 X118.012 Y109.1 E47.59991
G1 F390.2 X117.612 Y108.825 E47.66693
G1 F387.7 X117.122 Y108.719 E47.7366
G1 F382.8 X116.622 Y108.81 E47.80814
G1 X116.23 Y109.065 E47.87397
G1 F384.6 X115.951 Y109.435 E47.93889
G1 F385.9 X115.83 Y109.89 E48.00463
G1 F2700 E43.00463
;MESH:JntC.stl(1)
G0 F2250 X114.975 Y109.214
G0 X114.86 Y105.639
G0 X115.825 Y105.217
;TYPE:WALL-OUTER
G1 F2700 E48.00463
G1 F385.2 X115.87 Y105.661 E48.06705
G1 X116.096 Y106.09 E48.13487
G1 X116.45 Y106.402 E48.20087
G1 F384.6 X116.884 Y106.56 E48.26557
G1 F385.9 X117.33 Y106.56 E48.32786
G1 F387.1 X117.781 Y106.381 E48.3954
G1 F387.7 X118.114 Y106.085 E48.45731
G1 X118.296 Y105.748 E48.51054
G1 F383.4 X118.379 Y105.252 E48.58121
