;FLAVOR:Marlin
;TIME:297
;Filament used: 0.148823m
;Layer height: 0.2
;MINX:101.202
;MINY:99.7
;MINZ:0.3
;MAXX:118.8
;MAXY:120.278
;MAXZ:7.9
;Generated with Cura_SteamEngine 5.0.0
M140 S40
M105
M190 S40
M104 S210
M105
M109 S210
M82 ;absolute extrusion mode
G28 ;Home
G1 Z15.0 F6000 ;Move the platform down 15mm
;Prime the extruder
G92 E0
G1 F200 E3
G92 E0
G92 E0
G92 E0
;LAYER_COUNT:40
;LAYER:0
M107
G0 F3600 X102.65 Y102.582 Z0.3
G0 X101.205 Y106.612
;TYPE:SKIRT
G1 F600 X101.218 Y105.914 E0.03483
G1 X101.269 Y105.296 E0.06577
G1 X101.4 Y104.691 E0.09665
G1 X101.607 Y104.107 E0.12756
G1 X101.888 Y103.555 E0.15846
G1 X102.238 Y103.044 E0.18936
G1 X102.65 Y102.582 E0.22025
G1 X102.96 Y102.302 E0.24109
G1 X104.759 Y100.816 E0.3575
G1 X105.261 Y100.453 E0.38841
G1 X105.806 Y100.158 E0.41932
G1 X106.384 Y99.936 E0.45022
G1 X106.985 Y99.789 E0.48108
G1 X107.727 Y99.718 E0.51827
G1 X108.732 Y99.7 E0.56842
G1 X111.539 Y99.7 E0.70846
G1 X112.241 Y99.71 E0.74349
G1 X112.859 Y99.759 E0.77442
G1 X113.465 Y99.887 E0.80532
G1 X114.049 Y100.092 E0.83619
G1 X114.603 Y100.37 E0.86712
G1 X115.223 Y100.803 E0.90485
G1 X117.04 Y102.298 E1.02224
G1 X117.492 Y102.722 E1.05316
G1 X117.885 Y103.2 E1.08403
G1 X118.214 Y103.725 E1.11494
G1 X118.472 Y104.288 E1.14584
G1 X118.656 Y104.879 E1.17672
G1 X118.762 Y105.49 E1.20766
G1 X118.798 Y106.182 E1.24223
G1 X118.8 Y111.361 E1.50061
G1 X118.79 Y112.065 E1.53574
G1 X118.741 Y112.683 E1.56666
G1 X118.613 Y113.289 E1.59756
G1 X118.408 Y113.873 E1.62844
G1 X118.13 Y114.426 E1.65932
G1 X117.931 Y114.737 E1.67774
G1 X116.394 Y116.948 E1.81208
G1 X116.002 Y117.459 E1.84422
G1 X115.501 Y118.002 E1.88108
G1 X115.083 Y118.39 E1.90953
G1 X114.39 Y118.924 E1.95318
G1 X113.946 Y119.206 E1.97942
G1 X113.179 Y119.601 E2.02246
G1 X112.684 Y119.802 E2.04911
G1 X112.145 Y119.985 E2.07751
G1 X111.499 Y120.139 E2.11064
G1 X110.449 Y120.266 E2.16341
G1 X109.875 Y120.278 E2.19205
G1 X109.276 Y120.253 E2.22196
G1 X108.644 Y120.167 E2.25379
G1 X108.012 Y120.025 E2.2861
G1 X107.26 Y119.786 E2.32547
G1 X106.641 Y119.522 E2.35904
G1 X105.975 Y119.164 E2.39677
G1 X105.42 Y118.795 E2.43002
G1 X104.88 Y118.364 E2.46449
G1 X104.352 Y117.857 E2.50101
G1 X103.906 Y117.342 E2.535
G1 X103.537 Y116.849 E2.56572
G1 X102.072 Y114.74 E2.69383
G1 X101.752 Y114.21 E2.72472
G1 X101.503 Y113.643 E2.75561
G1 X101.329 Y113.048 E2.78654
G1 X101.234 Y112.436 E2.81744
G1 X101.202 Y111.233 E2.87748
G1 X101.205 Y106.612 E3.10802
G0 F3600 X101.601 Y111.156
G1 F600 X101.605 Y106.619 E3.33437
G1 X101.618 Y105.921 E3.3692
G1 X101.669 Y105.33 E3.3988
G1 X101.799 Y104.752 E3.42835
G1 X102.005 Y104.196 E3.45794
G1 X102.285 Y103.673 E3.48753
G1 X102.632 Y103.192 E3.51712
G1 X103.215 Y102.611 E3.55819
G1 X105.014 Y101.125 E3.6746
G1 X105.495 Y100.779 E3.70416
G1 X106.019 Y100.501 E3.73375
G1 X106.576 Y100.295 E3.76338
G1 X107.154 Y100.167 E3.79292
G1 X107.734 Y100.118 E3.82196
G1 X108.732 Y100.1 E3.87175
G1 X111.534 Y100.1 E4.01155
G1 X112.236 Y100.11 E4.04657
G1 X112.827 Y100.159 E4.07616
G1 X113.406 Y100.286 E4.10573
G1 X113.962 Y100.49 E4.13528
G1 X114.487 Y100.767 E4.16489
G1 X114.969 Y101.112 E4.19447
G1 X116.786 Y102.607 E4.31186
G1 X117.217 Y103.014 E4.34143
G1 X117.59 Y103.475 E4.37102
G1 X117.897 Y103.982 E4.40059
G1 X118.134 Y104.526 E4.43019
G1 X118.295 Y105.096 E4.45974
G1 X118.388 Y105.87 E4.49863
G1 X118.4 Y106.33 E4.52159
G1 X118.4 Y111.355 E4.77229
G1 X118.39 Y112.059 E4.80742
G1 X118.341 Y112.65 E4.837
G1 X118.214 Y113.23 E4.86662
G1 X118.01 Y113.786 E4.89617
G1 X117.603 Y114.508 E4.93752
G1 X116.066 Y116.719 E5.07186
G1 X115.688 Y117.211 E5.10282
G1 X115.228 Y117.709 E5.13664
G1 X114.81 Y118.097 E5.16509
G1 X114.176 Y118.586 E5.20504
G1 X113.732 Y118.868 E5.23128
G1 X113.028 Y119.231 E5.2708
G1 X112.533 Y119.432 E5.29745
G1 X112.039 Y119.599 E5.32347
G1 X111.43 Y119.745 E5.35471
G1 X110.441 Y119.866 E5.40442
G1 X109.867 Y119.878 E5.43306
G1 X109.318 Y119.855 E5.46048
G1 X108.722 Y119.775 E5.49048
G1 X108.122 Y119.64 E5.52116
G1 X107.406 Y119.414 E5.55862
G1 X106.82 Y119.164 E5.5904
G1 X106.188 Y118.825 E5.62618
G1 X105.66 Y118.476 E5.65776
G1 X105.149 Y118.068 E5.69038
G1 X104.647 Y117.587 E5.72507
G1 X104.225 Y117.1 E5.75722
G1 X103.865 Y116.621 E5.78711
G1 X102.4 Y114.512 E5.91523
G1 X102.096 Y114.004 E5.94476
G1 X101.862 Y113.459 E5.97435
G1 X101.704 Y112.887 E6.00396
G1 X101.615 Y112.07 E6.04496
G1 X101.601 Y111.156 E6.09057
G0 F3600 X102.001 Y111.156
G1 F600 X102.005 Y106.627 E6.31652
G1 X102.018 Y105.929 E6.35135
G1 X102.068 Y105.365 E6.3796
G1 X102.197 Y104.815 E6.40778
G1 X102.403 Y104.288 E6.43601
G1 X102.681 Y103.796 E6.4642
G1 X103.025 Y103.348 E6.49238
G1 X103.47 Y102.919 E6.52322
G1 X105.269 Y101.433 E6.63963
G1 X105.729 Y101.105 E6.66782
G1 X106.231 Y100.845 E6.69602
G1 X106.764 Y100.658 E6.7242
G1 X107.319 Y100.548 E6.75243
G1 X108.658 Y100.501 E6.81928
G1 X111.528 Y100.5 E6.96246
G1 X112.23 Y100.51 E6.99749
G1 X112.793 Y100.558 E7.02568
G1 X113.344 Y100.685 E7.05389
G1 X113.872 Y100.889 E7.08213
G1 X114.365 Y101.164 E7.11029
G1 X114.714 Y101.421 E7.13191
G1 X116.531 Y102.916 E7.2493
G1 X116.942 Y103.305 E7.27754
G1 X117.293 Y103.748 E7.30574
G1 X117.578 Y104.237 E7.33397
G1 X117.791 Y104.76 E7.36215
G1 X117.929 Y105.308 E7.39034
G1 X117.988 Y105.882 E7.41913
G1 X118 Y106.33 E7.44149
G1 X118 Y111.35 E7.69194
G1 X117.99 Y112.054 E7.72706
G1 X117.942 Y112.617 E7.75525
G1 X117.815 Y113.168 E7.78346
G1 X117.611 Y113.696 E7.8117
G1 X117.274 Y114.28 E7.84534
G1 X115.737 Y116.491 E7.97968
G1 X115.374 Y116.963 E8.00939
G1 X114.956 Y117.416 E8.04014
G1 X114.538 Y117.804 E8.06859
G1 X113.962 Y118.249 E8.10491
G1 X113.518 Y118.531 E8.13115
G1 X112.878 Y118.86 E8.16705
G1 X112.383 Y119.061 E8.19371
G1 X111.733 Y119.268 E8.22774
G1 X111.034 Y119.408 E8.2633
G1 X110.433 Y119.466 E8.29343
G1 X109.859 Y119.478 E8.32207
G1 X109.359 Y119.457 E8.34704
G1 X108.799 Y119.382 E8.37523
G1 X108.232 Y119.256 E8.4042
G1 X107.553 Y119.042 E8.43972
G1 X106.999 Y118.807 E8.46974
G1 X106.4 Y118.487 E8.50363
G1 X105.901 Y118.156 E8.5335
G1 X105.417 Y117.772 E8.56432
G1 X104.941 Y117.317 E8.59718
G1 X104.543 Y116.858 E8.62749
G1 X104.194 Y116.393 E8.65649
G1 X102.729 Y114.284 E8.7846
G1 X102.44 Y113.798 E8.81281
G1 X102.222 Y113.276 E8.84104
G1 X102.081 Y112.729 E8.86922
G1 X102.014 Y112.064 E8.90256
G1 X102.001 Y111.156 E8.94787
G0 F3600 X102.401 Y111.157
G1 F600 X102.405 Y106.634 E9.17352
G1 X102.418 Y105.936 E9.20835
G1 X102.468 Y105.402 E9.23511
G1 X102.596 Y104.881 E9.26188
G1 X102.801 Y104.386 E9.28861
G1 X103.077 Y103.926 E9.31537
G1 X103.418 Y103.512 E9.34213
G1 X103.724 Y103.227 E9.36299
G1 X105.523 Y101.741 E9.4794
G1 X105.961 Y101.432 E9.50614
G1 X106.44 Y101.19 E9.53292
G1 X106.949 Y101.023 E9.55964
G1 X107.478 Y100.933 E9.58642
G1 X108.665 Y100.901 E9.64566
G1 X111.522 Y100.9 E9.78819
G1 X112.224 Y100.91 E9.82322
G1 X112.758 Y100.958 E9.84997
G1 X113.28 Y101.084 E9.87676
G1 X113.776 Y101.287 E9.9035
G1 X114.237 Y101.561 E9.93025
G1 X114.46 Y101.73 E9.94421
G1 X116.277 Y103.225 E10.0616
G1 X116.665 Y103.596 E10.08838
G1 X116.993 Y104.02 E10.11513
G1 X117.255 Y104.488 E10.14189
G1 X117.444 Y104.99 E10.16865
G1 X117.556 Y105.514 E10.19538
G1 X117.598 Y106.219 E10.23062
G1 X117.6 Y111.344 E10.4863
G1 X117.59 Y112.048 E10.52143
G1 X117.542 Y112.582 E10.54818
G1 X117.416 Y113.103 E10.57492
G1 X117.213 Y113.6 E10.6017
G1 X116.946 Y114.052 E10.6279
G1 X115.409 Y116.263 E10.76224
G1 X115.06 Y116.715 E10.79073
G1 X114.684 Y117.123 E10.81841
G1 X114.266 Y117.511 E10.84686
G1 X113.747 Y117.911 E10.87955
G1 X113.303 Y118.193 E10.90579
G1 X112.727 Y118.489 E10.9381
G1 X112.232 Y118.69 E10.96476
G1 X111.627 Y118.882 E10.99642
G1 X110.965 Y119.014 E11.0301
G1 X110.424 Y119.066 E11.05722
G1 X109.85 Y119.078 E11.08586
G1 X109.2 Y119.039 E11.11835
G1 X108.639 Y118.943 E11.14674
G1 X108.026 Y118.78 E11.17839
G1 X107.469 Y118.578 E11.20795
G1 X106.916 Y118.318 E11.23843
G1 X106.393 Y118.01 E11.26871
G1 X105.939 Y117.685 E11.29657
G1 X105.472 Y117.281 E11.32738
G1 X105.071 Y116.867 E11.35613
G1 X104.615 Y116.292 E11.39275
G1 X103.057 Y114.056 E11.52871
G1 X102.785 Y113.594 E11.55546
G1 X102.584 Y113.096 E11.58225
G1 X102.46 Y112.575 E11.60897
G1 X102.414 Y112.058 E11.63486
G1 X102.401 Y111.157 E11.67982
G0 F3600 X102.801 Y111.208
G1 F600 X102.805 Y106.641 E11.90767
G1 X102.818 Y105.943 E11.9425
G1 X102.867 Y105.44 E11.96771
G1 X102.995 Y104.951 E11.99293
G1 X103.198 Y104.488 E12.01815
G1 X103.472 Y104.063 E12.04338
G1 X103.979 Y103.536 E12.07986
G1 X105.778 Y102.05 E12.19627
G1 X106.192 Y101.76 E12.22149
G1 X106.647 Y101.538 E12.24675
G1 X107.13 Y101.391 E12.27194
G1 X107.757 Y101.318 E12.30343
G1 X108.732 Y101.3 E12.35208
G1 X111.517 Y101.3 E12.49103
G1 X112.219 Y101.31 E12.52605
G1 X112.722 Y101.357 E12.55126
G1 X113.212 Y101.483 E12.5765
G1 X113.675 Y101.685 E12.6017
G1 X114.206 Y102.039 E12.63354
G1 X116.023 Y103.534 E12.75093
G1 X116.387 Y103.885 E12.77616
G1 X116.691 Y104.289 E12.80138
G1 X116.928 Y104.736 E12.82662
G1 X117.091 Y105.214 E12.85182
G1 X117.188 Y105.907 E12.88673
G1 X117.2 Y106.33 E12.90784
G1 X117.2 Y111.338 E13.15769
G1 X117.19 Y112.042 E13.19282
G1 X117.143 Y112.546 E13.21807
G1 X117.017 Y113.035 E13.24327
G1 X116.815 Y113.499 E13.26851
G1 X116.618 Y113.824 E13.28747
G1 X115.081 Y116.035 E13.42182
G1 X114.746 Y116.467 E13.44909
G1 X113.994 Y117.217 E13.50208
G1 X113.533 Y117.573 E13.53114
G1 X113.089 Y117.855 E13.55738
G1 X112.577 Y118.119 E13.58612
G1 X112.082 Y118.32 E13.61277
G1 X111.522 Y118.497 E13.64207
G1 X110.897 Y118.62 E13.67385
G1 X109.842 Y118.678 E13.72656
G1 X109.241 Y118.641 E13.75661
G1 X108.716 Y118.55 E13.78319
G1 X108.136 Y118.396 E13.81313
G1 X107.615 Y118.206 E13.84079
G1 X107.095 Y117.96 E13.86949
G1 X106.606 Y117.671 E13.89783
G1 X106.18 Y117.365 E13.924
G1 X105.741 Y116.985 E13.95297
G1 X105.366 Y116.596 E13.97992
G1 X104.933 Y116.05 E14.01469
G1 X103.386 Y113.828 E14.14977
G1 X103.131 Y113.391 E14.17501
G1 X102.948 Y112.92 E14.20022
G1 X102.842 Y112.425 E14.22548
G1 X102.801 Y111.208 E14.28623
G0 F3600 X105.353 Y105.347
G0 X109.013 Y105.346
G0 X109.347 Y106.1
;TYPE:SUPPORT
G1 F600 X109.347 Y104.5 E14.36605
G0 F3600 X112.014 Y104.5
G1 F600 X112.014 Y105.3 E14.40596
;MESH:002-TPU.stl
G0 F3600 X111.969 Y106.495
G0 X108.397 Y111.681
G0 X107.943 Y112.591
G0 X108.454 Y112.59
;TYPE:WALL-OUTER
G1 F600 X108.488 Y112.167 E14.42713
G1 X108.633 Y111.772 E14.44813
G1 X108.88 Y111.432 E14.46909
G1 X109.212 Y111.168 E14.49025
G1 X109.599 Y111.003 E14.51124
G1 X110.02 Y110.951 E14.53241
G1 X110.439 Y111.014 E14.55355
G1 X110.821 Y111.188 E14.57449
G1 X111.144 Y111.456 E14.59543
G1 X111.385 Y111.806 E14.61663
G1 X111.52 Y112.203 E14.63755
G1 X111.544 Y112.624 E14.65859
G1 X111.457 Y113.027 E14.67916
G1 X111.256 Y113.407 E14.7006
G1 X110.964 Y113.714 E14.72174
G1 X110.602 Y113.928 E14.74272
G1 X110.192 Y114.037 E14.76389
G1 X109.773 Y114.032 E14.78479
G1 X109.368 Y113.914 E14.80584
G1 X109.006 Y113.689 E14.8271
G1 X108.725 Y113.379 E14.84798
G1 X108.535 Y113.001 E14.86908
G1 X108.454 Y112.59 E14.88998
G0 F3600 X108.47 Y112.391
G0 X107.95 Y112.322
G0 X107.109 Y112.332
G1 F600 X107.199 Y112.485 E14.89884
G1 X107.237 Y112.915 E14.92037
G1 X107.361 Y113.416 E14.94612
G1 X107.57 Y113.88 E14.97151
G1 X107.858 Y114.295 E14.99671
G1 X108.223 Y114.655 E15.02229
G1 X108.641 Y114.941 E15.04756
G1 X109.121 Y115.152 E15.07372
G1 X109.719 Y115.275 E15.10418
G1 X110.262 Y115.275 E15.13127
G1 X110.611 Y115.227 E15.14884
G1 X111.093 Y115.071 E15.17412
G1 X111.547 Y114.827 E15.19983
G1 X112.049 Y114.405 E15.23255
G1 X112.385 Y113.964 E15.26021
G1 X112.612 Y113.507 E15.28567
G1 X112.75 Y113.018 E15.31102
G1 F601.5 X112.8 Y112.481 E15.33786
G1 X112.893 Y112.33 E15.34668
G1 F600 X113.8 Y111.876 E15.39729
G1 X113.8 Y107.376 E15.62179
G1 X113.8 Y106.2 E15.68046
G1 X111.787 Y106.2 E15.78089
G1 X111.666 Y106.677 E15.80544
G1 X111.444 Y107.072 E15.82805
G1 X111.135 Y107.394 E15.85031
G1 X110.749 Y107.636 E15.87304
G1 X110.321 Y107.771 E15.89543
G1 X109.863 Y107.794 E15.91831
G1 X109.42 Y107.702 E15.94088
G1 X109.018 Y107.506 E15.9632
G1 X108.67 Y107.214 E15.98586
G1 X108.411 Y106.843 E16.00843
G1 X108.25 Y106.421 E16.03097
G1 X108.223 Y106.2 E16.04208
G1 X106.205 Y106.201 E16.14275
G1 X106.201 Y111.876 E16.42588
G1 X107.109 Y112.332 E16.47657
G0 F3600 X107.199 Y112.485
G0 X107.201 Y112.507
G0 X107.478 Y112.136
;TYPE:WALL-INNER
G1 F578.3 X107.614 Y112.456 E16.49457
G1 F560.7 X107.639 Y112.824 E16.51426
G1 F567.4 X107.784 Y113.366 E16.54386
G1 F570.1 X108.043 Y113.855 E16.57292
G1 F568.7 X108.401 Y114.262 E16.60145
G1 F564.7 X108.817 Y114.565 E16.62873
G1 F562.1 X109.224 Y114.752 E16.65258
G1 F567.4 X109.75 Y114.867 E16.68099
G1 F571.4 X110.304 Y114.86 E16.71001
G1 F570.1 X110.834 Y114.73 E16.73867
G1 F563.4 X111.294 Y114.499 E16.76602
G1 F559.4 X111.752 Y114.114 E16.79803
G1 F560.7 X112.04 Y113.729 E16.8237
G1 F568.7 X112.266 Y113.223 E16.85287
G1 F575.5 X112.371 Y112.678 E16.88173
G1 F588.2 X112.447 Y112.263 E16.9032
G1 F600 X112.531 Y112.123 E16.91135
G1 X112.73 Y111.963 E16.92409
G1 X113.4 Y111.628 E16.96146
G1 X113.4 Y107.376 E17.17359
G1 X113.4 Y106.6 E17.21231
G1 X112.105 Y106.6 E17.27692
G1 X111.943 Y107.005 E17.29868
G1 X111.736 Y107.344 E17.3185
G1 X111.352 Y107.73 E17.34566
G1 X110.875 Y108.016 E17.37341
G1 X110.347 Y108.171 E17.40086
G1 X109.847 Y108.195 E17.42583
G1 X109.298 Y108.084 E17.45378
G1 X108.765 Y107.816 E17.48354
G1 X108.346 Y107.448 E17.51136
G1 X108.056 Y107.032 E17.53666
G1 X107.864 Y106.601 E17.5602
G1 X106.605 Y106.601 E17.62301
G1 X106.601 Y111.629 E17.87386
G1 X107.268 Y111.963 E17.91108
G1 X107.478 Y112.136 E17.92465
G0 F3600 X108.042 Y112.565
G1 F582.5 X108.11 Y112.036 E17.95206
G1 F600 X108.293 Y111.56 E17.9775
G1 X108.626 Y111.123 E18.00491
G1 X109.049 Y110.802 E18.0314
G1 X109.543 Y110.607 E18.0579
G1 X110.072 Y110.555 E18.08442
G1 X110.599 Y110.647 E18.11111
G1 X111.07 Y110.875 E18.13722
G1 X111.47 Y111.224 E18.1637
G1 X111.761 Y111.67 E18.19027
G1 X111.919 Y112.174 E18.21662
G1 F585.4 X111.946 Y112.706 E18.24386
G1 F568.7 X111.834 Y113.196 E18.27032
G1 F570.1 X111.597 Y113.638 E18.29665
G1 F574.2 X111.232 Y114.027 E18.32446
G1 F570.1 X110.743 Y114.315 E18.35426
G1 F568.7 X110.259 Y114.444 E18.38063
G1 F570.1 X109.693 Y114.436 E18.41035
G1 F568.7 X109.158 Y114.266 E18.4399
G1 X108.731 Y113.996 E18.46649
G1 X108.394 Y113.623 E18.49295
G1 X108.139 Y113.117 E18.52277
G1 F566 X108.042 Y112.565 E18.55241
G0 F3600 X107.943 Y112.564
G0 X108.372 Y110.814
G1 F600 X108.818 Y110.471 E18.58048
G1 X109.374 Y110.234 E18.61063
G1 X109.88 Y110.156 E18.63617
G1 X110.489 Y110.206 E18.66666
G1 X110.91 Y110.347 E18.68881
G1 X111.319 Y110.563 E18.71189
G1 X111.796 Y110.992 E18.74389
G1 X112.102 Y111.448 E18.77129
G1 X112.25 Y111.845 E18.79243
G1 X112.551 Y111.605 E18.81163
G1 X113 Y111.381 E18.83667
G1 X113 Y107.376 E19.03648
G1 X113 Y107 E19.05524
G1 X112.392 Y107 E19.08557
G1 X112.176 Y107.414 E19.10887
G1 X111.759 Y107.908 E19.14112
G1 X111.23 Y108.286 E19.17356
G1 X110.622 Y108.521 E19.20608
G1 X109.965 Y108.596 E19.23907
G1 X109.316 Y108.503 E19.27178
G1 X108.757 Y108.275 E19.3019
G1 X108.511 Y108.126 E19.31625
G1 X108.021 Y107.682 E19.34923
G1 X107.696 Y107.206 E19.37799
G1 X107.612 Y107.001 E19.38904
G1 X107.005 Y107.001 E19.41933
G1 X107.001 Y111.382 E19.6379
G1 X107.548 Y111.662 E19.66855
G1 X107.75 Y111.851 E19.68235
G1 X107.957 Y111.343 E19.70972
G1 X108.372 Y110.814 E19.74327
G0 F3600 X111.528 Y110.245
;TYPE:SKIN
G1 F600 X112.081 Y110.743 E19.78039
G1 X112.351 Y111.13 E19.80394
G1 X112.417 Y111.263 E19.81134
G1 X112.62 Y111.151 E19.82291
G1 X112.62 Y107.395 E20.0103
G1 X112.488 Y107.627 E20.02361
G1 X112.046 Y108.157 E20.05804
G1 X111.446 Y108.6 E20.09525
G1 X110.978 Y108.804 E20.12072
G1 X110.433 Y108.945 E20.14881
G1 X109.922 Y108.969 E20.17433
G1 X109.327 Y108.892 E20.20426
G1 X108.8 Y108.712 E20.23205
G1 X108.297 Y108.438 E20.26062
G1 X107.738 Y107.934 E20.29817
G1 X107.385 Y107.396 E20.33028
G1 X107.382 Y111.146 E20.51736
G1 X107.575 Y111.245 E20.52819
G1 X107.872 Y110.802 E20.5548
