;FLAVOR:Marlin
;TIME:506
;Filament used: 0.240781m
;Layer height: 0.2
;MINX:100.7
;MINY:98.886
;MINZ:0.3
;MAXX:119.3
;MAXY:121.094
;MAXZ:8.9
;Generated with Cura_SteamEngine 5.0.0
M140 S40
M105
M190 S40
M104 S210
M105
M109 S210
M82 ;absolute extrusion mode
G28 ;Home
G1 Z15.0 F6000 ;Move the platform down 15mm
;Prime the extruder
G92 E0
G1 F200 E3
G92 E0
G92 E0
G92 E0
;LAYER_COUNT:45
;LAYER:0
M107
G0 F3600 X102.197 Y102.35 Z0.3
G0 X100.705 Y106.44
;TYPE:SKIRT
G1 F600 X100.716 Y105.743 E0.03478
G1 X100.765 Y105.126 E0.06566
G1 X100.894 Y104.52 E0.09657
G1 X101.1 Y103.936 E0.12746
G1 X101.379 Y103.383 E0.15836
G1 X101.727 Y102.871 E0.18925
G1 X102.197 Y102.35 E0.22426
G1 X102.866 Y101.711 E0.27041
G1 X103.64 Y100.991 E0.32315
G1 X104.409 Y100.247 E0.37653
G1 X104.881 Y99.846 E0.40743
G1 X105.401 Y99.51 E0.43832
G1 X105.96 Y99.243 E0.46923
G1 X106.549 Y99.05 E0.50015
G1 X107.157 Y98.934 E0.53103
G1 X107.672 Y98.899 E0.55678
G1 X108.527 Y98.886 E0.59944
G1 X111.219 Y98.886 E0.73375
G1 X111.922 Y98.896 E0.76882
G1 X112.54 Y98.945 E0.79975
G1 X113.146 Y99.073 E0.83065
G1 X113.73 Y99.278 E0.86153
G1 X114.284 Y99.556 E0.89246
G1 X114.87 Y99.962 E0.92802
G1 X117.445 Y102.037 E1.09301
G1 X117.908 Y102.449 E1.12393
G1 X118.313 Y102.917 E1.15481
G1 X118.655 Y103.433 E1.18569
G1 X118.928 Y103.99 E1.21664
G1 X119.126 Y104.576 E1.2475
G1 X119.248 Y105.184 E1.27844
G1 X119.298 Y105.998 E1.31912
G1 X119.3 Y111.176 E1.57746
G1 X119.29 Y111.878 E1.61248
G1 X119.241 Y112.496 E1.64341
G1 X119.113 Y113.102 E1.67431
G1 X118.908 Y113.686 E1.70519
G1 X118.542 Y114.383 E1.74447
G1 X116.521 Y117.559 E1.93228
G1 X115.985 Y118.288 E1.97742
G1 X115.503 Y118.817 E2.01313
G1 X114.793 Y119.454 E2.06071
G1 X114.375 Y119.753 E2.08635
G1 X113.536 Y120.254 E2.13511
G1 X113.024 Y120.49 E2.16323
G1 X112.469 Y120.699 E2.19282
G1 X111.706 Y120.907 E2.23228
G1 X110.833 Y121.049 E2.2764
G1 X110.07 Y121.094 E2.31454
G1 X109.343 Y121.066 E2.35083
G1 X108.567 Y120.963 E2.38989
G1 X107.884 Y120.803 E2.42488
G1 X106.718 Y120.37 E2.48694
G1 X105.815 Y119.873 E2.53836
G1 X105.185 Y119.428 E2.57684
G1 X104.638 Y118.951 E2.61305
G1 X103.91 Y118.168 E2.66639
G1 X103.437 Y117.502 E2.70715
G1 X102.59 Y116.179 E2.78552
G1 X101.927 Y115.111 E2.84823
G1 X101.474 Y114.408 E2.88996
G1 X101.173 Y113.867 E2.92084
G1 X100.944 Y113.291 E2.95177
G1 X100.792 Y112.691 E2.98265
G1 X100.711 Y111.899 E3.02237
G1 X100.7 Y111.269 E3.0538
G1 X100.705 Y106.44 E3.29472
G0 F3600 X101.1 Y111.269
G1 F600 X101.105 Y106.447 E3.53529
G1 X101.116 Y105.75 E3.57007
G1 X101.165 Y105.159 E3.59966
G1 X101.293 Y104.58 E3.62924
G1 X101.498 Y104.023 E3.65885
G1 X101.776 Y103.5 E3.6884
G1 X102.122 Y103.018 E3.718
G1 X102.474 Y102.639 E3.74381
G1 X103.138 Y102.004 E3.78965
G1 X103.934 Y101.263 E3.8439
G1 X104.687 Y100.535 E3.89616
G1 X105.14 Y100.152 E3.92575
G1 X105.641 Y99.834 E3.95536
G1 X106.18 Y99.586 E3.98496
G1 X106.747 Y99.413 E4.01453
G1 X107.332 Y99.318 E4.0441
G1 X108.459 Y99.287 E4.10035
G1 X111.214 Y99.286 E4.2378
G1 X111.917 Y99.296 E4.27287
G1 X112.508 Y99.345 E4.30246
G1 X113.087 Y99.472 E4.33203
G1 X113.643 Y99.676 E4.36158
G1 X114.168 Y99.953 E4.39119
G1 X114.619 Y100.273 E4.41878
G1 X117.199 Y102.352 E4.58409
G1 X117.641 Y102.748 E4.6137
G1 X118.025 Y103.199 E4.64325
G1 X118.345 Y103.698 E4.67282
G1 X118.595 Y104.236 E4.70242
G1 X118.771 Y104.802 E4.73199
G1 X118.869 Y105.387 E4.76158
G1 X118.898 Y106.01 E4.7927
G1 X118.9 Y111.171 E5.05018
G1 X118.89 Y111.873 E5.08521
G1 X118.841 Y112.464 E5.11479
G1 X118.714 Y113.043 E5.14437
G1 X118.51 Y113.599 E5.17391
G1 X118.205 Y114.168 E5.20612
G1 X116.194 Y117.329 E5.39304
G1 X115.68 Y118.029 E5.43636
G1 X115.226 Y118.529 E5.47006
G1 X114.552 Y119.135 E5.51528
G1 X113.815 Y119.638 E5.55979
G1 X113.36 Y119.894 E5.58584
G1 X112.875 Y120.118 E5.61249
G1 X112.347 Y120.318 E5.64066
G1 X111.631 Y120.514 E5.67769
G1 X110.798 Y120.65 E5.7198
G1 X110.073 Y120.694 E5.75604
G1 X109.384 Y120.668 E5.79044
G1 X108.647 Y120.571 E5.82753
G1 X108 Y120.42 E5.86067
G1 X106.9 Y120.014 E5.91917
G1 X106.037 Y119.54 E5.96829
G1 X105.437 Y119.117 E6.00492
G1 X104.921 Y118.668 E6.03904
G1 X104.226 Y117.923 E6.08987
G1 X103.768 Y117.278 E6.12934
G1 X102.93 Y115.968 E6.20692
G1 X102.305 Y114.961 E6.26605
G1 X101.81 Y114.192 E6.31168
G1 X101.524 Y113.672 E6.34129
G1 X101.309 Y113.12 E6.37084
G1 X101.171 Y112.543 E6.40044
G1 X101.111 Y111.892 E6.43306
G1 X101.1 Y111.269 E6.46414
G0 F3600 X101.5 Y111.27
G1 F600 X101.504 Y106.453 E6.70446
G1 X101.515 Y105.756 E6.73924
G1 X101.564 Y105.193 E6.76744
G1 X101.692 Y104.642 E6.79566
G1 X101.896 Y104.115 E6.82385
G1 X102.173 Y103.622 E6.85206
G1 X102.516 Y103.172 E6.88029
G1 X103.371 Y102.334 E6.94002
G1 X104.178 Y101.583 E6.99502
G1 X104.965 Y100.822 E7.04964
G1 X105.399 Y100.459 E7.07786
G1 X105.879 Y100.161 E7.10605
G1 X106.396 Y99.933 E7.13424
G1 X106.94 Y99.78 E7.16243
G1 X107.685 Y99.698 E7.19983
G1 X108.466 Y99.686 E7.2388
G1 X111.208 Y99.686 E7.37559
G1 X111.911 Y99.696 E7.41067
G1 X112.474 Y99.744 E7.43886
G1 X113.025 Y99.871 E7.46707
G1 X113.553 Y100.075 E7.49531
G1 X114.046 Y100.35 E7.52348
G1 X114.368 Y100.585 E7.54336
G1 X116.953 Y102.667 E7.70896
G1 X117.373 Y103.046 E7.73718
G1 X117.735 Y103.48 E7.76538
G1 X118.032 Y103.961 E7.79358
G1 X118.259 Y104.479 E7.8218
G1 X118.41 Y105.023 E7.84996
G1 X118.488 Y105.696 E7.88376
G1 X118.5 Y106.145 E7.90617
G1 X118.5 Y111.165 E8.15662
G1 X118.49 Y111.867 E8.19165
G1 X118.442 Y112.43 E8.21984
G1 X118.315 Y112.981 E8.24805
G1 X118.111 Y113.509 E8.27629
G1 X117.867 Y113.954 E8.30161
G1 X115.867 Y117.098 E8.48751
G1 X115.375 Y117.771 E8.5291
G1 X114.949 Y118.241 E8.56075
G1 X114.31 Y118.816 E8.60363
G1 X113.598 Y119.301 E8.64661
G1 X112.984 Y119.632 E8.68141
G1 X112.504 Y119.836 E8.70743
G1 X112.016 Y120.004 E8.73318
G1 X111.17 Y120.195 E8.77645
G1 X110.454 Y120.279 E8.81242
G1 X109.81 Y120.292 E8.84456
G1 X109.109 Y120.238 E8.87963
G1 X108.48 Y120.129 E8.91148
G1 X107.74 Y119.923 E8.9498
G1 X107.082 Y119.657 E8.98521
G1 X106.259 Y119.207 E9.03201
G1 X105.689 Y118.806 E9.06678
G1 X105.204 Y118.385 E9.09882
G1 X104.543 Y117.679 E9.14707
G1 X104.099 Y117.053 E9.18536
G1 X103.27 Y115.757 E9.26211
G1 X102.607 Y114.689 E9.32483
G1 X102.147 Y113.975 E9.3672
G1 X101.875 Y113.479 E9.39542
G1 X101.676 Y112.95 E9.42362
G1 X101.553 Y112.398 E9.45184
G1 X101.511 Y111.884 E9.47757
G1 X101.5 Y111.27 E9.5082
G0 F3600 X101.901 Y111.34
G1 F600 X101.904 Y106.459 E9.75172
G1 X101.915 Y105.762 E9.7865
G1 X101.964 Y105.228 E9.81325
G1 X102.091 Y104.707 E9.84
G1 X102.294 Y104.211 E9.86674
G1 X102.569 Y103.75 E9.89352
G1 X103.027 Y103.217 E9.92858
G1 X103.683 Y102.59 E9.97385
G1 X104.506 Y101.824 E10.02995
G1 X105.244 Y101.11 E10.08118
G1 X105.656 Y100.767 E10.10792
G1 X106.114 Y100.489 E10.13465
G1 X106.609 Y100.282 E10.16142
G1 X107.129 Y100.151 E10.18817
G1 X107.691 Y100.098 E10.21634
G1 X108.472 Y100.086 E10.2553
G1 X111.202 Y100.086 E10.39151
G1 X111.905 Y100.096 E10.42658
G1 X112.439 Y100.144 E10.45333
G1 X112.961 Y100.27 E10.48012
G1 X113.457 Y100.473 E10.50686
G1 X114.116 Y100.896 E10.54593
G1 X116.707 Y102.982 E10.71188
G1 X117.103 Y103.343 E10.73861
G1 X117.442 Y103.759 E10.76539
G1 X117.715 Y104.22 E10.79212
G1 X117.917 Y104.717 E10.81888
G1 X118.043 Y105.238 E10.84562
G1 X118.098 Y106.035 E10.88548
G1 X118.1 Y111.159 E11.14112
G1 X118.09 Y111.861 E11.17614
G1 X118.042 Y112.395 E11.20289
G1 X117.916 Y112.917 E11.22968
G1 X117.713 Y113.413 E11.25642
G1 X117.529 Y113.739 E11.2751
G1 X115.541 Y116.868 E11.46005
G1 X115.069 Y117.512 E11.49988
G1 X114.672 Y117.952 E11.52945
G1 X114.069 Y118.497 E11.57
G1 X113.382 Y118.965 E11.61147
G1 X112.809 Y119.273 E11.64392
G1 X112.104 Y119.556 E11.68183
G1 X111.48 Y119.728 E11.71412
G1 X110.728 Y119.853 E11.75215
G1 X110.079 Y119.894 E11.78459
G1 X109.467 Y119.873 E11.81514
G1 X108.806 Y119.787 E11.8484
G1 X108.232 Y119.654 E11.8778
G1 X107.264 Y119.301 E11.9292
G1 X106.481 Y118.874 E11.9737
G1 X105.94 Y118.495 E12.00665
G1 X105.486 Y118.103 E12.03657
G1 X104.859 Y117.434 E12.08232
G1 X104.43 Y116.828 E12.11936
G1 X103.609 Y115.546 E12.19531
G1 X102.946 Y114.478 E12.25803
G1 X102.483 Y113.759 E12.30069
G1 X102.227 Y113.287 E12.32748
G1 X102.044 Y112.783 E12.35423
G1 X101.938 Y112.257 E12.381
G1 X101.901 Y111.34 E12.42679
G0 F3600 X102.3 Y111.27
G1 F600 X102.304 Y106.466 E12.66646
G1 X102.315 Y105.769 E12.70124
G1 X102.363 Y105.265 E12.7265
G1 X102.49 Y104.776 E12.7517
G1 X102.692 Y104.312 E12.77695
G1 X102.964 Y103.886 E12.80217
G1 X103.303 Y103.507 E12.82753
G1 X103.956 Y102.883 E12.8726
G1 X104.764 Y102.131 E12.92766
G1 X105.522 Y101.398 E12.98027
G1 X105.912 Y101.076 E13.0055
G1 X106.348 Y100.82 E13.03073
G1 X106.818 Y100.635 E13.05593
G1 X107.312 Y100.528 E13.08114
G1 X108.478 Y100.486 E13.13935
G1 X111.197 Y100.486 E13.27501
G1 X111.9 Y100.496 E13.31008
G1 X112.403 Y100.543 E13.33529
G1 X112.893 Y100.669 E13.36053
G1 X113.356 Y100.871 E13.38573
G1 X113.865 Y101.207 E13.41616
G1 X116.46 Y103.297 E13.58239
G1 X116.833 Y103.639 E13.60764
G1 X117.147 Y104.035 E13.63285
G1 X117.395 Y104.476 E13.65809
G1 X117.57 Y104.95 E13.6833
G1 X117.668 Y105.446 E13.70853
G1 X117.698 Y106.047 E13.73855
G1 X117.7 Y111.154 E13.99334
G1 X117.69 Y111.856 E14.02836
G1 X117.643 Y112.359 E14.05357
G1 X117.517 Y112.849 E14.07881
G1 X117.192 Y113.525 E14.11623
G1 X115.214 Y116.638 E14.30024
G1 X114.764 Y117.254 E14.3383
G1 X114.395 Y117.664 E14.36582
G1 X113.828 Y118.178 E14.404
G1 X113.165 Y118.629 E14.444
G1 X112.633 Y118.913 E14.47409
G1 X111.983 Y119.175 E14.50905
G1 X111.404 Y119.335 E14.53902
G1 X110.694 Y119.455 E14.57495
G1 X110.082 Y119.494 E14.60554
G1 X109.509 Y119.475 E14.63414
G1 X108.886 Y119.395 E14.66548
G1 X108.349 Y119.271 E14.69298
G1 X107.446 Y118.945 E14.74087
G1 X106.703 Y118.542 E14.78304
G1 X106.192 Y118.185 E14.81414
G1 X105.769 Y117.82 E14.84202
G1 X105.175 Y117.189 E14.88525
G1 X104.761 Y116.603 E14.92105
G1 X103.949 Y115.335 E14.99617
G1 X103.286 Y114.267 E15.05888
G1 X102.819 Y113.542 E15.10191
G1 X102.58 Y113.097 E15.12711
G1 X102.414 Y112.619 E15.15235
G1 X102.311 Y111.87 E15.19007
G1 X102.3 Y111.27 E15.22001
G0 F3600 X104.853 Y105.162
G0 X109.012 Y105.161
G0 X109.347 Y105.915
;TYPE:SUPPORT
G1 F600 X109.347 Y103.686 E15.33122
G0 F3600 X107.539 Y104.013
G1 F600 X112.178 Y104.013 E15.56266
G0 F3600 X112.014 Y103.846
G1 F600 X112.014 Y105.115 E15.62597
;MESH:002-TPU3.stl
G0 F3600 X111.979 Y106.24
G0 X111.682 Y107.395
G0 X111.326 Y107.029
;TYPE:WALL-OUTER
G1 F600 X110.955 Y107.338 E15.65006
G1 X110.521 Y107.538 E15.6739
G1 X110.039 Y107.612 E15.69822
G1 X109.555 Y107.558 E15.72252
G1 X109.114 Y107.381 E15.74623
G1 X108.728 Y107.088 E15.77041
G1 X108.439 Y106.711 E15.79411
G1 X108.257 Y106.263 E15.81823
G1 X108.225 Y106.015 E15.83071
G1 X105.705 Y106.015 E15.95643
G1 X105.701 Y111.731 E16.2416
G1 X107.142 Y113.173 E16.34331
G1 X107.2 Y113.309 E16.35068
G1 X107.257 Y113.814 E16.37604
G1 X107.438 Y114.426 E16.40788
G1 X107.701 Y114.899 E16.43488
G1 X108.049 Y115.312 E16.46182
G1 X108.466 Y115.649 E16.48857
G1 X108.942 Y115.901 E16.51544
G1 X109.463 Y116.056 E16.54256
G1 X109.997 Y116.107 E16.56932
G1 X110.531 Y116.057 E16.59608
G1 X111.05 Y115.902 E16.6231
G1 X111.528 Y115.651 E16.65004
G1 X111.95 Y115.315 E16.67695
G1 X112.298 Y114.901 E16.70393
G1 X112.56 Y114.431 E16.73078
G1 X112.726 Y113.917 E16.75773
G1 X112.796 Y113.327 E16.78737
G1 X112.874 Y113.157 E16.7967
G1 X114.3 Y111.731 E16.89731
G1 X114.3 Y107.504 E17.1082
G1 X114.3 Y106.015 E17.18248
G1 X111.783 Y106.015 E17.30806
G1 X111.76 Y106.188 E17.31677
G1 X111.58 Y106.667 E17.34229
G1 X111.326 Y107.029 E17.36436
G0 F3600 X111.173 Y107.157
G0 X111.539 Y107.533
G0 X108.179 Y112.487
G0 X107.976 Y113.688
G0 X108.482 Y113.615
G1 F600 X108.47 Y113.073 E17.3914
G1 X108.604 Y112.645 E17.41378
G1 X108.85 Y112.279 E17.43578
G1 X109.218 Y111.982 E17.45937
G1 X109.679 Y111.807 E17.48397
G1 X110.082 Y111.769 E17.50417
G1 X110.273 Y111.79 E17.51376
G1 X110.694 Y111.93 E17.53589
G1 X111.062 Y112.187 E17.55828
G1 X111.336 Y112.532 E17.58026
G1 X111.506 Y112.947 E17.60264
G1 X111.549 Y113.378 E17.62425
G1 X111.445 Y113.858 E17.64875
G1 X111.254 Y114.224 E17.66935
G1 X110.917 Y114.561 E17.69312
G1 X110.548 Y114.763 E17.71411
G1 X110.078 Y114.858 E17.73803
G1 X109.668 Y114.827 E17.75855
G1 X109.219 Y114.646 E17.7827
G1 X108.893 Y114.399 E17.8031
G1 X108.616 Y114.001 E17.8273
G1 X108.482 Y113.615 E17.84768
G0 F3600 X108.478 Y113.415
G0 X108.082 Y112.959
;TYPE:WALL-INNER
G1 F592.6 X108.268 Y112.427 E17.87615
G1 F600 X108.562 Y112.002 E17.90193
G1 X109.03 Y111.627 E17.93185
G1 X109.555 Y111.419 E17.96003
G1 X110.068 Y111.367 E17.98575
G1 X110.391 Y111.408 E18.00199
G1 X110.918 Y111.598 E18.02994
G1 X111.359 Y111.919 E18.05716
G1 X111.704 Y112.374 E18.08564
G1 X111.904 Y112.903 E18.11386
G1 F588.2 X111.957 Y113.419 E18.14025
G1 F576.9 X111.865 Y113.916 E18.16648
G1 F574.2 X111.65 Y114.374 E18.19286
G1 F571.4 X111.285 Y114.792 E18.22193
G1 F570.1 X110.805 Y115.099 E18.25185
G1 X110.266 Y115.253 E18.28128
G1 X109.702 Y115.249 E18.3109
G1 F568.7 X109.166 Y115.086 E18.34039
G1 F570.1 X108.694 Y114.773 E18.37012
G1 F571.4 X108.333 Y114.339 E18.3997
G1 F570.1 X108.109 Y113.822 E18.42928
G1 F560.7 X108.052 Y113.284 E18.45816
G1 F568.7 X108.082 Y112.959 E18.47534
G0 F3600 X107.425 Y112.89
G1 F572.8 X107.61 Y113.202 E18.4943
G1 F559.4 X107.663 Y113.755 E18.52402
G1 F567.4 X107.829 Y114.29 E18.55358
G1 F562.1 X108.082 Y114.723 E18.58028
G1 F564.7 X108.421 Y115.097 E18.60704
G1 F570.1 X108.91 Y115.428 E18.63805
G1 F571.4 X109.406 Y115.615 E18.66582
G1 F568.7 X109.675 Y115.671 E18.68028
G1 F571.4 X110.244 Y115.679 E18.71009
G1 F572.8 X110.757 Y115.566 E18.73754
G1 F570.1 X111.012 Y115.467 E18.7519
G1 F572.8 X111.495 Y115.164 E18.7817
G1 F575.5 X111.87 Y114.778 E18.80969
G1 F570.1 X112.03 Y114.552 E18.82423
G1 F572.8 X112.264 Y114.036 E18.85384
G1 F574.2 X112.365 Y113.524 E18.88105
G1 F568.7 X112.391 Y113.254 E18.89533
G1 F582.5 X112.476 Y113.02 E18.90812
G1 F600 X112.866 Y112.598 E18.93679
G1 X113.9 Y111.565 E19.00971
G1 X113.9 Y107.504 E19.21231
G1 X113.9 Y106.415 E19.26664
G1 X112.105 Y106.415 E19.35619
G1 X111.911 Y106.892 E19.38188
G1 X111.586 Y107.333 E19.40921
G1 X111.128 Y107.699 E19.43846
G1 X110.595 Y107.931 E19.46747
G1 X110.006 Y108.011 E19.49712
G1 X109.477 Y107.952 E19.52368
G1 X109.002 Y107.773 E19.549
G1 X108.53 Y107.448 E19.57759
G1 X108.152 Y107.004 E19.60668
G1 X107.902 Y106.471 E19.63605
G1 X107.888 Y106.416 E19.63889
G1 X106.105 Y106.415 E19.72784
G1 X106.101 Y111.565 E19.98477
G1 X107.425 Y112.89 E20.07823
G0 F3600 X107.502 Y112.814
G0 X108.927 Y111.625
G0 X111.037 Y111.204
G1 F600 X111.466 Y111.485 E20.10381
G1 X111.679 Y111.678 E20.11815
G1 X112.072 Y112.216 E20.15139
G1 X112.252 Y112.661 E20.17534
G1 X112.878 Y112.021 E20.22
G1 X113.5 Y111.399 E20.26389
G1 X113.5 Y107.504 E20.45821
G1 X113.5 Y106.815 E20.49259
G1 X112.392 Y106.815 E20.54786
G1 X112.242 Y107.117 E20.56469
G1 X111.846 Y107.637 E20.5973
G1 X111.301 Y108.059 E20.63168
G1 X110.82 Y108.283 E20.65816
G1 X110.235 Y108.399 E20.68791
G1 X109.843 Y108.397 E20.70747
G1 X109.267 Y108.304 E20.73658
G1 X108.64 Y108.025 E20.77081
G1 X108.1 Y107.584 E20.8056
G1 X107.765 Y107.146 E20.83311
G1 X107.614 Y106.816 E20.85121
G1 X106.505 Y106.815 E20.90654
G1 X106.501 Y111.4 E21.13529
G1 X107.709 Y112.607 E21.22048
G1 X107.754 Y112.669 E21.22431
G1 X107.932 Y112.21 E21.24887
G1 X108.282 Y111.716 E21.27907
G1 X108.621 Y111.419 E21.30156
G1 X109.223 Y111.102 E21.3355
G1 X109.575 Y111.014 E21.3536
G1 X110.102 Y110.968 E21.38
G1 X110.509 Y111.026 E21.40051
G1 X111.037 Y111.204 E21.4283
G0 F3600 X108.706 Y108.495
;TYPE:SKIN
G1 F600 X108.075 Y108.081 E21.46596
G1 X107.546 Y107.495 E21.50534
G1 X107.377 Y107.197 E21.52243
G1 X106.886 Y107.196 E21.54693
G1 X106.882 Y111.241 E21.74874
G1 X107.624 Y111.985 E21.80116
G1 X107.993 Y111.469 E21.83281
G1 X108.367 Y111.135 E21.85782
G1 X108.751 Y110.898 E21.88034
G1 X109.262 Y110.685 E21.90796
G1 X109.832 Y110.596 E21.93674
G1 X110.342 Y110.608 E21.96219
G1 X110.849 Y110.739 E21.98831
