;FLAVOR:Marlin
;TIME:360
;Filament used: 0.265384m
;Layer height: 0.18
;MINX:-12.6
;MINY:-39.019
;MINZ:0.3
;MAXX:12.6
;MAXY:39.007
;MAXZ:2.46
;Generated with Cura_SteamEngine 4.13.0
M140 S50 T0
M105
M190 S50
M104 S220 T0
M105
M109 S220
M82 ;absolute extrusion mode
M651
G90
G28
M132 X Y Z A B
G1 Z50 F420
M7 T0
M6 T0
M907 X100 Y100 Z40 A100 B20
G92 E0
G92 E0
G1 F1500 E-6.5
;LAYER_COUNT:13
;LAYER:0
M107
G0 F1800 X6.622 Y-1.781 Z0.3
;TYPE:SKIRT
G1 F1500 E0
G1 F900 X7.007 Y0.916 E0.13592
G1 X7.468 Y3.601 E0.27183
G1 X8.003 Y6.269 E0.40759
G1 X8.61 Y8.911 E0.54283
G1 X9.304 Y11.572 E0.68003
G1 X10.072 Y14.211 E0.81715
G1 X10.899 Y16.784 E0.95199
G1 X11.812 Y19.365 E1.08858
G1 X12.276 Y20.592 E1.15402
G1 X12.462 Y21.208 E1.18612
G1 X12.568 Y21.836 E1.2179
G1 X12.595 Y22.349 E1.24353
G1 X12.6 Y22.739 E1.26299
G1 X12.599 Y25.819 E1.41665
G1 X12.586 Y26.734 E1.4623
G1 X12.546 Y27.466 E1.49888
G1 X12.483 Y28.06 E1.52868
G1 X12.403 Y28.575 E1.55468
G1 X12.284 Y29.177 E1.58529
G1 X12.104 Y29.883 E1.62164
G1 X11.899 Y30.532 E1.6556
G1 X11.652 Y31.186 E1.69048
G1 X11.381 Y31.802 E1.72405
G1 X11.013 Y32.519 E1.76426
G1 X10.705 Y33.045 E1.79467
G1 X10.404 Y33.51 E1.8223
G1 X10.051 Y34.001 E1.85247
G1 X9.684 Y34.466 E1.88203
G1 X9.176 Y35.038 E1.9202
G1 X8.685 Y35.534 E1.95501
G1 X8.14 Y36.02 E1.99145
G1 X7.723 Y36.363 E2.01838
G1 X7.257 Y36.706 E2.04725
G1 X6.708 Y37.073 E2.0802
G1 X6.144 Y37.408 E2.11292
G1 X5.507 Y37.739 E2.14874
G1 X4.834 Y38.044 E2.1856
G1 X4.209 Y38.284 E2.219
G1 X3.502 Y38.512 E2.25606
G1 X2.836 Y38.686 E2.29041
G1 X2.224 Y38.81 E2.32156
G1 X1.657 Y38.899 E2.35019
G1 X1.067 Y38.965 E2.37981
G1 X0.397 Y39.003 E2.41329
G1 X-.289 Y39.007 E2.44752
G1 X-1.036 Y38.966 E2.48484
G1 X-1.638 Y38.903 E2.51504
G1 X-2.139 Y38.825 E2.54034
G1 X-2.795 Y38.695 E2.5737
G1 X-3.464 Y38.523 E2.60816
G1 X-4.106 Y38.321 E2.64174
G1 X-4.83 Y38.046 E2.68038
G1 X-5.398 Y37.793 E2.7114
G1 X-6.072 Y37.447 E2.7492
G1 X-6.7 Y37.078 E2.78554
G1 X-7.208 Y36.742 E2.81592
G1 X-7.626 Y36.435 E2.8418
G1 X-8.051 Y36.099 E2.86883
G1 X-8.621 Y35.594 E2.90682
G1 X-9.13 Y35.087 E2.94266
G1 X-9.601 Y34.559 E2.97796
G1 X-9.94 Y34.147 E3.00458
G1 X-10.246 Y33.735 E3.03018
G1 X-10.608 Y33.199 E3.06245
G1 X-10.887 Y32.742 E3.08917
G1 X-11.133 Y32.298 E3.11449
G1 X-11.365 Y31.833 E3.14042
G1 X-11.607 Y31.297 E3.16976
G1 X-11.869 Y30.618 E3.20607
G1 X-12.097 Y29.907 E3.24332
G1 X-12.267 Y29.252 E3.27708
G1 X-12.4 Y28.592 E3.31067
G1 X-12.518 Y27.768 E3.3522
G1 X-12.565 Y27.214 E3.37994
G1 X-12.587 Y26.704 E3.4054
G1 X-12.6 Y25.732 E3.4539
G1 X-12.599 Y22.78 E3.60118
G1 X-12.584 Y21.789 E3.65062
G1 X-12.551 Y21.197 E3.6802
G1 X-12.503 Y20.699 E3.70516
G1 X-12.428 Y20.179 E3.73138
G1 X-12.338 Y19.687 E3.75633
G1 X-12.221 Y19.161 E3.78321
G1 X-12.089 Y18.675 E3.80834
G1 X-11.875 Y18.009 E3.84324
G1 X-10.983 Y15.432 E3.97929
G1 X-10.163 Y12.832 E4.1153
G1 X-9.414 Y10.198 E4.25192
G1 X-8.743 Y7.559 E4.38777
G1 X-8.142 Y4.885 E4.52451
G1 X-7.632 Y2.254 E4.65821
G1 X-7.183 Y-.464 E4.79565
G1 X-6.812 Y-3.176 E4.93221
G1 X-6.524 Y-5.852 E5.06649
G1 X-6.304 Y-8.611 E5.20457
G1 X-6.167 Y-11.304 E5.3391
G1 X-6.106 Y-14.031 E5.47519
G1 X-6.122 Y-16.761 E5.61139
G1 X-6.165 Y-18.338 E5.69009
G1 X-6.208 Y-19.564 E5.7513
G1 X-6.212 Y-19.943 E5.77021
G1 X-6.212 Y-34.799 E6.51138
G1 X-6.202 Y-35.464 E6.54456
G1 X-6.154 Y-35.998 E6.57131
G1 X-6.027 Y-36.519 E6.59806
G1 X-5.824 Y-37.016 E6.62484
G1 X-5.55 Y-37.477 E6.6516
G1 X-5.21 Y-37.892 E6.67836
G1 X-4.812 Y-38.251 E6.70511
G1 X-4.366 Y-38.548 E6.73184
G1 X-3.88 Y-38.776 E6.75862
G1 X-3.366 Y-38.928 E6.78536
G1 X-2.703 Y-39.009 E6.81869
G1 X-2.282 Y-39.019 E6.83969
G1 X1.733 Y-39.019 E7.04
G1 X2.431 Y-39.009 E7.07483
G1 X2.965 Y-38.961 E7.10158
G1 X3.486 Y-38.835 E7.12832
G1 X3.983 Y-38.632 E7.15511
G1 X4.444 Y-38.358 E7.18186
G1 X4.859 Y-38.019 E7.2086
G1 X5.219 Y-37.621 E7.23537
G1 X5.516 Y-37.175 E7.2621
G1 X5.744 Y-36.689 E7.28888
G1 X5.896 Y-36.175 E7.31563
G1 X5.978 Y-35.51 E7.34905
G1 X5.988 Y-35.089 E7.37006
G1 X5.988 Y-20.075 E8.11912
G1 X5.975 Y-19.268 E8.15938
G1 X5.928 Y-18.158 E8.21481
G1 X5.85 Y-15.367 E8.35411
G1 X5.85 Y-12.671 E8.48861
G1 X5.929 Y-9.905 E8.62666
G1 X6.082 Y-7.214 E8.76114
G1 X6.313 Y-4.495 E8.89728
G1 X6.622 Y-1.781 E9.03355
G0 F1800 X6.223 Y-1.746
G1 F900 X6.61 Y0.969 E9.17037
G1 X7.074 Y3.67 E9.3071
G1 X7.615 Y6.365 E9.44424
G1 X8.229 Y9.037 E9.58102
G1 X8.906 Y11.636 E9.71501
G1 X9.69 Y14.33 E9.85499
G1 X10.517 Y16.903 E9.98982
G1 X11.438 Y19.508 E10.12767
G1 X11.938 Y20.833 E10.19833
G1 X12.075 Y21.309 E10.22304
G1 X12.169 Y21.868 E10.25132
G1 X12.197 Y22.433 E10.27954
G1 X12.2 Y22.739 E10.29481
G1 X12.199 Y25.813 E10.44817
G1 X12.184 Y26.808 E10.49782
G1 X12.147 Y27.438 E10.5293
G1 X12.086 Y28.009 E10.55795
G1 X11.961 Y28.769 E10.59638
G1 X11.816 Y29.416 E10.62946
G1 X11.638 Y30.046 E10.66212
G1 X11.409 Y30.71 E10.69716
G1 X11.144 Y31.358 E10.73209
G1 X10.844 Y31.986 E10.76681
G1 X10.545 Y32.536 E10.79804
G1 X10.14 Y33.186 E10.83625
G1 X9.791 Y33.68 E10.86643
G1 X9.437 Y34.136 E10.89523
G1 X9.074 Y34.559 E10.92304
G1 X8.633 Y35.025 E10.95505
G1 X8.207 Y35.432 E10.98444
G1 X7.827 Y35.761 E11.00952
G1 X7.395 Y36.11 E11.03722
G1 X6.768 Y36.556 E11.07561
G1 X6.261 Y36.879 E11.1056
G1 X5.665 Y37.213 E11.13969
G1 X4.978 Y37.545 E11.17775
G1 X4.436 Y37.774 E11.20711
G1 X3.742 Y38.02 E11.24384
G1 X3.101 Y38.208 E11.27717
G1 X2.442 Y38.362 E11.31093
G1 X1.708 Y38.488 E11.34809
G1 X1.121 Y38.558 E11.37758
G1 X0.381 Y38.603 E11.41457
G1 X-.283 Y38.607 E11.4477
G1 X-1.007 Y38.567 E11.48387
G1 X-1.588 Y38.506 E11.51302
G1 X-2.38 Y38.374 E11.55308
G1 X-2.961 Y38.245 E11.58277
G1 X-3.644 Y38.052 E11.61818
G1 X-4.306 Y37.822 E11.65314
G1 X-4.908 Y37.578 E11.68555
G1 X-5.562 Y37.265 E11.72172
G1 X-6.156 Y36.94 E11.7555
G1 X-6.714 Y36.594 E11.78826
G1 X-7.31 Y36.172 E11.82469
G1 X-7.72 Y35.854 E11.85058
G1 X-8.14 Y35.492 E11.87824
G1 X-8.606 Y35.052 E11.91022
G1 X-9.012 Y34.627 E11.93954
G1 X-9.342 Y34.246 E11.96469
G1 X-9.689 Y33.817 E11.99221
G1 X-10.113 Y33.224 E12.02858
G1 X-10.494 Y32.621 E12.06417
G1 X-10.781 Y32.109 E12.09345
G1 X-11.126 Y31.397 E12.13292
G1 X-11.376 Y30.801 E12.16517
G1 X-11.596 Y30.176 E12.19823
G1 X-11.787 Y29.529 E12.23188
G1 X-11.943 Y28.861 E12.26611
G1 X-12.063 Y28.172 E12.301
G1 X-12.129 Y27.64 E12.32774
G1 X-12.171 Y27.094 E12.35506
G1 X-12.187 Y26.698 E12.37484
G1 X-12.2 Y25.732 E12.42303
G1 X-12.199 Y22.786 E12.57001
G1 X-12.187 Y21.9 E12.61422
G1 X-12.152 Y21.225 E12.64794
G1 X-12.085 Y20.583 E12.68014
G1 X-11.962 Y19.844 E12.71752
G1 X-11.832 Y19.255 E12.74761
G1 X-11.642 Y18.58 E12.78259
G1 X-11.483 Y18.097 E12.80796
G1 X-10.599 Y15.546 E12.94266
G1 X-9.783 Y12.956 E13.07814
G1 X-9.027 Y10.3 E13.21591
G1 X-8.357 Y7.666 E13.3515
G1 X-7.753 Y4.978 E13.48895
G1 X-7.232 Y2.289 E13.6256
G1 X-6.786 Y-.41 E13.76208
G1 X-6.42 Y-3.081 E13.89658
G1 X-6.123 Y-5.846 E14.03532
G1 X-5.907 Y-8.56 E14.17115
G1 X-5.767 Y-11.31 E14.30853
G1 X-5.706 Y-14.024 E14.44396
G1 X-5.722 Y-16.775 E14.58122
G1 X-5.765 Y-18.349 E14.65977
G1 X-5.808 Y-19.568 E14.72063
G1 X-5.812 Y-19.947 E14.73954
G1 X-5.812 Y-34.793 E15.4802
G1 X-5.802 Y-35.458 E15.51339
G1 X-5.754 Y-35.961 E15.53859
G1 X-5.628 Y-36.451 E15.56384
G1 X-5.426 Y-36.915 E15.58908
G1 X-5.154 Y-37.341 E15.6143
G1 X-4.818 Y-37.718 E15.63949
G1 X-4.427 Y-38.039 E15.66473
G1 X-3.99 Y-38.293 E15.68995
G1 X-3.519 Y-38.476 E15.71516
G1 X-3.024 Y-38.582 E15.74042
G1 X-2.372 Y-38.618 E15.77299
G1 X1.727 Y-38.619 E15.97749
G1 X2.425 Y-38.609 E16.01232
G1 X2.928 Y-38.562 E16.03752
G1 X3.418 Y-38.436 E16.06277
G1 X3.882 Y-38.234 E16.08801
G1 X4.308 Y-37.962 E16.11323
G1 X4.686 Y-37.627 E16.13843
G1 X5.006 Y-37.236 E16.16364
G1 X5.261 Y-36.799 E16.18888
G1 X5.444 Y-36.328 E16.21409
G1 X5.551 Y-35.834 E16.2393
G1 X5.587 Y-35.179 E16.27203
G1 X5.588 Y-20.081 E17.02527
G1 X5.578 Y-19.375 E17.0605
G1 X5.528 Y-18.17 E17.12067
G1 X5.45 Y-15.379 E17.25997
G1 X5.45 Y-12.66 E17.39562
G1 X5.529 Y-9.905 E17.53312
G1 X5.685 Y-7.158 E17.67039
G1 X5.915 Y-4.452 E17.80588
G1 X6.223 Y-1.746 E17.94176
G1 F1500 E11.44176
;MESH:?????????????????????5.stl
G0 F1800 X2.053 Y-1.746
G0 X0.768 Y-1.746
G0 X-.935 Y13.885
G1 F1500 E17.94176
G0 F1800 X-1.012 Y13.823
;TYPE:WALL-INNER
G1 F900 X-1.012 Y-18.668 E19.56274
G1 X-2.012 Y-19.667 E19.63326
G1 X-2.012 Y-34.819 E20.3892
G1 X1.788 Y-34.819 E20.57878
G1 X1.788 Y-19.667 E21.33471
G1 X0.788 Y-18.668 E21.40523
G1 X0.788 Y14.173 E23.04368
G1 X-.403 Y15.614 E23.13695
G1 X-1.001 Y15.666 E23.16689
G1 X-1.872 Y15.861 E23.21142
G1 X-2.706 Y16.17 E23.2558
G1 X-3.493 Y16.59 E23.3003
G1 X-4.216 Y17.111 E23.34476
G1 X-4.862 Y17.726 E23.38926
G1 X-5.418 Y18.421 E23.43367
G1 X-5.877 Y19.185 E23.47813
G1 X-6.228 Y20.004 E23.52259
G1 X-6.466 Y20.862 E23.56701
G1 X-6.585 Y21.738 E23.61111
G1 X-6.6 Y22.181 E23.63323
G1 X-6.599 Y26.468 E23.84711
G1 X-6.537 Y27.338 E23.89062
G1 X-6.345 Y28.239 E23.93658
G1 X-6.017 Y29.134 E23.98414
G1 X-5.579 Y29.944 E24.03008
G1 X-5.056 Y30.663 E24.07444
G1 X-4.417 Y31.325 E24.12034
G1 X-3.691 Y31.891 E24.16627
G1 X-2.894 Y32.352 E24.2122
G1 X-2.04 Y32.696 E24.25813
G1 X-1.147 Y32.92 E24.30407
G1 X-.23 Y33.016 E24.35006
G1 X0.69 Y32.984 E24.39599
G1 X1.598 Y32.824 E24.44199
G1 X2.473 Y32.54 E24.48789
G1 X3.301 Y32.135 E24.53387
G1 X4.064 Y31.621 E24.57977
G1 X4.77 Y30.981 E24.62731
G1 X5.34 Y30.299 E24.67165
G1 X5.829 Y29.518 E24.71763
G1 X6.203 Y28.677 E24.76355
G1 X6.457 Y27.791 E24.80953
G1 X6.584 Y26.886 E24.85512
G1 X6.6 Y26.43 E24.87789
G1 X6.601 Y22.281 E25.08488
G1 X6.682 Y22.026 E25.09823
G1 X6.876 Y21.884 E25.11022
G1 X7.035 Y21.859 E25.11825
G1 X7.969 Y21.86 E25.16485
G1 X8.113 Y21.884 E25.17213
G1 X8.285 Y21.99 E25.18221
G1 X8.396 Y22.218 E25.19487
G1 X8.4 Y22.276 E25.19777
G1 X8.399 Y26.451 E25.40606
G1 X8.347 Y27.353 E25.45113
G1 X8.189 Y28.288 E25.49844
G1 X7.93 Y29.187 E25.54512
G1 X7.569 Y30.061 E25.59229
G1 X7.118 Y30.88 E25.63894
G1 X6.567 Y31.655 E25.68638
G1 X6.263 Y32.016 E25.70993
G1 X5.592 Y32.687 E25.75727
G1 X5.244 Y32.98 E25.77997
G1 X4.473 Y33.528 E25.82716
G1 X3.64 Y33.989 E25.87466
G1 X2.769 Y34.349 E25.92168
G1 X2.332 Y34.488 E25.94455
G1 X1.403 Y34.7 E25.99209
G1 X0.938 Y34.766 E26.01552
G1 X0.00 Y34.819 E26.0624
G1 X-.938 Y34.766 E26.10927
G1 X-1.403 Y34.7 E26.1327
G1 X-2.332 Y34.488 E26.18024
G1 X-3.219 Y34.177 E26.22713
G1 X-3.64 Y33.989 E26.25014
G1 X-4.473 Y33.528 E26.29763
G1 X-5.244 Y32.98 E26.34483
G1 X-5.592 Y32.687 E26.36752
G1 X-6.263 Y32.016 E26.41486
G1 X-6.567 Y31.655 E26.43841
G1 X-7.118 Y30.88 E26.48585
G1 X-7.569 Y30.061 E26.5325
G1 X-7.93 Y29.187 E26.57967
G1 X-8.07 Y28.747 E26.60271
G1 X-8.283 Y27.816 E26.65036
G1 X-8.387 Y26.886 E26.69704
G1 X-8.4 Y26.419 E26.72035
G1 X-8.399 Y22.16 E26.93283
G1 X-8.348 Y21.263 E26.97766
G1 X-8.196 Y20.354 E27.02364
G1 X-7.934 Y19.433 E27.07141
G1 X-7.777 Y19.017 E27.09359
G1 X-7.574 Y18.56 E27.11854
G1 X-7.372 Y18.165 E27.14068
G1 X-7.114 Y17.726 E27.16608
G1 X-6.596 Y16.991 E27.21094
G1 X-6.3 Y16.636 E27.234
G1 X-5.64 Y15.966 E27.28092
G1 X-4.916 Y15.38 E27.32739
G1 X-4.125 Y14.874 E27.37424
G1 X-3.725 Y14.663 E27.3968
G1 X-3.263 Y14.453 E27.42212
G1 X-2.401 Y14.141 E27.46785
G1 X-1.967 Y14.025 E27.49027
G1 X-1.012 Y13.823 E27.53897
G0 F1800 X-1.412 Y13.499
;TYPE:WALL-OUTER
G1 F900 X-1.412 Y-18.502 E29.1355
G1 X-2.412 Y-19.501 E29.20602
G1 X-2.412 Y-35.219 E29.9902
G1 X2.188 Y-35.219 E30.21969
G1 X2.188 Y-19.501 E31.00387
G1 X1.188 Y-18.502 E31.07439
G1 X1.188 Y14.317 E32.71173
G1 X-.201 Y15.997 E32.82049
G1 X-.94 Y16.062 E32.8575
G1 X-1.758 Y16.245 E32.89932
G1 X-2.542 Y16.536 E32.94104
G1 X-3.281 Y16.93 E32.98282
G1 X-3.96 Y17.42 E33.02459
G1 X-4.567 Y17.997 E33.06638
G1 X-5.089 Y18.65 E33.10808
G1 X-5.52 Y19.368 E33.14986
G1 X-5.85 Y20.137 E33.19161
G1 X-6.073 Y20.943 E33.23333
G1 X-6.186 Y21.772 E33.27508
G1 X-6.2 Y22.188 E33.29584
G1 X-6.199 Y26.454 E33.50867
G1 X-6.14 Y27.282 E33.55009
G1 X-5.96 Y28.128 E33.59324
G1 X-5.651 Y28.969 E33.63794
G1 X-5.24 Y29.73 E33.68109
G1 X-4.749 Y30.405 E33.72273
G1 X-4.149 Y31.027 E33.76585
G1 X-3.467 Y31.559 E33.809
G1 X-2.718 Y31.992 E33.85216
G1 X-1.916 Y32.315 E33.8953
G1 X-1.077 Y32.525 E33.93845
G1 X-.216 Y32.615 E33.98164
G1 X0.648 Y32.585 E34.02477
G1 X1.501 Y32.435 E34.06798
G1 X2.323 Y32.168 E34.1111
G1 X3.1 Y31.788 E34.15425
G1 X3.817 Y31.305 E34.19738
G1 X4.481 Y30.703 E34.24209
G1 X5.016 Y30.063 E34.28371
G1 X5.475 Y29.33 E34.32686
G1 X5.826 Y28.54 E34.36999
G1 X6.065 Y27.708 E34.41317
G1 X6.185 Y26.851 E34.45635
G1 X6.2 Y26.423 E34.47771
G1 X6.201 Y22.248 E34.68601
G1 X6.243 Y22.004 E34.69836
G1 X6.357 Y21.784 E34.71072
G1 X6.533 Y21.612 E34.723
G1 X6.752 Y21.499 E34.73529
G1 X7.004 Y21.459 E34.74802
G1 X8.004 Y21.46 E34.79791
G1 X8.254 Y21.501 E34.81055
G1 X8.562 Y21.691 E34.82861
G1 X8.713 Y21.897 E34.84135
G1 X8.791 Y22.141 E34.85413
G1 X8.8 Y22.259 E34.86003
G1 X8.799 Y26.451 E35.06917
G1 X8.745 Y27.398 E35.11649
G1 X8.58 Y28.372 E35.16578
G1 X8.457 Y28.849 E35.19036
G1 X8.304 Y29.33 E35.21554
G1 X8.132 Y29.781 E35.23962
G1 X7.927 Y30.239 E35.26465
G1 X7.455 Y31.096 E35.31347
G1 X6.883 Y31.901 E35.36273
G1 X6.558 Y32.287 E35.38791
G1 X5.868 Y32.977 E35.43659
G1 X5.484 Y33.3 E35.46163
G1 X4.686 Y33.867 E35.51046
G1 X3.823 Y34.345 E35.55968
G1 X3.362 Y34.551 E35.58487
G1 X2.912 Y34.723 E35.60891
G1 X2.434 Y34.875 E35.63393
G1 X1.477 Y35.094 E35.68291
G1 X0.981 Y35.164 E35.7079
G1 X0.00 Y35.219 E35.75692
G1 X-.981 Y35.164 E35.80594
G1 X-1.477 Y35.094 E35.83093
G1 X-2.434 Y34.875 E35.87991
G1 X-2.912 Y34.723 E35.90493
G1 X-3.362 Y34.551 E35.92897
G1 X-3.823 Y34.345 E35.95416
G1 X-4.686 Y33.867 E36.00338
G1 X-5.484 Y33.3 E36.05222
G1 X-5.868 Y32.977 E36.07725
G1 X-6.558 Y32.287 E36.12593
G1 X-6.883 Y31.901 E36.15111
G1 X-7.455 Y31.096 E36.20038
G1 X-7.927 Y30.239 E36.24919
G1 X-8.132 Y29.781 E36.27422
G1 X-8.304 Y29.33 E36.2983
G1 X-8.457 Y28.849 E36.32349
G1 X-8.677 Y27.887 E36.37272
G1 X-8.786 Y26.917 E36.42142
G1 X-8.8 Y26.419 E36.44627
G1 X-8.799 Y22.16 E36.65876
G1 X-8.746 Y21.22 E36.70573
G1 X-8.584 Y20.255 E36.75454
G1 X-8.463 Y19.78 E36.779
G1 X-8.312 Y19.303 E36.80396
G1 X-8.143 Y18.855 E36.82785
G1 X-7.94 Y18.398 E36.8528
G1 X-7.717 Y17.962 E36.87723
G1 X-7.456 Y17.518 E36.90292
G1 X-6.914 Y16.748 E36.9499
G1 X-6.593 Y16.363 E36.97491
G1 X-5.915 Y15.675 E37.0231
G1 X-5.542 Y15.356 E37.04759
G1 X-5.145 Y15.052 E37.07253
G1 X-4.331 Y14.53 E37.12078
G1 X-3.898 Y14.302 E37.14519
G1 X-3.417 Y14.083 E37.17156
G1 X-2.522 Y13.76 E37.21903
G1 X-2.061 Y13.636 E37.24285
G1 X-1.412 Y13.499 E37.27594
G0 F1800 X-1.412 Y13.299
G0 X-.912 Y13.299
G0 X-.622 Y14.139
;TYPE:SKIN
G1 F900 X-.622 Y-18.83 E38.92077
G1 X-1.622 Y-19.827 E38.99122
G1 X-1.622 Y-34.429 E39.71972
G1 X1.398 Y-34.429 E39.87038
G1 X1.398 Y-19.827 E40.59888
G1 X0.398 Y-18.83 E40.66933
G1 X0.398 Y14.034 E42.30892
G1 X-.598 Y15.24 E42.38696
G1 X-1.061 Y15.28 E42.41014
G1 X-1.983 Y15.486 E42.45727
G1 X-2.866 Y15.813 E42.50425
G1 X-3.7 Y16.258 E42.55141
G1 X-4.466 Y16.81 E42.59852
G1 X-5.15 Y17.461 E42.64563
G1 X-5.739 Y18.198 E42.6927
G1 X-6.225 Y19.007 E42.73978
G1 X-6.597 Y19.875 E42.78689
G1 X-6.849 Y20.784 E42.83395
G1 X-6.975 Y21.705 E42.88033
G1 X-6.99 Y22.175 E42.90379
G1 X-6.989 Y26.482 E43.11867
G1 X-6.925 Y27.393 E43.16423
G1 X-6.721 Y28.348 E43.21295
G1 X-6.374 Y29.294 E43.26322
G1 X-5.91 Y30.152 E43.31189
G1 X-5.356 Y30.914 E43.35889
G1 X-4.678 Y31.616 E43.40758
G1 X-3.909 Y32.215 E43.45621
G1 X-3.066 Y32.703 E43.50481
G1 X-2.161 Y33.068 E43.55349
G1 X-1.215 Y33.305 E43.60214
G1 X-.244 Y33.406 E43.65085
G1 X0.731 Y33.372 E43.69952
G1 X1.692 Y33.204 E43.74819
G1 X2.619 Y32.903 E43.79682
G1 X3.496 Y32.474 E43.84553
G1 X4.305 Y31.929 E43.89419
G1 X5.052 Y31.252 E43.94449
G1 X5.656 Y30.529 E43.99149
G1 X6.174 Y29.701 E44.04022
G1 X6.57 Y28.811 E44.08882
G1 X6.839 Y27.873 E44.1375
G1 X6.974 Y26.92 E44.18552
G1 X6.99 Y26.437 E44.20963
G1 X6.991 Y22.344 E44.41383
G1 X7.028 Y22.256 E44.41859
G1 X7.07 Y22.249 E44.42072
G1 X7.939 Y22.25 E44.46407
G1 X8.01 Y22.317 E44.46894
G1 X8.009 Y26.428 E44.67404
G1 X7.957 Y27.32 E44.71862
G1 X7.811 Y28.191 E44.76268
G1 X7.562 Y29.056 E44.80759
