;FLAVOR:Marlin
;TIME:347
;Filament used: 0.263177m
;Layer height: 0.18
;MINX:74.781
;MINY:101.193
;MINZ:0.3
;MAXX:145.219
;MAXY:118.793
;MAXZ:2.46
;Generated with Cura_SteamEngine 5.0.0
M140 S80
M105
M190 S80
M104 S230
M105
M109 S230
M82 ;absolute extrusion mode
G28 ;Home
G1 Z15.0 F6000 ;Move the platform down 15mm
;Prime the extruder
G92 E0
G1 F200 E3
G92 E0
G92 E0
G92 E0
G1 F2700 E-5
;LAYER_COUNT:13
;LAYER:0
M107
;MESH:?????????????????????5.stl
G0 F3600 X78.956 Y105.863 Z0.3
;TYPE:WALL-OUTER
G1 F2700 E0
G1 F1200 X79.571 Y105.264 E0.06425
G1 X80.263 Y104.755 E0.12853
G1 X81.026 Y104.344 E0.19339
G1 X81.848 Y104.04 E0.25898
G1 X82.683 Y103.858 E0.32293
G1 X83.551 Y103.794 E0.38806
G1 X87.815 Y103.793 E0.70716
G1 X88.921 Y103.896 E0.79029
G1 X89.55 Y104.055 E0.83884
G1 X90.176 Y104.277 E0.88854
G1 X90.787 Y104.565 E0.93909
G1 X91.329 Y104.889 E0.98635
G1 X91.984 Y105.408 E1.04889
G1 X92.56 Y106.009 E1.11119
G1 X93.051 Y106.68 E1.17341
G1 X93.449 Y107.417 E1.23609
G1 X93.751 Y108.218 E1.30015
G1 X93.934 Y109.025 E1.36208
G1 X94.001 Y109.789 E1.41947
G1 X95.683 Y111.181 E1.58286
G1 X128.419 Y111.181 E4.03267
G1 X128.561 Y111.239 E4.04415
G1 X129.503 Y112.181 E4.14384
G1 X145.219 Y112.181 E5.31995
G1 X145.219 Y109.881 E5.49207
G1 X145.219 Y107.581 E5.6642
G1 X129.503 Y107.581 E6.84031
G1 X128.561 Y108.523 E6.94
G1 X128.419 Y108.581 E6.95148
G1 X96.663 Y108.581 E9.32795
G1 X96.535 Y108.536 E9.3381
G1 X96.467 Y108.423 E9.34797
G1 X96.276 Y107.605 E9.41084
G1 X95.935 Y106.627 E9.48835
G1 X95.716 Y106.136 E9.52858
G1 X95.238 Y105.279 E9.60201
G1 X94.944 Y104.848 E9.64106
G1 X94.608 Y104.413 E9.68219
G1 X94.04 Y103.783 E9.74567
G1 X93.659 Y103.42 E9.78505
G1 X93.244 Y103.077 E9.82534
G1 X92.485 Y102.54 E9.89492
G1 X92.02 Y102.272 E9.93509
G1 X91.183 Y101.868 E10.00464
G1 X90.26 Y101.544 E10.07784
G1 X89.306 Y101.323 E10.15113
G1 X88.332 Y101.21 E10.2245
G1 X87.808 Y101.194 E10.26374
G1 X83.516 Y101.195 E10.58493
G1 X82.657 Y101.243 E10.64931
G1 X81.688 Y101.402 E10.7228
G1 X81.2 Y101.522 E10.76041
G1 X80.711 Y101.675 E10.79875
G1 X80.214 Y101.863 E10.83852
G1 X79.728 Y102.082 E10.87841
G1 X79.003 Y102.481 E10.94034
G1 X78.52 Y102.797 E10.98353
G1 X78.095 Y103.114 E11.02321
G1 X77.694 Y103.456 E11.06265
G1 X77.112 Y104.032 E11.12393
G1 X76.725 Y104.478 E11.16812
G1 X76.405 Y104.9 E11.20775
G1 X76.112 Y105.343 E11.2475
G1 X75.72 Y106.045 E11.30767
G1 X75.475 Y106.573 E11.35123
G1 X75.254 Y107.192 E11.40041
G1 X75.012 Y108.004 E11.46382
G1 X74.906 Y108.519 E11.50317
G1 X74.835 Y109.044 E11.54282
G1 X74.792 Y109.628 E11.58664
G1 X74.793 Y110.447 E11.64793
G1 X74.837 Y110.973 E11.68743
G1 X75 Y111.941 E11.76089
G1 X75.125 Y112.428 E11.79852
G1 X75.287 Y112.931 E11.83806
G1 X75.471 Y113.406 E11.87618
G1 X75.862 Y114.215 E11.94342
G1 X76.13 Y114.672 E11.98307
G1 X76.426 Y115.112 E12.02276
G1 X76.731 Y115.514 E12.06052
G1 X77.334 Y116.189 E12.12825
G1 X77.717 Y116.554 E12.16785
G1 X78.12 Y116.891 E12.20716
G1 X78.525 Y117.194 E12.24501
G1 X79.293 Y117.675 E12.31283
G1 X79.763 Y117.921 E12.35253
G1 X80.263 Y118.139 E12.39335
G1 X81.148 Y118.448 E12.4635
G1 X81.657 Y118.576 E12.50277
G1 X82.545 Y118.728 E12.57019
G1 X83.065 Y118.763 E12.6092
G1 X83.587 Y118.792 E12.64832
G1 X87.724 Y118.793 E12.95791
G1 X87.981 Y118.752 E12.97739
G1 X88.289 Y118.558 E13.00463
G1 X88.442 Y118.352 E13.02383
G1 X88.529 Y118.052 E13.04721
G1 X88.54 Y117.494 E13.08897
G1 X88.523 Y116.945 E13.13008
G1 X88.498 Y116.751 E13.14472
G1 X88.39 Y116.531 E13.16306
G1 X88.217 Y116.354 E13.18158
G1 X87.983 Y116.232 E13.20133
G1 X87.241 Y116.194 E13.25693
G1 X83.573 Y116.193 E13.53142
G1 X82.893 Y116.142 E13.58246
G1 X82.337 Y116.069 E13.62442
G1 X81.507 Y115.836 E13.68894
G1 X80.699 Y115.482 E13.75495
G1 X79.966 Y115.03 E13.8194
G1 X79.297 Y114.476 E13.8844
G1 X78.706 Y113.825 E13.9502
G1 X78.233 Y113.133 E14.01293
G1 X77.845 Y112.34 E14.07899
G1 X77.572 Y111.522 E14.14353
G1 X77.418 Y110.668 E14.20847
G1 X77.385 Y109.793 E14.27399
G1 X77.47 Y108.949 E14.33747
G1 X77.673 Y108.12 E14.40135
G1 X77.882 Y107.585 E14.44433
G1 X78.157 Y107.018 E14.49149
G1 X78.424 Y106.553 E14.53162
G1 X78.956 Y105.863 E14.59682
G0 F3600 X79.099 Y105.724
G0 X78.654 Y105.298
G0 X79.976 Y104.288
G0 X81.241 Y103.664
G0 X82.607 Y103.314
G0 X83.536 Y103.245
G0 X88.232 Y103.258
G0 X89.577 Y103.48
G0 X90.851 Y103.969
G0 X92.002 Y104.704
G0 X92.981 Y105.658
G0 X96.063 Y109.122
G0 X96.663 Y108.981
;TYPE:WALL-INNER
G1 F1200 X96.365 Y108.903 E14.61987
G1 X96.133 Y108.663 E14.64485
G1 X95.989 Y108.099 E14.68841
G1 X95.853 Y107.583 E14.72835
G1 X95.546 Y106.728 E14.79633
G1 X94.984 Y105.646 E14.88757
G1 X94.654 Y105.129 E14.93347
G1 X94.34 Y104.715 E14.97236
G1 X93.75 Y104.058 E15.03844
G1 X93.374 Y103.702 E15.07719
G1 X92.657 Y103.152 E15.14481
G1 X92.234 Y102.857 E15.18341
G1 X91.666 Y102.545 E15.2319
G1 X91.029 Y102.238 E15.28482
G1 X90.148 Y101.929 E15.35469
G1 X89.238 Y101.718 E15.4246
G1 X88.302 Y101.61 E15.49511
G1 X87.808 Y101.594 E15.53209
G1 X83.527 Y101.595 E15.85246
G1 X82.689 Y101.642 E15.91527
G1 X81.754 Y101.796 E15.98619
G1 X81.256 Y101.921 E16.02461
G1 X80.39 Y102.224 E16.09327
G1 X79.912 Y102.437 E16.13243
G1 X79.206 Y102.826 E16.19276
G1 X78.743 Y103.129 E16.23417
G1 X78.326 Y103.443 E16.27323
G1 X77.66 Y104.037 E16.34001
G1 X77.301 Y104.415 E16.37903
G1 X76.747 Y105.112 E16.44566
G1 X76.457 Y105.546 E16.48472
G1 X76.075 Y106.229 E16.54328
G1 X75.841 Y106.736 E16.58507
G1 X75.632 Y107.324 E16.63177
G1 X75.4 Y108.104 E16.69267
G1 X75.297 Y108.614 E16.7316
G1 X75.197 Y109.496 E16.79803
G1 X75.182 Y110.017 E16.83704
G1 X75.222 Y110.785 E16.89459
G1 X75.385 Y111.822 E16.97315
G1 X75.509 Y112.318 E17.01141
G1 X75.767 Y113.065 E17.07055
G1 X76.001 Y113.61 E17.11493
G1 X76.24 Y114.074 E17.15399
G1 X76.716 Y114.83 E17.22085
G1 X77.029 Y115.245 E17.25975
G1 X77.626 Y115.914 E17.32685
G1 X78.003 Y116.272 E17.36576
G1 X78.578 Y116.735 E17.421
G1 X79.089 Y117.089 E17.46752
G1 X79.539 Y117.354 E17.5066
G1 X80.324 Y117.733 E17.57184
G1 X80.875 Y117.928 E17.61558
G1 X81.691 Y118.174 E17.67936
G1 X82.202 Y118.277 E17.71837
G1 X82.948 Y118.355 E17.7745
G1 X83.587 Y118.392 E17.8224
G1 X87.693 Y118.393 E18.12967
G1 X87.967 Y118.311 E18.15108
G1 X88.115 Y118.111 E18.1697
G1 X88.14 Y117.494 E18.21591
G1 X88.12 Y116.943 E18.25717
G1 X88.06 Y116.765 E18.27123
G1 X87.857 Y116.618 E18.28998
G1 X87.241 Y116.594 E18.33612
G1 X83.559 Y116.593 E18.61166
G1 X82.841 Y116.539 E18.66554
G1 X82.298 Y116.468 E18.70652
G1 X81.771 Y116.326 E18.74737
G1 X81.332 Y116.196 E18.78163
G1 X80.551 Y115.854 E18.84544
G1 X80.068 Y115.563 E18.88764
G1 X79.694 Y115.326 E18.92077
G1 X79.022 Y114.766 E18.98623
G1 X78.428 Y114.115 E19.05218
G1 X77.977 Y113.469 E19.11114
G1 X77.644 Y112.843 E19.1642
G1 X77.369 Y112.178 E19.21806
G1 X77.184 Y111.621 E19.26198
G1 X77.026 Y110.751 E19.32815
G1 X76.99 Y109.957 E19.38763
G1 X77.037 Y109.246 E19.44096
G1 X77.157 Y108.544 E19.49425
G1 X77.285 Y108.024 E19.53433
G1 X77.51 Y107.438 E19.5813
G1 X77.81 Y106.818 E19.63285
G1 X78.091 Y106.331 E19.67492
G1 X78.643 Y105.613 E19.7427
G1 X79.216 Y105.051 E19.80276
G1 X79.782 Y104.612 E19.85637
G1 X80.389 Y104.232 E19.90996
G1 X80.863 Y103.978 E19.9502
G1 X81.715 Y103.662 E20.01821
G1 X82.589 Y103.469 E20.08519
G1 X83.263 Y103.414 E20.1358
G1 X83.603 Y103.393 E20.16129
G1 X87.829 Y103.393 E20.47754
G1 X88.971 Y103.5 E20.56338
G1 X89.656 Y103.669 E20.61618
G1 X90.331 Y103.909 E20.66979
G1 X90.82 Y104.12 E20.70964
G1 X91.561 Y104.561 E20.77418
G1 X92.226 Y105.088 E20.83767
G1 X92.73 Y105.607 E20.89181
G1 X93.172 Y106.168 E20.94526
G1 X93.413 Y106.507 E20.97639
G1 X93.813 Y107.251 E21.0396
G1 X94.116 Y108.05 E21.10355
G1 X94.314 Y108.891 E21.16821
G1 X94.385 Y109.587 E21.22056
G1 X95.827 Y110.781 E21.36067
G1 X128.419 Y110.781 E23.7997
G1 X128.688 Y110.844 E23.82037
G1 X129.113 Y111.224 E23.86304
G1 X129.669 Y111.781 E23.92193
G1 X144.819 Y111.781 E25.05569
G1 X144.819 Y109.881 E25.19788
G1 X144.819 Y107.981 E25.34006
G1 X129.669 Y107.981 E26.47382
G1 X128.844 Y108.806 E26.56113
G1 X128.688 Y108.918 E26.5755
G1 X128.419 Y108.981 E26.59618
G1 X96.663 Y108.981 E28.97265
G0 F3600 X95.727 Y108.736
G1 F1200 X95.598 Y108.182 E29.01522
G1 X95.43 Y107.59 E29.06127
G1 X95.175 Y106.879 E29.11779
G1 X94.635 Y105.841 E29.20536
G1 X94.322 Y105.353 E29.24874
G1 X93.998 Y104.931 E29.28856
G1 X93.459 Y104.333 E29.3488
G1 X92.813 Y103.755 E29.41367
G1 X92.05 Y103.213 E29.48371
G1 X91.492 Y102.906 E29.53137
G1 X90.875 Y102.608 E29.58265
G1 X90.036 Y102.314 E29.64918
G1 X89.169 Y102.113 E29.71578
G1 X88.251 Y102.008 E29.78493
G1 X87.808 Y101.994 E29.8181
G1 X83.538 Y101.995 E30.13765
G1 X82.721 Y102.041 E30.19888
G1 X81.821 Y102.19 E30.26715
G1 X81.291 Y102.33 E30.30817
G1 X80.532 Y102.598 E30.36841
G1 X79.727 Y102.985 E30.43525
G1 X79.263 Y103.262 E30.47569
G1 X78.606 Y103.731 E30.5361
G1 X77.935 Y104.328 E30.60332
G1 X77.574 Y104.71 E30.64265
G1 X77.067 Y105.352 E30.70387
G1 X76.588 Y106.11 E30.77097
G1 X76.35 Y106.573 E30.80993
G1 X76.01 Y107.456 E30.88074
G1 X75.787 Y108.203 E30.93908
G1 X75.686 Y108.705 E30.9774
G1 X75.596 Y109.53 E31.0395
G1 X75.593 Y110.425 E31.10648
G1 X75.649 Y110.982 E31.14837
G1 X75.788 Y111.796 E31.21017
G1 X76.025 Y112.619 E31.27426
G1 X76.226 Y113.132 E31.3155
G1 X76.571 Y113.847 E31.37491
G1 X77.049 Y114.608 E31.44216
G1 X77.38 Y115.042 E31.483
G1 X77.917 Y115.639 E31.5431
G1 X78.582 Y116.237 E31.61002
G1 X79.014 Y116.558 E31.6503
G1 X79.7 Y116.987 E31.71085
G1 X80.487 Y117.368 E31.77628
G1 X81.38 Y117.681 E31.8471
G1 X81.873 Y117.805 E31.88514
G1 X82.655 Y117.936 E31.94448
G1 X83.499 Y117.986 E32.00775
G1 X83.587 Y117.992 E32.01435
G1 X87.668 Y117.992 E32.31975
G1 X87.73 Y117.98 E32.32448
G1 X87.74 Y117.141 E32.38727
G1 X87.724 Y117.002 E32.39774
G1 X87.241 Y116.994 E32.43389
G1 X83.544 Y116.993 E32.71056
G1 X82.789 Y116.936 E32.76722
G1 X82.246 Y116.864 E32.80821
G1 X81.663 Y116.711 E32.85332
G1 X81.171 Y116.563 E32.89176
G1 X80.39 Y116.22 E32.9556
G1 X79.858 Y115.904 E33.00191
G1 X79.438 Y115.634 E33.03927
G1 X78.795 Y115.1 E33.10182
G1 X78.37 Y114.645 E33.14841
G1 X78.046 Y114.277 E33.18511
G1 X77.58 Y113.597 E33.2468
G1 X77.285 Y113.019 E33.29536
G1 X77.083 Y112.586 E33.33112
G1 X76.796 Y111.721 E33.39932
G1 X76.631 Y110.817 E33.46809
G1 X76.59 Y109.973 E33.53132
G1 X76.639 Y109.206 E33.58884
G1 X76.696 Y108.743 E33.62375
G1 X76.896 Y107.929 E33.68648
G1 X77.138 Y107.291 E33.73754
G1 X77.307 Y106.892 E33.76997
G1 X77.723 Y106.167 E33.83252
G1 X78.125 Y105.63 E33.88272
G1 X78.403 Y105.285 E33.91588
G1 X79.002 Y104.7 E33.97853
G1 X79.546 Y104.29 E34.02951
G1 X79.9 Y104.041 E34.0619
G1 X80.633 Y103.646 E34.12421
G1 X81.284 Y103.395 E34.17643
G1 X81.685 Y103.256 E34.20819
G1 X82.55 Y103.069 E34.27442
G1 X83.234 Y103.014 E34.32577
G1 X83.603 Y102.992 E34.35343
G1 X87.843 Y102.993 E34.67073
G1 X88.31 Y103.012 E34.70571
G1 X89.101 Y103.114 E34.76539
G1 X89.763 Y103.283 E34.81652
G1 X90.487 Y103.54 E34.87402
G1 X90.949 Y103.734 E34.91152
G1 X91.518 Y104.069 E34.96093
G1 X91.835 Y104.268 E34.98894
G1 X92.535 Y104.825 E35.05588
G1 X93.129 Y105.446 E35.12019
G1 X93.495 Y105.933 E35.16578
G1 X93.766 Y106.317 E35.20096
G1 X94.178 Y107.085 E35.26618
G1 X94.49 Y107.908 E35.33204
G1 X94.612 Y108.397 E35.36976
G1 X94.726 Y108.914 E35.40938
G1 X94.769 Y109.385 E35.44477
G1 X95.971 Y110.381 E35.56159
G1 X128.419 Y110.381 E37.98985
G1 X128.867 Y110.486 E38.02428
G1 X129.127 Y110.673 E38.04825
G1 X129.834 Y111.381 E38.12313
G1 X144.419 Y111.381 E39.2146
G1 X144.419 Y109.881 E39.32685
G1 X144.419 Y108.381 E39.43911
G1 X129.834 Y108.381 E40.53058
G1 X129.127 Y109.089 E40.60546
G1 X128.867 Y109.276 E40.62942
G1 X128.419 Y109.381 E40.66386
G1 X96.663 Y109.381 E43.04033
G1 X96.339 Y109.328 E43.0649
G1 X96.025 Y109.152 E43.09183
G1 X95.727 Y108.736 E43.13013
G0 F3600 X92.349 Y105
G0 X91.253 Y104.188
G0 X90.012 Y103.614
G0 X88.684 Y103.301
G0 X87.821 Y103.244
G0 X83.077 Y103.262
G0 X81.686 Y103.515
G0 X80.382 Y104.051
G0 X79.217 Y104.846
G0 X78.242 Y105.866
G0 X77.499 Y107.066
G0 X77.025 Y108.394
G0 X76.836 Y109.792
G0 X76.94 Y111.199
G0 X77.337 Y112.553
G0 X78.005 Y113.795
G0 X78.918 Y114.872
G0 X80.035 Y115.735
G0 X81.307 Y116.346
G0 X82.416 Y116.616
G0 X87.241 Y117.493
G1 F802.7 X83.587 Y117.493 E43.53893
G1 F808.1 X83 Y117.462 E43.60426
G1 F801.3 X82.327 Y117.383 E43.6802
G1 F788.2 X81.526 Y117.197 E43.77389
G1 F800 X80.973 Y117.016 E43.83921
G1 X80.33 Y116.745 E43.91753
G1 F784.3 X79.592 Y116.335 E44.0142
G1 F792.1 X79.12 Y116.018 E44.07866
G1 F796 X78.586 Y115.581 E44.1565
G1 F785.6 X77.995 Y114.986 E44.25237
G1 F792.1 X77.635 Y114.559 E44.31569
G1 F798.7 X77.233 Y113.978 E44.39513
G1 F788.2 X76.83 Y113.242 E44.49073
G1 F789.5 X76.608 Y112.744 E44.55276
G1 F792.1 X76.379 Y112.069 E44.63357
G1 X76.261 Y111.493 E44.70023
G1 F801.3 X76.143 Y110.916 E44.76623
G1 F792.1 X76.1 Y110.411 E44.82369
G1 F789.5 X76.086 Y109.872 E44.88502
G1 F792.1 X76.136 Y109.156 E44.9664
G1 X76.211 Y108.624 E45.02731
G1 F794.7 X76.375 Y107.937 E45.10712
G1 F786.9 X76.668 Y107.105 E45.20779
G1 F792.1 X76.874 Y106.643 E45.26514
G1 F794.7 X77.235 Y106.005 E45.34798
G1 F785.6 X77.723 Y105.321 E45.44402
G1 F790.8 X78.054 Y104.927 E45.50246
G1 F796 X78.586 Y104.404 E45.58662
G1 F788.2 X79.247 Y103.882 E45.68259
G1 F792.1 X79.663 Y103.601 E45.7395
G1 F794.7 X80.327 Y103.24 E45.82491
G1 F785.6 X81.108 Y102.92 E45.92139
G1 F780.5 X81.905 Y102.69 E46.01683
G1 F797.3 X82.468 Y102.582 E46.0814
G1 F800 X83.197 Y102.51 E46.16363
G1 F793.4 X83.603 Y102.493 E46.20962
G1 F802.7 X87.822 Y102.494 E46.68164
G1 F808.1 X88.356 Y102.517 E46.74104
G1 F805.4 X89.084 Y102.607 E46.82283
G1 F794.7 X89.896 Y102.798 E46.91709
G1 F789.5 X90.682 Y103.075 E47.01189
G1 F805.4 X91.162 Y103.291 E47.07058
G1 F806.7 X91.776 Y103.636 E47.14898
G1 F786.9 X92.488 Y104.142 E47.24867
G1 F796 X92.876 Y104.464 E47.30555
G1 F800 X93.381 Y104.982 E47.38676
G1 F788.2 X93.903 Y105.635 E47.48201
G1 F798.7 X94.192 Y106.061 E47.53989
G1 F804 X94.553 Y106.723 E47.62411
G1 F798.7 X94.753 Y107.227 E47.68508
G1 F805.4 X94.954 Y107.732 E47.74568
G1 F797.3 X95.104 Y108.286 E47.81033
G1 F772.9 X95.245 Y108.919 E47.88567
G1 F721.8 X95.295 Y109.109 E47.91012
G1 F748.8 X95.712 Y109.531 E47.98126
G1 F758.3 X96.165 Y109.84 E48.0462
G1 F748.8 X96.663 Y109.881 E48.10613
G1 F800 X128.419 Y109.881 E51.67083
G0 F3600 X129.409 Y109.372
G1 F1200 X129.046 Y109.634 E51.70433
G1 F960 X128.419 Y109.881 E51.76737
G1 X129.046 Y110.128 E51.83041
G1 F1200 X129.409 Y110.39 E51.86391
G1 X130 Y110.981 E51.92646
G1 X144.019 Y110.981 E52.97558
G1 X144.019 Y109.881 E53.0579
G1 X144.019 Y108.781 E53.14021
G1 X130 Y108.781 E54.18933
G1 X129.409 Y109.372 E54.25188
G0 F3600 X129.348 Y109.881
;TYPE:SKIN
G1 F1200 X129.679 Y110.122 E54.28252
G1 X130.159 Y110.601 E54.33327
G1 X143.639 Y110.601 E55.34205
G1 X143.639 Y109.881 E55.39593
G1 X143.639 Y109.161 E55.44981
G1 X130.159 Y109.161 E56.45859
G1 X129.679 Y109.64 E56.50934
G1 X129.348 Y109.881 E56.53998
G0 F3600 X129.978 Y109.614
G1 F1200 X130.765 Y110.4 E56.62321
G0 F3600 X131.33 Y110.4
G1 F1200 X130.291 Y109.361 E56.73317
G0 F3600 X130.857 Y109.361
G1 F1200 X131.896 Y110.4 E56.84313
G0 F3600 X132.462 Y110.4
G1 F1200 X131.422 Y109.361 E56.95315
G0 F3600 X131.988 Y109.361
G1 F1200 X133.027 Y110.4 E57.06311
G0 F3600 X133.593 Y110.4
G1 F1200 X132.554 Y109.361 E57.17307
G0 F3600 X133.119 Y109.361
G1 F1200 X134.159 Y110.4 E57.28308
G0 F3600 X134.725 Y110.4
G1 F1200 X133.685 Y109.361 E57.3931
G0 F3600 X134.251 Y109.361
G1 F1200 X135.29 Y110.4 E57.50306
G0 F3600 X135.856 Y110.4
G1 F1200 X134.816 Y109.361 E57.61307
G0 F3600 X135.382 Y109.361
G1 F1200 X136.422 Y110.4 E57.72308
G0 F3600 X136.987 Y110.4
G1 F1200 X135.948 Y109.361 E57.83304
G0 F3600 X136.514 Y109.361
G1 F1200 X137.553 Y110.4 E57.94301
G0 F3600 X138.119 Y110.4
G1 F1200 X137.079 Y109.361 E58.05302
G0 F3600 X137.645 Y109.361
G1 F1200 X138.684 Y110.4 E58.16298
G0 F3600 X139.25 Y110.4
G1 F1200 X138.211 Y109.361 E58.27294
G0 F3600 X138.776 Y109.361
G1 F1200 X139.816 Y110.4 E58.38295
G0 F3600 X140.381 Y110.4
G1 F1200 X139.342 Y109.361 E58.49291
