;FLAVOR:Marlin
;TIME:349
;Filament used: 0.251325m
;Layer height: 0.2
;MINX:74.783
;MINY:101.189
;MINZ:0.3
;MAXX:145.219
;MAXY:118.789
;MAXZ:2.5
;Generated with Cura_SteamEngine 5.0.0
M140 S60 T0
M105
M190 S60
M104 S200 T0
M105
M109 S200
M82 ;absolute extrusion mode
G28 ;Home
G1 Z15.0 F6000 ;Move the platform down 15mm
;Prime the extruder
G92 E0
G1 F200 E3
G92 E0
G92 E0
G92 E0
G1 F2700 E-5
;LAYER_COUNT:12
;LAYER:0
M107
;MESH:?????????????????????5.stl
G0 X78.953 Y105.863 Z0.3
;TYPE:WALL-OUTER
G1 F2700 E0
G1 F900 X79.571 Y105.26 E0.04308
G1 X80.263 Y104.751 E0.08593
G1 X81.013 Y104.347 E0.12844
G1 X81.831 Y104.041 E0.17201
G1 X82.683 Y103.855 E0.21552
G1 X83.551 Y103.79 E0.25894
G1 X87.815 Y103.789 E0.47167
G1 X88.921 Y103.892 E0.52709
G1 X89.55 Y104.051 E0.55946
G1 X90.174 Y104.273 E0.5925
G1 X90.788 Y104.563 E0.62638
G1 X91.329 Y104.885 E0.65779
G1 X91.984 Y105.405 E0.69951
G1 X92.56 Y106.006 E0.74104
G1 X93.051 Y106.676 E0.78249
G1 X93.449 Y107.413 E0.82427
G1 X93.751 Y108.215 E0.86703
G1 X93.934 Y109.022 E0.90831
G1 X94.001 Y109.786 E0.94657
G1 X95.683 Y111.177 E1.05547
G1 X128.419 Y111.177 E2.68867
G1 X128.561 Y111.235 E2.69633
G1 X129.503 Y112.177 E2.76279
G1 X145.219 Y112.177 E3.54686
G1 X145.219 Y109.877 E3.66161
G1 X145.219 Y107.577 E3.77636
G1 X129.503 Y107.577 E4.56043
G1 X128.561 Y108.519 E4.6269
G1 X128.419 Y108.577 E4.63455
G1 X96.663 Y108.577 E6.21886
G1 X96.535 Y108.532 E6.22563
G1 X96.467 Y108.419 E6.23221
G1 X96.276 Y107.602 E6.27407
G1 X95.935 Y106.625 E6.3257
G1 X95.716 Y106.133 E6.35256
G1 X95.238 Y105.275 E6.40156
G1 X94.944 Y104.843 E6.42763
G1 X94.608 Y104.409 E6.45502
G1 X94.041 Y103.78 E6.49727
G1 X93.659 Y103.417 E6.52356
G1 X93.242 Y103.072 E6.55056
G1 X92.485 Y102.536 E6.59683
G1 X92.02 Y102.269 E6.62358
G1 X91.183 Y101.864 E6.66997
G1 X90.26 Y101.54 E6.71878
G1 X89.306 Y101.319 E6.76763
G1 X88.332 Y101.206 E6.81655
G1 X87.808 Y101.19 E6.84271
G1 X83.516 Y101.191 E7.05684
G1 X82.656 Y101.24 E7.09981
G1 X81.686 Y101.399 E7.14885
G1 X81.148 Y101.532 E7.1765
G1 X80.213 Y101.861 E7.22595
G1 X79.73 Y102.078 E7.25237
G1 X79.003 Y102.478 E7.29377
G1 X78.523 Y102.791 E7.32235
G1 X78.095 Y103.111 E7.34902
G1 X77.693 Y103.452 E7.37531
G1 X77.11 Y104.029 E7.41624
G1 X76.724 Y104.475 E7.44566
G1 X76.405 Y104.896 E7.47202
G1 X76.112 Y105.34 E7.49856
G1 X75.721 Y106.041 E7.5386
G1 X75.475 Y106.569 E7.56766
G1 X75.254 Y107.189 E7.6005
G1 X75.012 Y108.001 E7.64277
G1 X74.906 Y108.516 E7.66901
G1 X74.835 Y109.041 E7.69544
G1 X74.792 Y109.625 E7.72465
G1 X74.793 Y110.444 E7.76551
G1 X74.837 Y110.969 E7.7918
G1 X75 Y111.937 E7.84077
G1 X75.125 Y112.425 E7.8659
G1 X75.287 Y112.929 E7.89231
G1 X75.472 Y113.403 E7.9177
G1 X75.862 Y114.212 E7.9625
G1 X76.13 Y114.669 E7.98894
G1 X76.425 Y115.107 E8.01528
G1 X76.733 Y115.512 E8.04067
G1 X77.334 Y116.185 E8.08568
G1 X77.717 Y116.55 E8.11208
G1 X78.122 Y116.89 E8.13846
G1 X78.567 Y117.217 E8.16601
G1 X79.295 Y117.672 E8.20884
G1 X79.763 Y117.917 E8.23519
G1 X80.263 Y118.135 E8.26241
G1 X81.149 Y118.445 E8.30924
G1 X81.659 Y118.574 E8.33548
G1 X82.542 Y118.725 E8.38018
G1 X83.071 Y118.76 E8.40663
G1 X83.586 Y118.788 E8.43236
G1 X87.724 Y118.789 E8.6388
G1 X87.981 Y118.748 E8.65179
G1 X88.289 Y118.554 E8.66995
G1 X88.441 Y118.349 E8.68268
G1 X88.529 Y118.049 E8.69828
G1 X88.54 Y117.49 E8.72617
G1 X88.523 Y116.941 E8.75357
G1 X88.498 Y116.747 E8.76333
G1 X88.308 Y116.444 E8.78117
G1 X88.1 Y116.289 E8.79412
G1 X87.854 Y116.209 E8.80702
G1 X87.241 Y116.19 E8.83762
G1 X83.574 Y116.189 E9.02057
G1 X82.895 Y116.139 E9.05453
G1 X82.337 Y116.065 E9.08262
G1 X81.507 Y115.832 E9.12563
G1 X80.711 Y115.485 E9.16895
G1 X80.279 Y115.221 E9.19421
G1 X79.743 Y114.842 E9.22696
G1 X79.297 Y114.472 E9.25587
G1 X78.706 Y113.821 E9.29973
G1 X78.233 Y113.129 E9.34155
G1 X77.845 Y112.337 E9.38555
G1 X77.572 Y111.519 E9.42858
G1 X77.418 Y110.664 E9.47192
G1 X77.385 Y109.79 E9.51555
G1 X77.47 Y108.945 E9.55792
G1 X77.673 Y108.116 E9.6005
G1 X77.882 Y107.581 E9.62916
G1 X78.156 Y107.015 E9.66053
G1 X78.424 Y106.549 E9.68735
G1 X78.953 Y105.863 E9.73057
G0 F2700 X79.096 Y105.724
G0 X78.723 Y105.367
G0 X80.029 Y104.369
G0 X81.275 Y103.754
G0 X82.622 Y103.41
G0 X83.538 Y103.341
G0 X88.226 Y103.354
G0 X89.551 Y103.573
G0 X90.808 Y104.055
G0 X91.94 Y104.78
G0 X92.904 Y105.719
G0 X96.144 Y109.018
G0 X96.663 Y108.977
;TYPE:WALL-INNER
G1 F900 X96.365 Y108.899 E9.74594
G1 X96.133 Y108.66 E9.76256
G1 X95.989 Y108.095 E9.79165
G1 X95.854 Y107.58 E9.81821
G1 X95.546 Y106.726 E9.8635
G1 X94.985 Y105.642 E9.92439
G1 X94.654 Y105.125 E9.95502
G1 X94.341 Y104.713 E9.98083
G1 X93.75 Y104.055 E10.02496
G1 X93.374 Y103.7 E10.05076
G1 X92.659 Y103.149 E10.09579
G1 X92.234 Y102.853 E10.12163
G1 X91.665 Y102.542 E10.15398
G1 X91.029 Y102.234 E10.18924
G1 X90.148 Y101.925 E10.23582
G1 X89.238 Y101.714 E10.28242
G1 X88.302 Y101.606 E10.32943
G1 X87.808 Y101.59 E10.35409
G1 X83.527 Y101.591 E10.56767
G1 X82.689 Y101.639 E10.60954
G1 X81.752 Y101.793 E10.65692
G1 X81.264 Y101.915 E10.68201
G1 X80.361 Y102.233 E10.72978
G1 X79.544 Y102.625 E10.77499
G1 X79.096 Y102.89 E10.80095
G1 X78.366 Y103.408 E10.84561
G1 X77.967 Y103.744 E10.87163
G1 X77.4 Y104.304 E10.91139
G1 X77.03 Y104.733 E10.93966
G1 X76.717 Y105.148 E10.96559
G1 X76.243 Y105.905 E11.01015
G1 X76.003 Y106.369 E11.03621
G1 X75.632 Y107.321 E11.08719
G1 X75.4 Y108.101 E11.12779
G1 X75.297 Y108.611 E11.15374
G1 X75.197 Y109.493 E11.19803
G1 X75.182 Y110.013 E11.22398
G1 X75.222 Y110.781 E11.26235
G1 X75.386 Y111.818 E11.31473
G1 X75.509 Y112.315 E11.34027
G1 X75.767 Y113.063 E11.37975
G1 X76 Y113.606 E11.40923
G1 X76.241 Y114.073 E11.43545
G1 X76.716 Y114.827 E11.4799
G1 X77.03 Y115.243 E11.50591
G1 X77.626 Y115.91 E11.55053
G1 X78.003 Y116.268 E11.57647
G1 X78.579 Y116.732 E11.61337
G1 X79.089 Y117.085 E11.64432
G1 X79.539 Y117.349 E11.67035
G1 X80.325 Y117.73 E11.71392
G1 X80.875 Y117.925 E11.74304
G1 X81.69 Y118.171 E11.78551
G1 X82.2 Y118.273 E11.81146
G1 X82.947 Y118.352 E11.84893
G1 X83.586 Y118.388 E11.88086
G1 X87.693 Y118.389 E12.08576
G1 X87.967 Y118.307 E12.10003
G1 X88.115 Y118.107 E12.11244
G1 X88.14 Y117.49 E12.14325
G1 X88.12 Y116.939 E12.17076
G1 X88.06 Y116.762 E12.18008
G1 X87.857 Y116.614 E12.19262
G1 X87.241 Y116.59 E12.22337
G1 X83.56 Y116.589 E12.40702
G1 X82.843 Y116.536 E12.44289
G1 X82.259 Y116.457 E12.47229
G1 X81.771 Y116.323 E12.49754
G1 X81.332 Y116.193 E12.52038
G1 X80.515 Y115.834 E12.5649
G1 X80.069 Y115.561 E12.59099
G1 X79.487 Y115.15 E12.62654
G1 X79.051 Y114.788 E12.65481
G1 X78.665 Y114.371 E12.68316
G1 X78.216 Y113.813 E12.71889
G1 X77.91 Y113.367 E12.74587
G1 X77.645 Y112.839 E12.77535
G1 X77.369 Y112.175 E12.81122
G1 X77.184 Y111.618 E12.8405
G1 X77.026 Y110.747 E12.88467
G1 X76.99 Y109.953 E12.92432
G1 X77.037 Y109.243 E12.95982
G1 X77.157 Y108.541 E12.99535
G1 X77.285 Y108.021 E13.02207
G1 X77.51 Y107.434 E13.05343
G1 X77.809 Y106.815 E13.08773
G1 X78.091 Y106.327 E13.11585
G1 X78.642 Y105.611 E13.16092
G1 X79.215 Y105.048 E13.201
G1 X79.782 Y104.608 E13.2368
G1 X80.388 Y104.229 E13.27246
G1 X80.862 Y103.976 E13.29927
G1 X81.699 Y103.663 E13.34385
G1 X82.59 Y103.466 E13.38938
G1 X83.265 Y103.41 E13.42317
G1 X83.603 Y103.389 E13.44006
G1 X87.829 Y103.389 E13.6509
G1 X88.971 Y103.496 E13.70812
G1 X89.656 Y103.665 E13.74332
G1 X90.33 Y103.905 E13.77902
G1 X90.82 Y104.117 E13.80565
G1 X91.561 Y104.557 E13.84865
G1 X92.259 Y105.113 E13.89317
G1 X92.866 Y105.746 E13.93692
G1 X93.368 Y106.434 E13.97941
G1 X93.76 Y107.147 E14.02001
G1 X94.117 Y108.047 E14.06831
G1 X94.314 Y108.887 E14.11136
G1 X94.385 Y109.584 E14.14631
G1 X95.827 Y110.777 E14.23968
G1 X128.419 Y110.777 E15.8657
G1 X128.688 Y110.84 E15.87949
G1 X129.113 Y111.22 E15.90793
G1 X129.669 Y111.777 E15.94719
G1 X144.819 Y111.777 E16.70303
G1 X144.819 Y109.877 E16.79782
G1 X144.819 Y107.977 E16.89261
G1 X129.669 Y107.977 E17.64845
G1 X128.844 Y108.802 E17.70666
G1 X128.688 Y108.914 E17.71624
G1 X128.419 Y108.977 E17.73002
G1 X96.663 Y108.977 E19.31434
G0 F2700 X95.728 Y108.733
G1 F900 X95.598 Y108.178 E19.34277
G1 X95.43 Y107.587 E19.37343
G1 X95.175 Y106.876 E19.41111
G1 X94.635 Y105.837 E19.46953
G1 X94.322 Y105.349 E19.49845
G1 X93.998 Y104.927 E19.525
G1 X93.46 Y104.33 E19.56509
G1 X92.812 Y103.75 E19.60848
G1 X92.359 Y103.428 E19.63621
G1 X91.707 Y103.008 E19.6749
G1 X90.9 Y102.616 E19.71966
G1 X90.424 Y102.446 E19.74488
G1 X90.01 Y102.304 E19.76671
G1 X89.169 Y102.109 E19.80978
G1 X88.251 Y102.004 E19.85588
G1 X87.808 Y101.99 E19.87799
G1 X83.538 Y101.991 E20.09103
G1 X82.721 Y102.038 E20.13185
G1 X81.799 Y102.191 E20.17848
G1 X81.238 Y102.347 E20.20753
G1 X80.528 Y102.598 E20.2451
G1 X79.727 Y102.98 E20.28938
G1 X79.264 Y103.255 E20.31624
G1 X78.607 Y103.728 E20.35663
G1 X77.935 Y104.324 E20.40144
G1 X77.571 Y104.709 E20.42788
G1 X77.066 Y105.347 E20.46847
G1 X76.588 Y106.108 E20.51331
G1 X76.35 Y106.569 E20.53919
G1 X76.01 Y107.453 E20.58644
G1 X75.787 Y108.2 E20.62533
G1 X75.686 Y108.701 E20.65083
G1 X75.596 Y109.527 E20.69229
G1 X75.593 Y110.422 E20.73694
G1 X75.649 Y110.978 E20.76482
G1 X75.784 Y111.771 E20.80495
G1 X76.025 Y112.616 E20.84879
G1 X76.226 Y113.13 E20.87632
G1 X76.573 Y113.844 E20.91593
G1 X77.049 Y114.605 E20.96071
G1 X77.38 Y115.038 E20.9879
G1 X77.917 Y115.635 E21.02796
G1 X78.582 Y116.233 E21.07258
G1 X79.011 Y116.553 E21.09928
G1 X79.7 Y116.981 E21.13975
G1 X80.488 Y117.364 E21.18346
G1 X81.007 Y117.548 E21.21093
G1 X81.79 Y117.784 E21.25173
G1 X82.654 Y117.933 E21.29547
G1 X83.503 Y117.984 E21.33791
G1 X83.586 Y117.988 E21.34205
G1 X87.668 Y117.988 E21.5457
G1 X87.73 Y117.976 E21.54885
G1 X87.74 Y117.137 E21.59071
G1 X87.724 Y116.998 E21.5977
G1 X87.241 Y116.99 E21.6218
G1 X83.547 Y116.989 E21.80609
G1 X82.79 Y116.933 E21.84396
G1 X82.246 Y116.86 E21.87134
G1 X81.663 Y116.708 E21.9014
G1 X81.171 Y116.56 E21.92703
G1 X80.39 Y116.217 E21.96959
G1 X79.858 Y115.901 E22.00046
G1 X79.438 Y115.63 E22.0254
G1 X78.795 Y115.096 E22.0671
G1 X78.369 Y114.64 E22.09823
G1 X78.046 Y114.273 E22.12262
G1 X77.58 Y113.593 E22.16375
G1 X77.286 Y113.015 E22.1961
G1 X77.083 Y112.583 E22.21992
G1 X76.796 Y111.717 E22.26543
G1 X76.633 Y110.823 E22.31077
G1 X76.59 Y109.969 E22.35343
G1 X76.639 Y109.203 E22.39172
G1 X76.696 Y108.739 E22.41505
G1 X76.896 Y107.925 E22.45686
G1 X77.138 Y107.287 E22.49091
G1 X77.307 Y106.888 E22.51252
G1 X77.723 Y106.163 E22.55423
G1 X78.124 Y105.627 E22.58762
G1 X78.403 Y105.282 E22.60976
G1 X79.001 Y104.697 E22.6515
G1 X79.546 Y104.286 E22.68555
G1 X79.901 Y104.036 E22.70721
G1 X80.634 Y103.643 E22.74871
G1 X81.549 Y103.292 E22.7976
G1 X82.505 Y103.075 E22.84651
G1 X83.235 Y103.01 E22.88307
G1 X83.603 Y102.988 E22.90146
G1 X87.843 Y102.989 E23.113
G1 X88.31 Y103.008 E23.13632
G1 X89.101 Y103.11 E23.17611
G1 X89.763 Y103.279 E23.21019
G1 X90.485 Y103.536 E23.24843
G1 X90.95 Y103.732 E23.2736
G1 X91.52 Y104.066 E23.30656
G1 X91.835 Y104.265 E23.32515
G1 X92.479 Y104.775 E23.36614
G1 X93.018 Y105.326 E23.40459
G1 X93.496 Y105.929 E23.44298
G1 X93.766 Y106.313 E23.4664
G1 X94.178 Y107.081 E23.50988
G1 X94.491 Y107.905 E23.55386
G1 X94.612 Y108.393 E23.57894
G1 X94.726 Y108.91 E23.60535
G1 X94.769 Y109.382 E23.629
G1 X95.598 Y110.071 E23.68278
G1 X95.971 Y110.377 E23.70685
G1 X128.419 Y110.377 E25.32568
G1 X128.867 Y110.482 E25.34864
G1 X129.127 Y110.669 E25.36462
G1 X129.834 Y111.377 E25.41454
G1 X144.419 Y111.377 E26.14219
G1 X144.419 Y109.877 E26.21702
G1 X144.419 Y108.377 E26.29186
G1 X129.834 Y108.377 E27.0195
G1 X129.127 Y109.085 E27.06942
G1 X128.867 Y109.272 E27.0854
G1 X128.419 Y109.377 E27.10836
G1 X96.663 Y109.377 E28.69267
G1 X96.339 Y109.324 E28.70905
G1 X96.025 Y109.148 E28.72701
G1 X95.728 Y108.733 E28.75247
G0 F2700 X95.293 Y109.102
;TYPE:SKIN
G1 F517.2 X95.218 Y108.811 E28.77856
G1 F552.1 X95.104 Y108.283 E28.82248
G1 F560.7 X94.951 Y107.726 E28.86874
G1 F561.6 X94.75 Y107.227 E28.91174
G1 F552.1 X94.548 Y106.727 E28.9556
G1 F559.9 X94.201 Y106.073 E29.01497
G1 F561.6 X93.899 Y105.628 E29.05797
G1 F550.5 X93.373 Y104.977 E29.12624
G1 F549.6 X92.867 Y104.468 E29.18487
G1 F551.3 X92.482 Y104.134 E29.22639
G1 F563.4 X91.974 Y103.762 E29.27657
G1 F576 X91.185 Y103.3 E29.34784
G1 F566.9 X90.697 Y103.079 E29.39027
G1 F557.3 X89.912 Y102.8 E29.4574
G1 F560.7 X89.1 Y102.608 E29.52421
G1 F566.9 X88.337 Y102.511 E29.58513
G1 F567.8 X87.806 Y102.49 E29.62715
G1 F564.3 X85.702 Y102.49 E29.79457
G1 F563.4 X83.598 Y102.491 E29.96226
G1 F557.3 X83.198 Y102.507 E29.99452
G1 F561.6 X82.405 Y102.592 E30.05828
G1 F568.7 X81.363 Y102.834 E30.14274
G1 F563.4 X80.842 Y103.039 E30.18736
G1 F557.3 X80.32 Y103.245 E30.23257
G1 F556.4 X79.669 Y103.599 E30.29237
G1 X79.243 Y103.882 E30.33364
G1 X78.58 Y104.409 E30.40199
G1 F559.9 X78.055 Y104.922 E30.46086
G1 F555.6 X77.721 Y105.323 E30.50304
G1 F553 X77.231 Y106.011 E30.57162
G1 F559.9 X76.877 Y106.636 E30.62922
G1 F557.3 X76.674 Y107.091 E30.66937
G1 F563.4 X76.459 Y107.668 E30.71844
G1 F569.6 X76.279 Y108.336 E30.77298
G1 F558.1 X76.137 Y109.157 E30.84001
G1 F556.4 X76.087 Y109.869 E30.8976
G1 F553.8 X76.102 Y110.414 E30.94181
G1 F556.4 X76.145 Y110.915 E30.98238
G1 F561.6 X76.264 Y111.497 E31.02988
G1 F555.6 X76.384 Y112.079 E31.0779
G1 F558.1 X76.627 Y112.789 E31.13828
G1 F556.4 X76.834 Y113.244 E31.17861
G1 F561.6 X77.08 Y113.713 E31.22095
G1 F569.6 X77.48 Y114.328 E31.27878
G1 F559 X77.998 Y114.983 E31.34586
G1 F554.7 X78.593 Y115.582 E31.4142
G1 F559.9 X79.172 Y116.057 E31.47426
G1 F558.1 X79.598 Y116.332 E31.51506
G1 X80.19 Y116.674 E31.57006
G1 X80.684 Y116.897 E31.61366
G1 F553.8 X81.537 Y117.195 E31.68691
G1 F559.9 X82.194 Y117.354 E31.74112
G1 F568.7 X82.996 Y117.459 E31.80498
G1 F569.6 X83.525 Y117.486 E31.84674
G1 F566.9 X87.243 Y117.49 E32.14121
G0 F2700 X81.782 Y116.39
G0 X80.49 Y115.876
G0 X79.334 Y115.105
G0 X78.363 Y114.109
G0 X77.621 Y112.934
G0 X77.138 Y111.631
G0 X76.938 Y110.255
G0 X77.027 Y108.869
G0 X77.404 Y107.532
G0 X78.05 Y106.299
G0 X78.938 Y105.23
G0 X80.029 Y104.369
G0 X81.275 Y103.754
G0 X82.622 Y103.41
G0 X83.538 Y103.341
G0 X88.226 Y103.354
G0 X89.551 Y103.573
G0 X90.808 Y104.055
G0 X91.94 Y104.78
G0 X92.72 Y105.54
G0 X96.164 Y109.836
G1 F529.4 X96.668 Y109.877 E32.18409
G1 F562.5 X128.419 Y109.877 E34.71859
G0 F2700 X129.396 Y109.353
G1 F900 X128.992 Y109.628 E34.74298
G1 F724.3 X128.487 Y109.847 E34.7771
G1 F583.5 X128.419 Y109.877 E34.78282
G1 F692.3 X128.992 Y110.126 E34.82334
G1 F900 X129.396 Y110.401 E34.84772
G1 X129.993 Y110.997 E34.88981
G1 X144.039 Y110.997 E35.59056
G1 X144.039 Y109.877 E35.64644
G1 X144.039 Y108.757 E35.70232
G1 X129.993 Y108.757 E36.40308
G1 X129.396 Y109.353 E36.44516
G0 F2700 X143.838 Y109.331
G1 F900 X143.463 Y108.956 E36.47162
G0 F2700 X142.897 Y108.956
G1 F900 X143.838 Y109.897 E36.53801
G0 F2700 X143.838 Y110.462
G1 F900 X142.332 Y108.956 E36.64427
G0 F2700 X141.766 Y108.956
G1 F900 X143.606 Y110.796 E36.77409
G0 F2700 X143.04 Y110.796
G1 F900 X141.2 Y108.956 E36.90391
G0 F2700 X140.635 Y108.956
G1 F900 X142.474 Y110.796 E37.0337
G0 F2700 X141.909 Y110.796
G1 F900 X140.069 Y108.956 E37.16352
G0 F2700 X139.503 Y108.956
G1 F900 X141.343 Y110.796 E37.29334
G0 F2700 X140.777 Y110.796
G1 F900 X138.937 Y108.956 E37.42317
G0 F2700 X138.372 Y108.956
G1 F900 X140.212 Y110.796 E37.55299
G0 F2700 X139.646 Y110.796
G1 F900 X137.806 Y108.956 E37.68281
G0 F2700 X137.24 Y108.956
G1 F900 X139.08 Y110.796 E37.81263
G0 F2700 X138.515 Y110.796
G1 F900 X136.675 Y108.956 E37.94245
G0 F2700 X136.109 Y108.956
G1 F900 X137.949 Y110.796 E38.07228
G0 F2700 X137.383 Y110.796
G1 F900 X135.543 Y108.956 E38.2021
G0 F2700 X134.978 Y108.956
G1 F900 X136.818 Y110.796 E38.33192
G0 F2700 X136.252 Y110.796
G1 F900 X134.412 Y108.956 E38.46174
G0 F2700 X133.846 Y108.956
G1 F900 X135.686 Y110.796 E38.59156
G0 F2700 X135.121 Y110.796
G1 F900 X133.281 Y108.956 E38.72139
G0 F2700 X132.715 Y108.956
G1 F900 X134.555 Y110.796 E38.85121
G0 F2700 X133.989 Y110.796
G1 F900 X132.149 Y108.956 E38.98103
G0 F2700 X131.584 Y108.956
G1 F900 X133.423 Y110.796 E39.11082
G0 F2700 X132.858 Y110.796
G1 F900 X131.018 Y108.956 E39.24064
