;FLAVOR:Marlin
;TIME:331
;Filament used: 0.243514m
;Layer height: 0.18
;MINX:101.162
;MINY:74.755
;MINZ:0.3
;MAXX:118.762
;MAXY:145.192
;MAXZ:2.46
;Generated with Cura_SteamEngine 5.0.0
M140 S100
M105
M190 S100
M104 S230
M105
M109 S230
M82 ;absolute extrusion mode
G28 ;Home
G1 Z15.0 F6000 ;Move the platform down 15mm
;Prime the extruder
G92 E0
G1 F200 E3
G92 E0
G92 E0
G92 E0
G1 F2700 E-5
;LAYER_COUNT:13
;LAYER:0
M107
;MESH:?????????????????????5.stl
G0 F4500 X111.15 Y91.555 Z0.3
;TYPE:WALL-OUTER
G1 F2700 E0
G1 F1500 X111.208 Y91.413 E0.00765
G1 X112.15 Y90.471 E0.07412
G1 X112.15 Y74.755 E0.85819
G1 X107.55 Y74.755 E1.08769
G1 X107.55 Y90.471 E1.87176
G1 X108.492 Y91.413 E1.93822
G1 X108.55 Y91.555 E1.94588
G1 X108.55 Y123.311 E3.53019
G1 X108.481 Y123.464 E3.53856
G1 X107.985 Y123.593 E3.56413
G1 X107.473 Y123.725 E3.59051
G1 X106.548 Y124.058 E3.63956
G1 X106.058 Y124.284 E3.66648
G1 X105.248 Y124.737 E3.71278
G1 X104.814 Y125.032 E3.73896
G1 X104.382 Y125.366 E3.7662
G1 X103.753 Y125.933 E3.80845
G1 X103.392 Y126.313 E3.8346
G1 X102.781 Y127.08 E3.88353
G1 X102.263 Y127.909 E3.93229
G1 X101.837 Y128.791 E3.98116
G1 X101.513 Y129.714 E4.02996
G1 X101.292 Y130.668 E4.07882
G1 X101.179 Y131.642 E4.12774
G1 X101.163 Y132.166 E4.15389
G1 X101.164 Y136.46 E4.36812
G1 X101.213 Y137.318 E4.411
G1 X101.372 Y138.288 E4.46004
G1 X101.505 Y138.826 E4.48769
G1 X101.834 Y139.761 E4.53714
G1 X102.05 Y140.241 E4.5634
G1 X102.45 Y140.97 E4.60488
G1 X102.765 Y141.452 E4.63361
G1 X103.082 Y141.877 E4.66006
G1 X103.424 Y142.28 E4.68643
G1 X104.001 Y142.863 E4.72735
G1 X104.447 Y143.248 E4.75675
G1 X104.869 Y143.569 E4.7832
G1 X105.308 Y143.859 E4.80945
G1 X106.014 Y144.253 E4.84979
G1 X106.542 Y144.499 E4.87885
G1 X107.162 Y144.72 E4.91169
G1 X107.974 Y144.962 E4.95396
G1 X108.489 Y145.068 E4.98019
G1 X109.014 Y145.139 E5.00662
G1 X109.598 Y145.182 E5.03583
G1 X110.417 Y145.181 E5.07669
G1 X110.942 Y145.137 E5.10298
G1 X111.91 Y144.974 E5.15195
G1 X112.398 Y144.849 E5.17709
G1 X112.902 Y144.687 E5.2035
G1 X113.376 Y144.502 E5.22888
G1 X114.184 Y144.113 E5.27362
G1 X114.642 Y143.844 E5.30012
G1 X115.081 Y143.548 E5.32654
G1 X115.486 Y143.24 E5.35192
G1 X116.158 Y142.64 E5.39687
G1 X116.523 Y142.257 E5.42326
G1 X116.865 Y141.85 E5.44978
G1 X117.19 Y141.407 E5.4772
G1 X117.646 Y140.678 E5.52009
G1 X117.89 Y140.211 E5.54638
G1 X118.108 Y139.711 E5.57359
G1 X118.418 Y138.825 E5.62042
G1 X118.547 Y138.315 E5.64667
G1 X118.698 Y137.433 E5.69131
G1 X118.733 Y136.903 E5.71781
G1 X118.761 Y136.388 E5.74354
G1 X118.761 Y132.318 E5.9466
G1 X118.722 Y131.994 E5.96288
G1 X118.527 Y131.685 E5.98111
G1 X118.322 Y131.534 E5.99381
G1 X118.028 Y131.445 E6.00914
G1 X117.45 Y131.439 E6.03797
G1 X116.842 Y131.445 E6.06831
G1 X116.501 Y131.584 E6.08668
G1 X116.321 Y131.759 E6.0992
G1 X116.201 Y131.991 E6.11224
G1 X116.163 Y132.302 E6.12787
G1 X116.163 Y136.4 E6.33232
G1 X116.112 Y137.079 E6.36629
G1 X116.038 Y137.637 E6.39437
G1 X115.806 Y138.468 E6.43741
G1 X115.452 Y139.275 E6.48138
G1 X115.005 Y140.001 E6.52391
G1 X114.446 Y140.676 E6.56764
G1 X113.795 Y141.267 E6.6115
G1 X113.103 Y141.741 E6.65335
G1 X112.31 Y142.129 E6.6974
G1 X111.492 Y142.402 E6.74042
G1 X110.637 Y142.556 E6.78376
G1 X109.763 Y142.589 E6.8274
G1 X108.918 Y142.504 E6.86977
G1 X108.089 Y142.301 E6.91235
G1 X107.554 Y142.092 E6.941
G1 X106.989 Y141.818 E6.97233
G1 X106.522 Y141.549 E6.99922
G1 X105.847 Y141.03 E7.0417
G1 X105.241 Y140.412 E7.08488
G1 X104.904 Y139.956 E7.11317
G1 X104.554 Y139.397 E7.14607
G1 X104.314 Y138.948 E7.17147
G1 X104.014 Y138.143 E7.21433
G1 X103.828 Y137.291 E7.25784
G1 X103.763 Y136.425 E7.30117
G1 X103.762 Y132.159 E7.514
G1 X103.866 Y131.053 E7.56942
G1 X104.025 Y130.423 E7.60184
G1 X104.246 Y129.8 E7.63482
G1 X104.525 Y129.204 E7.66765
G1 X104.851 Y128.656 E7.69946
G1 X105.367 Y128.003 E7.74098
G1 X105.853 Y127.534 E7.77468
G1 X106.373 Y127.125 E7.80768
G1 X106.666 Y126.913 E7.82573
G1 X107.399 Y126.52 E7.86722
G1 X108.188 Y126.223 E7.90928
G1 X108.979 Y126.044 E7.94974
G1 X109.759 Y125.973 E7.98882
G1 X111.15 Y124.291 E8.09771
G1 X111.15 Y91.555 E9.73091
G0 F4500 X111.208 Y91.413
G0 X111.241 Y91.38
G0 X110.811 Y90.95
G0 X109.16 Y123.311
G0 X108.95 Y123.311
;TYPE:WALL-INNER
G1 F1500 X108.919 Y123.505 E9.74072
G1 X108.741 Y123.769 E9.7566
G1 X108.475 Y123.899 E9.77137
G1 X107.676 Y124.086 E9.81231
G1 X106.732 Y124.416 E9.8622
G1 X106.253 Y124.634 E9.88846
G1 X105.458 Y125.078 E9.93389
G1 X104.725 Y125.602 E9.97884
G1 X104.331 Y125.936 E10.00461
G1 X103.832 Y126.429 E10.03961
G1 X103.14 Y127.271 E10.09398
G1 X102.64 Y128.061 E10.14062
G1 X102.229 Y128.9 E10.18723
G1 X102.041 Y129.417 E10.21468
G1 X101.887 Y129.874 E10.23874
G1 X101.687 Y130.736 E10.28289
G1 X101.579 Y131.672 E10.32989
G1 X101.563 Y132.166 E10.35455
G1 X101.564 Y136.449 E10.56823
G1 X101.612 Y137.285 E10.61001
G1 X101.766 Y138.222 E10.65738
G1 X101.888 Y138.71 E10.68248
G1 X102.206 Y139.613 E10.73024
G1 X102.597 Y140.43 E10.77543
G1 X102.863 Y140.878 E10.80142
G1 X103.379 Y141.606 E10.84594
G1 X103.716 Y142.006 E10.87204
G1 X104.276 Y142.573 E10.9118
G1 X104.705 Y142.942 E10.94003
G1 X105.123 Y143.257 E10.96614
G1 X105.878 Y143.73 E11.01059
G1 X106.342 Y143.971 E11.03667
G1 X107.294 Y144.342 E11.08765
G1 X108.074 Y144.574 E11.12825
G1 X108.584 Y144.677 E11.1542
G1 X109.466 Y144.776 E11.19848
G1 X109.986 Y144.792 E11.22444
G1 X110.754 Y144.752 E11.26281
G1 X111.791 Y144.588 E11.31519
G1 X112.288 Y144.464 E11.34074
G1 X113.036 Y144.207 E11.3802
G1 X113.584 Y143.971 E11.40997
G1 X114.045 Y143.733 E11.43585
G1 X114.8 Y143.257 E11.48038
G1 X115.218 Y142.942 E11.50649
G1 X115.884 Y142.349 E11.55098
G1 X116.241 Y141.971 E11.57692
G1 X116.707 Y141.394 E11.61392
G1 X117.059 Y140.884 E11.64484
G1 X117.322 Y140.437 E11.67071
G1 X117.702 Y139.649 E11.71436
G1 X117.898 Y139.098 E11.74354
G1 X118.144 Y138.284 E11.78596
G1 X118.245 Y137.774 E11.8119
G1 X118.325 Y137.027 E11.84938
G1 X118.359 Y136.438 E11.87882
G1 X118.361 Y136.388 E11.88131
G1 X118.361 Y132.318 E12.08436
G1 X118.307 Y132.06 E12.09752
G1 X118.196 Y131.919 E12.10647
G1 X117.93 Y131.835 E12.12038
G1 X116.889 Y131.845 E12.17232
G1 X116.691 Y131.957 E12.18367
G1 X116.586 Y132.117 E12.19322
G1 X116.563 Y132.738 E12.22422
G1 X116.563 Y136.414 E12.40762
G1 X116.509 Y137.131 E12.44349
G1 X116.431 Y137.715 E12.47289
G1 X116.185 Y138.6 E12.51871
G1 X115.808 Y139.46 E12.56556
G1 X115.332 Y140.231 E12.61077
G1 X114.855 Y140.81 E12.64819
G1 X114.345 Y141.309 E12.68379
G1 X113.785 Y141.758 E12.7196
G1 X113.307 Y142.086 E12.74852
G1 X112.476 Y142.494 E12.79471
G1 X111.632 Y142.778 E12.83914
G1 X110.726 Y142.947 E12.88512
G1 X109.926 Y142.984 E12.92507
G1 X109.216 Y142.937 E12.96057
G1 X108.514 Y142.817 E12.9961
G1 X107.993 Y142.69 E13.02285
G1 X107.407 Y142.464 E13.05419
G1 X106.789 Y142.165 E13.08844
G1 X106.333 Y141.903 E13.11468
G1 X105.843 Y141.531 E13.14537
G1 X105.54 Y141.291 E13.16466
G1 X104.926 Y140.66 E13.20858
G1 X104.406 Y139.954 E13.25233
G1 X104.004 Y139.219 E13.29412
G1 X103.64 Y138.286 E13.34409
G1 X103.439 Y137.384 E13.39019
G1 X103.383 Y136.709 E13.42398
G1 X103.363 Y136.371 E13.44087
G1 X103.362 Y132.146 E13.65166
G1 X103.469 Y131.003 E13.70893
G1 X103.639 Y130.317 E13.74419
G1 X103.878 Y129.644 E13.77982
G1 X104.09 Y129.155 E13.80642
G1 X104.511 Y128.444 E13.84764
G1 X105.053 Y127.754 E13.89141
G1 X105.576 Y127.245 E13.92782
G1 X106.137 Y126.802 E13.96349
G1 X106.476 Y126.561 E13.98424
G1 X107.222 Y126.161 E14.02647
G1 X108.02 Y125.857 E14.06907
G1 X108.859 Y125.661 E14.11206
G1 X109.557 Y125.589 E14.14706
G1 X110.75 Y124.147 E14.24044
G1 X110.75 Y91.555 E15.86646
G1 X110.813 Y91.286 E15.88024
G1 X111.193 Y90.861 E15.90868
G1 X111.75 Y90.305 E15.94795
G1 X111.75 Y75.155 E16.70378
G1 X107.95 Y75.155 E16.89337
G1 X107.95 Y90.305 E17.6492
G1 X108.775 Y91.13 E17.70741
G1 X108.887 Y91.286 E17.71699
G1 X108.95 Y91.555 E17.73078
G1 X108.95 Y123.311 E19.31509
G0 F4500 X108.82 Y124.195
G1 F1500 X108.558 Y124.29 E19.32899
G1 X107.777 Y124.473 E19.36901
G1 X106.867 Y124.792 E19.41712
G1 X105.809 Y125.34 E19.47657
G1 X105.321 Y125.652 E19.50546
G1 X104.9 Y125.975 E19.53194
G1 X104.303 Y126.514 E19.57206
G1 X103.959 Y126.885 E19.59731
G1 X103.435 Y127.542 E19.63923
G1 X102.964 Y128.297 E19.68363
G1 X102.577 Y129.099 E19.72805
G1 X102.283 Y129.938 E19.77241
G1 X102.139 Y130.551 E19.80382
G1 X101.996 Y131.545 E19.85392
G1 X101.963 Y132.102 E19.88176
G1 X101.962 Y136.384 E20.09539
G1 X102.012 Y137.253 E20.13882
G1 X102.161 Y138.155 E20.18443
G1 X102.32 Y138.736 E20.21448
G1 X102.571 Y139.446 E20.25205
G1 X102.953 Y140.247 E20.29633
G1 X103.227 Y140.709 E20.32312
G1 X103.699 Y141.365 E20.36344
G1 X104.297 Y142.039 E20.4084
G1 X104.682 Y142.402 E20.43479
G1 X105.321 Y142.907 E20.47543
G1 X106.081 Y143.386 E20.52025
G1 X106.542 Y143.624 E20.54613
G1 X107.426 Y143.964 E20.59338
G1 X108.173 Y144.187 E20.63228
G1 X108.674 Y144.288 E20.65777
G1 X109.5 Y144.378 E20.69923
G1 X110.395 Y144.381 E20.74388
G1 X110.951 Y144.324 E20.77176
G1 X111.744 Y144.19 E20.81189
G1 X112.589 Y143.949 E20.85573
G1 X113.103 Y143.747 E20.88328
G1 X113.816 Y143.402 E20.9228
G1 X114.577 Y142.925 E20.9676
G1 X115.012 Y142.593 E20.99491
G1 X115.609 Y142.058 E21.0349
G1 X116.207 Y141.391 E21.07959
G1 X116.526 Y140.961 E21.1063
G1 X116.955 Y140.274 E21.14671
G1 X117.337 Y139.486 E21.1904
G1 X117.651 Y138.593 E21.23763
G1 X117.774 Y138.099 E21.26303
G1 X117.906 Y137.321 E21.30239
G1 X117.956 Y136.471 E21.34487
G1 X117.961 Y136.388 E21.34902
G1 X117.961 Y132.318 E21.55208
G1 X117.95 Y132.243 E21.55586
G1 X117.022 Y132.243 E21.60216
G1 X116.971 Y132.243 E21.6047
G1 X116.963 Y132.738 E21.6294
G1 X116.963 Y136.427 E21.81344
G1 X116.906 Y137.184 E21.85132
G1 X116.825 Y137.794 E21.88202
G1 X116.563 Y138.732 E21.93061
G1 X116.191 Y139.584 E21.97699
G1 X115.875 Y140.114 E22.00777
G1 X115.604 Y140.534 E22.03271
G1 X115.027 Y141.228 E22.07774
G1 X114.321 Y141.871 E22.12538
G1 X113.663 Y142.326 E22.16529
G1 X112.992 Y142.686 E22.20328
G1 X112.556 Y142.891 E22.22732
G1 X111.759 Y143.157 E22.26924
G1 X110.796 Y143.341 E22.31815
G1 X109.942 Y143.384 E22.36081
G1 X109.176 Y143.335 E22.3991
G1 X108.712 Y143.278 E22.42243
G1 X107.898 Y143.078 E22.46425
G1 X107.26 Y142.836 E22.49829
G1 X106.861 Y142.667 E22.51991
G1 X106.134 Y142.25 E22.56172
G1 X105.598 Y141.848 E22.59515
G1 X105.254 Y141.57 E22.61721
G1 X104.669 Y140.972 E22.65895
G1 X104.259 Y140.429 E22.69289
G1 X104.008 Y140.072 E22.71467
G1 X103.615 Y139.34 E22.75612
G1 X103.265 Y138.425 E22.80499
G1 X103.048 Y137.469 E22.8539
G1 X102.984 Y136.739 E22.89046
G1 X102.963 Y136.371 E22.90885
G1 X102.962 Y132.134 E23.12023
G1 X103.072 Y130.953 E23.17941
G1 X103.253 Y130.211 E23.21751
G1 X103.509 Y129.489 E23.25573
G1 X103.706 Y129.025 E23.28088
G1 X104.16 Y128.252 E23.3256
G1 X104.74 Y127.506 E23.37275
G1 X105.299 Y126.956 E23.41187
G1 X105.901 Y126.479 E23.45019
G1 X106.286 Y126.209 E23.47365
G1 X107.056 Y125.796 E23.51724
G1 X107.893 Y125.477 E23.56193
G1 X108.771 Y125.271 E23.60693
G1 X109.355 Y125.205 E23.63625
G1 X110.35 Y124.003 E23.71409
G1 X110.35 Y91.555 E25.33293
G1 X110.455 Y91.107 E25.35589
G1 X110.642 Y90.847 E25.37187
G1 X111.35 Y90.14 E25.42178
G1 X111.35 Y75.555 E26.14943
G1 X108.35 Y75.555 E26.2991
G1 X108.35 Y90.14 E27.02675
G1 X109.058 Y90.847 E27.07667
G1 X109.245 Y91.107 E27.09265
G1 X109.35 Y91.555 E27.1156
G1 X109.35 Y123.311 E28.69992
G1 X109.297 Y123.635 E28.7163
G1 X109.122 Y123.95 E28.73428
G1 X108.82 Y124.195 E28.75368
G0 F4500 X104.969 Y127.625
G0 X104.158 Y128.722
G0 X103.583 Y129.962
G0 X103.271 Y131.29
G0 X103.213 Y132.153
G0 X103.233 Y136.898
G0 X103.484 Y138.288
G0 X104.019 Y139.591
G0 X104.815 Y140.757
G0 X105.834 Y141.732
G0 X107.035 Y142.475
G0 X108.363 Y142.949
G0 X109.762 Y143.138
G0 X111.168 Y143.034
G0 X112.523 Y142.637
G0 X113.764 Y141.969
G0 X114.84 Y141.056
G0 X115.704 Y139.94
G0 X116.316 Y138.668
G0 X116.586 Y137.559
G0 X117.462 Y132.738
G1 F1003.3 X117.462 Y136.388 E29.02591
G1 F1006.7 X117.46 Y136.443 E29.03001
G1 F996.7 X117.406 Y137.25 E29.09074
G1 F988.5 X117.271 Y138.06 E29.1529
G1 F1008.4 X117.055 Y138.804 E29.2104
G1 F1003.3 X116.876 Y139.28 E29.24833
G1 F998.3 X116.605 Y139.873 E29.2972
G1 F995 X116.306 Y140.38 E29.34147
G1 F978.8 X115.821 Y141.065 E29.40564
G1 F995 X115.388 Y141.57 E29.45567
G1 X114.955 Y141.979 E29.50047
G1 F982 X114.297 Y142.505 E29.56467
G1 F991.7 X113.661 Y142.915 E29.62177
G1 F986.8 X113.215 Y143.142 E29.65972
G1 F975.6 X112.435 Y143.466 E29.7245
G1 F985.2 X111.641 Y143.699 E29.78736
G1 F1000 X110.884 Y143.831 E29.84486
G1 F991.7 X110.381 Y143.874 E29.88296
G1 F983.6 X109.542 Y143.877 E29.94679
G1 F995 X108.802 Y143.799 E30.00275
G1 F990.1 X108.298 Y143.697 E30.04162
G1 F998.3 X107.588 Y143.497 E30.09691
G1 F1008.4 X106.808 Y143.195 E30.15898
G1 F990.1 X106.338 Y142.95 E30.19905
G1 F983.6 X105.624 Y142.505 E30.26306
G1 F993.4 X105.054 Y142.06 E30.31753
G1 F988.5 X104.666 Y141.693 E30.35797
G1 F983.6 X104.101 Y141.063 E30.42235
G1 F995 X103.681 Y140.486 E30.47603
G1 F988.5 X103.403 Y140.015 E30.51743
G1 F982 X103.046 Y139.279 E30.57977
G1 F996.7 X102.789 Y138.572 E30.63625
G1 F991.7 X102.66 Y138.071 E30.67529
G1 F982 X102.514 Y137.212 E30.74169
G1 F993.4 X102.463 Y136.425 E30.80111
G1 F1000 X102.462 Y132.166 E31.11983
G1 X102.462 Y132.118 E31.12342
G1 F1005 X102.489 Y131.602 E31.1619
G1 F1015.2 X102.634 Y130.604 E31.23623
G1 F1018.7 X102.851 Y129.81 E31.2967
G1 F1000 X103.044 Y129.293 E31.338
G1 F986.8 X103.405 Y128.54 E31.40133
G1 F995 X103.844 Y127.831 E31.46404
G1 F1001.7 X104.349 Y127.196 E31.52466
G1 F993.4 X104.649 Y126.881 E31.55743
G1 X105.137 Y126.425 E31.60774
G1 F991.7 X105.603 Y126.071 E31.6519
G1 F996.7 X106.051 Y125.773 E31.6923
G1 F1008.4 X106.544 Y125.519 E31.73346
G1 F996.7 X107.037 Y125.265 E31.7751
G1 F1001.7 X107.725 Y125.011 E31.82989
G1 F996.7 X108.255 Y124.87 E31.87107
G1 F916 X109.078 Y124.679 E31.94009
G1 F939 X109.5 Y124.262 E31.98738
G1 F950.9 X109.809 Y123.809 E32.03053
G1 F936 X109.85 Y123.311 E32.07048
G1 F1000 X109.85 Y91.555 E34.44695
G0 F4500 X109.341 Y90.565
G1 F1500 X109.603 Y90.928 E34.46929
G1 F1200 X109.85 Y91.555 E34.51131
G1 X110.097 Y90.928 E34.55334
G1 F1500 X110.359 Y90.565 E34.57567
G1 X110.95 Y89.974 E34.61737
G1 X110.95 Y75.955 E35.31678
G1 X108.75 Y75.955 E35.42654
G1 X108.75 Y89.974 E36.12595
G1 X109.341 Y90.565 E36.16765
G0 F4500 X109.13 Y89.815
;TYPE:SKIN
G1 F1500 X109.609 Y90.295 E36.20148
G1 X109.85 Y90.626 E36.22191
G1 X110.091 Y90.295 E36.24234
G1 X110.57 Y89.815 E36.27617
G1 X110.57 Y77.055 E36.91277
G1 X110.57 Y76.335 E36.94869
G1 X109.13 Y76.335 E37.02053
G1 X109.13 Y89.815 E37.69305
G0 F4500 X109.95 Y90.151
G1 F1500 X109.329 Y89.53 E37.73686
G0 F4500 X109.329 Y88.964
G1 F1500 X110.233 Y89.869 E37.80068
G0 F4500 X110.369 Y89.439
G1 F1500 X109.329 Y88.398 E37.87409
G0 F4500 X109.329 Y87.833
G1 F1500 X110.369 Y88.873 E37.94747
G0 F4500 X110.369 Y88.307
G1 F1500 X109.329 Y87.267 E38.02085
G0 F4500 X109.329 Y86.701
G1 F1500 X110.369 Y87.742 E38.09426
G0 F4500 X110.369 Y87.176
G1 F1500 X109.329 Y86.136 E38.16764
G0 F4500 X109.329 Y85.57
G1 F1500 X110.369 Y86.61 E38.24102
G0 F4500 X110.369 Y86.044
G1 F1500 X109.329 Y85.004 E38.3144
G0 F4500 X109.329 Y84.439
G1 F1500 X110.369 Y85.479 E38.38777
G0 F4500 X110.369 Y84.913
G1 F1500 X109.329 Y83.873 E38.46115
G0 F4500 X109.329 Y83.307
G1 F1500 X110.369 Y84.347 E38.53453
G0 F4500 X110.369 Y83.782
G1 F1500 X109.329 Y82.742 E38.60791
G0 F4500 X109.329 Y82.176
G1 F1500 X110.369 Y83.216 E38.68128
G0 F4500 X110.369 Y82.65
G1 F1500 X109.329 Y81.61 E38.75466
G0 F4500 X109.329 Y81.045
G1 F1500 X110.369 Y82.085 E38.82804
G0 F4500 X110.369 Y81.519
G1 F1500 X109.329 Y80.479 E38.90142
G0 F4500 X109.329 Y79.913
G1 F1500 X110.369 Y80.953 E38.97479
G0 F4500 X110.369 Y80.388
G1 F1500 X109.329 Y79.347 E39.04821
G0 F4500 X109.329 Y78.782
G1 F1500 X110.369 Y79.822 E39.12158
G0 F4500 X110.369 Y79.256
G1 F1500 X109.329 Y78.216 E39.19496
G0 F4500 X109.329 Y77.65
G1 F1500 X110.369 Y78.691 E39.26838
G0 F4500 X110.369 Y78.125
G1 F1500 X109.329 Y77.085 E39.34175
