;FLAVOR:Marlin
;TIME:494
;Filament used: 0.260001m
;Layer height: 0.15
;MINX:97.4
;MINY:70.981
;MINZ:0.3
;MAXX:122.6
;MAXY:149.006
;MAXZ:2.55
;Generated with Cura_SteamEngine 5.0.0
M140 S60
M105
M190 S60
M104 S200
M105
M109 S200
M82 ;absolute extrusion mode
G28 ;Home
G1 Z15.0 F6000 ;Move the platform down 15mm
;Prime the extruder
G92 E0
G1 F200 E3
G92 E0
G92 E0
G92 E0
G1 F2700 E-5
;LAYER_COUNT:16
;LAYER:0
M106 S255
G0 F1800 X104.446 Y72.528 Z0.3
G0 X103.788 Y75.206
;TYPE:SKIRT
G1 F2700 E0
G1 F600 X103.797 Y74.541 E0.03318
G1 X103.845 Y74.007 E0.05993
G1 X103.971 Y73.486 E0.08667
G1 X104.173 Y72.989 E0.11344
G1 X104.446 Y72.528 E0.14017
G1 X104.785 Y72.112 E0.16694
G1 X105.182 Y71.752 E0.19368
G1 X105.629 Y71.454 E0.22048
G1 X106.114 Y71.226 E0.24722
G1 X106.628 Y71.073 E0.27397
G1 X107.296 Y70.991 E0.30755
G1 X107.718 Y70.981 E0.32861
G1 X111.733 Y70.981 E0.52892
G1 X112.431 Y70.991 E0.56374
G1 X112.965 Y71.039 E0.59049
G1 X113.486 Y71.165 E0.61723
G1 X113.983 Y71.368 E0.64402
G1 X114.444 Y71.642 E0.67077
G1 X114.859 Y71.981 E0.69751
G1 X115.219 Y72.379 E0.72428
G1 X115.516 Y72.825 E0.75101
G1 X115.744 Y73.311 E0.7778
G1 X115.896 Y73.825 E0.80454
G1 X115.978 Y74.49 E0.83797
G1 X115.988 Y74.911 E0.85898
G1 X115.988 Y89.926 E1.60808
G1 X115.975 Y90.723 E1.64785
G1 X115.928 Y91.834 E1.70332
G1 X115.85 Y94.625 E1.84262
G1 X115.85 Y97.321 E1.97712
G1 X115.929 Y100.087 E2.11518
G1 X116.082 Y102.778 E2.24965
G1 X116.313 Y105.497 E2.38579
G1 X116.622 Y108.211 E2.52207
G1 X117.008 Y110.914 E2.65829
G1 X117.466 Y113.589 E2.79369
G1 X118.009 Y116.296 E2.93143
G1 X118.599 Y118.863 E3.06284
G1 X119.305 Y121.574 E3.2026
G1 X120.068 Y124.194 E3.33874
G1 X120.902 Y126.788 E3.47468
G1 X121.809 Y129.356 E3.61056
G1 X122.309 Y130.684 E3.68135
G1 X122.505 Y131.453 E3.72094
G1 X122.593 Y132.273 E3.76209
G1 X122.6 Y132.768 E3.78679
G1 X122.598 Y135.836 E3.93985
G1 X122.577 Y136.953 E3.99559
G1 X122.518 Y137.761 E4.036
G1 X122.425 Y138.442 E4.07029
G1 X122.295 Y139.123 E4.10488
G1 X122.119 Y139.83 E4.14123
G1 X121.913 Y140.488 E4.17563
G1 X121.667 Y141.146 E4.21068
G1 X121.399 Y141.762 E4.24419
G1 X121.034 Y142.48 E4.28438
G1 X120.72 Y143.02 E4.31554
G1 X120.338 Y143.604 E4.35036
G1 X119.838 Y144.274 E4.39207
G1 X119.453 Y144.734 E4.42199
G1 X118.957 Y145.265 E4.45824
G1 X118.512 Y145.694 E4.48908
G1 X117.858 Y146.254 E4.53204
G1 X117.372 Y146.624 E4.56251
G1 X116.748 Y147.046 E4.60009
G1 X116.177 Y147.389 E4.63332
G1 X115.549 Y147.718 E4.66869
G1 X114.879 Y148.025 E4.70546
G1 X114.239 Y148.273 E4.73971
G1 X113.543 Y148.499 E4.77621
G1 X112.876 Y148.676 E4.81064
G1 X112.272 Y148.801 E4.84141
G1 X111.635 Y148.901 E4.87358
G1 X111.011 Y148.968 E4.90489
G1 X110.253 Y149.006 E4.94276
G1 X109.555 Y149.001 E4.97758
G1 X108.838 Y148.954 E5.01343
G1 X108.208 Y148.88 E5.04508
G1 X107.409 Y148.739 E5.08556
G1 X106.805 Y148.597 E5.11651
G1 X106.092 Y148.387 E5.15359
G1 X105.441 Y148.153 E5.18811
G1 X104.795 Y147.882 E5.22306
G1 X104.129 Y147.554 E5.2601
G1 X103.536 Y147.221 E5.29403
G1 X102.922 Y146.831 E5.33032
G1 X102.353 Y146.419 E5.36536
G1 X101.851 Y146.015 E5.39751
G1 X101.266 Y145.485 E5.43689
G1 X100.763 Y144.971 E5.47277
G1 X100.329 Y144.476 E5.50562
G1 X99.919 Y143.96 E5.5385
G1 X99.593 Y143.503 E5.5665
G1 X99.186 Y142.863 E5.60434
G1 X98.895 Y142.35 E5.63377
G1 X98.533 Y141.613 E5.67473
G1 X98.273 Y140.999 E5.708
G1 X98.042 Y140.354 E5.74218
G1 X97.843 Y139.689 E5.77681
G1 X97.677 Y138.994 E5.81246
G1 X97.549 Y138.275 E5.84889
G1 X97.46 Y137.525 E5.88657
G1 X97.42 Y136.915 E5.91707
G1 X97.4 Y135.74 E5.9757
G1 X97.401 Y132.883 E6.11824
G1 X97.425 Y131.632 E6.18066
G1 X97.465 Y131.04 E6.21026
G1 X97.546 Y130.35 E6.24493
G1 X97.677 Y129.619 E6.28198
G1 X97.83 Y128.971 E6.31519
G1 X98.027 Y128.304 E6.34989
G1 X98.317 Y127.445 E6.39512
G1 X98.88 Y125.846 E6.4797
G1 X99.698 Y123.29 E6.61359
G1 X100.465 Y120.642 E6.75113
G1 X101.149 Y118.004 E6.88709
G1 X101.763 Y115.32 E7.02446
G1 X102.289 Y112.688 E7.15836
G1 X102.747 Y109.999 E7.29445
G1 X103.132 Y107.266 E7.43215
G1 X103.435 Y104.582 E7.5669
G1 X103.664 Y101.859 E7.70323
G1 X103.814 Y99.167 E7.83774
G1 X103.889 Y96.403 E7.97569
G1 X103.887 Y93.688 E8.11114
G1 X103.835 Y91.65 E8.21285
G1 X103.792 Y90.393 E8.2756
G1 X103.788 Y75.206 E9.03328
G0 F1800 X104.188 Y75.212
G1 F600 X104.197 Y74.547 E9.06646
G1 X104.244 Y74.043 E9.09172
G1 X104.37 Y73.554 E9.11691
G1 X104.571 Y73.09 E9.14214
G1 X104.842 Y72.663 E9.16737
G1 X105.177 Y72.285 E9.19257
G1 X105.568 Y71.964 E9.21781
G1 X106.005 Y71.709 E9.24305
G1 X106.476 Y71.525 E9.26828
G1 X106.97 Y71.419 E9.29348
G1 X107.628 Y71.382 E9.32636
G1 X111.727 Y71.381 E9.53086
G1 X112.425 Y71.391 E9.56569
G1 X112.928 Y71.438 E9.5909
G1 X113.418 Y71.564 E9.61614
G1 X113.882 Y71.766 E9.64138
G1 X114.308 Y72.038 E9.6666
G1 X114.686 Y72.373 E9.6918
G1 X115.006 Y72.764 E9.71701
G1 X115.261 Y73.201 E9.74225
G1 X115.444 Y73.672 E9.76746
G1 X115.551 Y74.166 E9.79268
G1 X115.587 Y74.821 E9.8254
G1 X115.588 Y89.92 E10.5787
G1 X115.575 Y90.706 E10.61791
G1 X115.528 Y91.822 E10.67364
G1 X115.45 Y94.613 E10.81294
G1 X115.45 Y97.332 E10.94859
G1 X115.529 Y100.087 E11.08609
G1 X115.685 Y102.834 E11.22336
G1 X115.915 Y105.54 E11.35885
G1 X116.223 Y108.246 E11.49473
G1 X116.611 Y110.968 E11.6319
G1 X117.072 Y113.657 E11.76801
G1 X117.614 Y116.358 E11.90545
G1 X118.228 Y119.029 E12.04219
G1 X118.905 Y121.628 E12.17618
G1 X119.687 Y124.317 E12.31589
G1 X120.52 Y126.906 E12.45158
G1 X121.425 Y129.47 E12.58723
G1 X121.935 Y130.825 E12.65946
G1 X122.109 Y131.509 E12.69467
G1 X122.193 Y132.28 E12.73337
G1 X122.2 Y132.768 E12.75771
G1 X122.198 Y135.828 E12.91038
G1 X122.177 Y136.945 E12.96612
G1 X122.119 Y137.728 E13.00529
G1 X122.03 Y138.384 E13.03831
G1 X121.903 Y139.045 E13.07189
G1 X121.731 Y139.73 E13.10713
G1 X121.532 Y140.366 E13.14038
G1 X121.294 Y141.004 E13.17435
G1 X121.034 Y141.6 E13.20679
G1 X120.679 Y142.295 E13.24573
G1 X120.376 Y142.815 E13.27575
G1 X120.004 Y143.383 E13.30963
G1 X119.52 Y144.032 E13.35002
G1 X119.149 Y144.474 E13.37881
G1 X118.666 Y144.991 E13.41411
G1 X118.237 Y145.404 E13.44381
G1 X117.6 Y145.948 E13.48561
G1 X117.133 Y146.303 E13.51487
G1 X116.526 Y146.714 E13.55145
G1 X115.974 Y147.044 E13.58353
G1 X115.366 Y147.363 E13.61779
G1 X114.715 Y147.66 E13.65348
G1 X114.098 Y147.899 E13.6865
G1 X113.422 Y148.118 E13.72195
G1 X112.777 Y148.288 E13.75522
G1 X112.194 Y148.409 E13.78493
G1 X111.588 Y148.504 E13.81553
G1 X110.989 Y148.569 E13.84559
G1 X110.253 Y148.606 E13.88236
G1 X109.578 Y148.601 E13.91604
G1 X108.881 Y148.557 E13.95088
G1 X108.275 Y148.486 E13.98132
G1 X107.497 Y148.349 E14.02073
G1 X106.915 Y148.212 E14.05056
G1 X106.225 Y148.009 E14.08644
G1 X105.592 Y147.783 E14.11998
G1 X104.969 Y147.522 E14.15367
G1 X104.322 Y147.204 E14.18964
G1 X103.747 Y146.882 E14.22252
G1 X103.155 Y146.505 E14.25754
G1 X102.6 Y146.104 E14.2917
G1 X102.117 Y145.716 E14.32261
G1 X101.549 Y145.203 E14.36079
G1 X101.062 Y144.706 E14.3955
G1 X100.64 Y144.224 E14.42747
G1 X100.245 Y143.727 E14.45914
G1 X99.809 Y143.106 E14.49699
G1 X99.445 Y142.514 E14.53167
G1 X99.156 Y141.984 E14.56178
G1 X98.822 Y141.278 E14.60075
G1 X98.578 Y140.675 E14.6332
G1 X98.37 Y140.066 E14.66531
G1 X98.179 Y139.393 E14.70021
G1 X98.031 Y138.726 E14.7343
G1 X97.917 Y138.02 E14.76997
G1 X97.844 Y137.32 E14.80509
G1 X97.814 Y136.751 E14.83351
G1 X97.8 Y135.74 E14.88396
G1 X97.801 Y132.889 E15.0262
G1 X97.824 Y131.656 E15.08772
G1 X97.863 Y131.084 E15.11632
G1 X97.941 Y130.418 E15.14978
G1 X98.067 Y129.708 E15.18575
G1 X98.214 Y129.083 E15.21779
G1 X98.406 Y128.432 E15.25165
G1 X98.694 Y127.578 E15.29661
G1 X99.267 Y125.949 E15.38276
G1 X100.08 Y123.409 E15.51582
G1 X100.851 Y120.749 E15.65399
G1 X101.54 Y118.089 E15.79108
G1 X102.152 Y115.417 E15.92783
G1 X102.68 Y112.769 E16.06254
G1 X103.143 Y110.051 E16.2001
G1 X103.527 Y107.334 E16.337
G1 X103.833 Y104.62 E16.47326
G1 X104.063 Y101.881 E16.61039
G1 X104.214 Y99.165 E16.7461
G1 X104.289 Y96.414 E16.8834
G1 X104.287 Y93.678 E17.0199
G1 X104.235 Y91.64 E17.12161
G1 X104.192 Y90.393 E17.18386
G1 X104.188 Y75.212 E17.94124
G1 F2700 E12.94124
;MESH:?????????????????????5.stl
G0 F1800 X106.723 Y75.212
G0 X107.818 Y75.212
G0 X110.678 Y91.581
G1 F2700 E17.94124
G0 F1800 X111.188 Y91.581
;TYPE:WALL-OUTER
G1 F600 X111.246 Y91.439 E17.94889
G1 X112.188 Y90.497 E18.01536
G1 X112.188 Y74.781 E18.79943
G1 X107.588 Y74.781 E19.02892
G1 X107.588 Y90.497 E19.813
G1 X108.53 Y91.439 E19.87946
G1 X108.588 Y91.581 E19.88712
G1 X108.588 Y123.337 E21.47143
G1 X108.519 Y123.49 E21.4798
G1 X108.023 Y123.619 E21.50537
G1 X107.511 Y123.751 E21.53175
G1 X106.586 Y124.083 E21.58078
G1 X106.098 Y124.309 E21.60761
G1 X105.286 Y124.762 E21.654
G1 X104.854 Y125.056 E21.68007
G1 X104.422 Y125.391 E21.70734
G1 X103.791 Y125.959 E21.7497
G1 X103.43 Y126.339 E21.77585
G1 X102.819 Y127.106 E21.82477
G1 X102.301 Y127.935 E21.87354
G1 X101.875 Y128.817 E21.92241
G1 X101.551 Y129.74 E21.97121
G1 X101.33 Y130.694 E22.02007
G1 X101.217 Y131.668 E22.06899
G1 X101.201 Y132.192 E22.09514
G1 X101.202 Y136.486 E22.30937
G1 X101.251 Y137.344 E22.35225
G1 X101.41 Y138.314 E22.40128
G1 X101.534 Y138.817 E22.42713
G1 X101.693 Y139.323 E22.45359
G1 X101.883 Y139.816 E22.47995
G1 X102.282 Y140.643 E22.52576
G1 X102.548 Y141.098 E22.55206
G1 X102.845 Y141.538 E22.57854
G1 X103.22 Y142.022 E22.60909
G1 X103.753 Y142.615 E22.64887
G1 X104.136 Y142.98 E22.67526
G1 X104.539 Y143.317 E22.70147
G1 X105.034 Y143.68 E22.7321
G1 X105.712 Y144.101 E22.77191
G1 X106.182 Y144.347 E22.79838
G1 X106.682 Y144.565 E22.82559
G1 X107.566 Y144.874 E22.87231
G1 X108.075 Y145.002 E22.89849
G1 X108.601 Y145.105 E22.92524
G1 X109.469 Y145.201 E22.9688
G1 X109.999 Y145.218 E22.99526
G1 X110.529 Y145.202 E23.02171
G1 X111.032 Y145.154 E23.04692
G1 X111.948 Y145 E23.09326
G1 X112.436 Y144.875 E23.1184
G1 X112.94 Y144.713 E23.14481
G1 X113.414 Y144.528 E23.17019
G1 X114.221 Y144.139 E23.21489
G1 X114.679 Y143.87 E23.24139
G1 X115.12 Y143.574 E23.26788
G1 X115.521 Y143.268 E23.29305
G1 X116.196 Y142.666 E23.33817
G1 X116.561 Y142.283 E23.36457
G1 X116.901 Y141.878 E23.39095
G1 X117.229 Y141.432 E23.41857
G1 X117.684 Y140.704 E23.4614
G1 X117.928 Y140.237 E23.48769
G1 X118.146 Y139.737 E23.5149
G1 X118.455 Y138.852 E23.56167
G1 X118.583 Y138.343 E23.58785
G1 X118.735 Y137.455 E23.6328
G1 X118.77 Y136.935 E23.6588
G1 X118.799 Y136.413 E23.68488
G1 X118.799 Y132.344 E23.88789
G1 X118.76 Y132.02 E23.90417
G1 X118.565 Y131.711 E23.9224
G1 X118.361 Y131.56 E23.93506
G1 X118.112 Y131.479 E23.94812
G1 X117.488 Y131.465 E23.97926
G1 X116.88 Y131.471 E24.0096
G1 X116.539 Y131.61 E24.02797
G1 X116.359 Y131.785 E24.04049
G1 X116.239 Y132.017 E24.05353
G1 X116.201 Y132.328 E24.06916
G1 X116.2 Y136.427 E24.27366
G1 X116.149 Y137.107 E24.30768
G1 X116.076 Y137.663 E24.33565
G1 X115.844 Y138.493 E24.37865
G1 X115.49 Y139.301 E24.42266
G1 X115.038 Y140.033 E24.46558
G1 X114.484 Y140.702 E24.50892
G1 X113.84 Y141.287 E24.55232
G1 X113.141 Y141.767 E24.59463
G1 X112.348 Y142.155 E24.63867
G1 X111.53 Y142.428 E24.68169
G1 X110.675 Y142.582 E24.72504
G1 X109.801 Y142.615 E24.76867
G1 X108.956 Y142.53 E24.81104
G1 X108.127 Y142.327 E24.85362
G1 X107.592 Y142.118 E24.88228
G1 X107.027 Y141.844 E24.91361
G1 X106.56 Y141.575 E24.94049
G1 X106.123 Y141.24 E24.96796
G1 X105.639 Y140.808 E25.00033
G1 X105.269 Y140.427 E25.02683
G1 X104.757 Y139.729 E25.07001
G1 X104.351 Y138.974 E25.11278
G1 X104.047 Y138.152 E25.15651
G1 X103.865 Y137.317 E25.19914
G1 X103.801 Y136.451 E25.24247
G1 X103.8 Y132.185 E25.4553
G1 X103.903 Y131.079 E25.51072
G1 X104.063 Y130.45 E25.5431
G1 X104.284 Y129.825 E25.57617
G1 X104.562 Y129.23 E25.60893
G1 X104.889 Y128.682 E25.64077
G1 X105.405 Y128.029 E25.68229
G1 X105.892 Y127.559 E25.71606
G1 X106.411 Y127.15 E25.74903
G1 X106.704 Y126.939 E25.76704
G1 X107.425 Y126.552 E25.80786
G1 X108.203 Y126.256 E25.84939
G1 X108.986 Y126.076 E25.88948
G1 X109.797 Y125.999 E25.93012
G1 X111.188 Y124.317 E26.03901
G1 X111.188 Y91.581 E27.67222
G0 F1800 X111.246 Y91.439
G0 X111.279 Y91.406
G0 X110.92 Y91.046
G0 X109.098 Y123.337
G0 X108.988 Y123.337
;TYPE:WALL-INNER
G1 F600 X108.957 Y123.531 E27.68202
G1 X108.779 Y123.795 E27.69791
G1 X108.513 Y123.925 E27.71268
G1 X107.713 Y124.111 E27.75365
G1 X106.771 Y124.441 E27.80345
G1 X106.293 Y124.659 E27.82966
G1 X105.496 Y125.103 E27.87518
G1 X104.762 Y125.628 E27.9202
G1 X104.368 Y125.963 E27.946
G1 X103.869 Y126.455 E27.98096
G1 X103.178 Y127.297 E28.0353
G1 X102.678 Y128.087 E28.08195
G1 X102.267 Y128.926 E28.12856
G1 X102.079 Y129.443 E28.156
G1 X101.925 Y129.899 E28.18002
G1 X101.803 Y130.428 E28.2071
G1 X101.72 Y130.813 E28.22675
G1 X101.617 Y131.698 E28.2712
G1 X101.601 Y132.192 E28.29586
G1 X101.602 Y136.475 E28.50954
G1 X101.65 Y137.311 E28.55132
G1 X101.804 Y138.248 E28.59869
G1 X101.929 Y138.744 E28.62421
G1 X102.231 Y139.61 E28.66997
G1 X102.442 Y140.085 E28.6959
G1 X102.832 Y140.792 E28.73618
G1 X103.136 Y141.257 E28.7639
G1 X103.448 Y141.671 E28.78976
G1 X104.044 Y142.341 E28.8345
G1 X104.422 Y142.699 E28.86047
G1 X105.117 Y143.252 E28.90478
G1 X105.55 Y143.541 E28.93075
G1 X106.236 Y143.924 E28.96995
G1 X106.743 Y144.159 E28.99783
G1 X107.331 Y144.368 E29.02896
G1 X108.111 Y144.6 E29.06956
G1 X108.621 Y144.703 E29.09552
G1 X109.503 Y144.802 E29.1398
G1 X110.023 Y144.818 E29.16576
G1 X110.792 Y144.778 E29.20417
G1 X111.829 Y144.614 E29.25655
G1 X112.326 Y144.49 E29.28211
G1 X113.074 Y144.233 E29.32157
G1 X113.621 Y143.998 E29.35127
G1 X114.081 Y143.76 E29.37711
G1 X114.837 Y143.284 E29.42168
G1 X115.254 Y142.969 E29.44775
G1 X115.922 Y142.375 E29.49235
G1 X116.28 Y141.997 E29.51832
G1 X116.744 Y141.421 E29.55522
G1 X117.097 Y140.91 E29.58621
G1 X117.36 Y140.463 E29.61208
G1 X117.74 Y139.676 E29.65568
G1 X117.936 Y139.124 E29.68491
G1 X118.181 Y138.309 E29.72737
G1 X118.284 Y137.798 E29.75337
G1 X118.362 Y137.052 E29.79079
G1 X118.399 Y136.413 E29.82273
G1 X118.399 Y132.344 E30.02573
G1 X118.345 Y132.086 E30.03888
G1 X118.234 Y131.945 E30.04783
G1 X117.967 Y131.861 E30.0618
G1 X116.927 Y131.871 E30.11369
G1 X116.729 Y131.983 E30.12504
G1 X116.624 Y132.143 E30.13458
G1 X116.601 Y132.764 E30.16559
G1 X116.6 Y136.441 E30.34903
G1 X116.546 Y137.159 E30.38496
G1 X116.469 Y137.743 E30.41434
G1 X116.233 Y138.589 E30.45816
G1 X115.924 Y139.306 E30.49711
G1 X115.572 Y139.93 E30.53286
G1 X115.162 Y140.512 E30.56837
G1 X114.775 Y140.978 E30.5986
G1 X114.103 Y141.589 E30.64391
G1 X113.475 Y142.023 E30.68199
G1 X112.852 Y142.354 E30.71719
G1 X112.186 Y142.631 E30.75317
G1 X111.629 Y142.816 E30.78246
G1 X110.758 Y142.975 E30.82663
G1 X109.963 Y143.01 E30.86633
G1 X109.253 Y142.963 E30.90183
G1 X108.551 Y142.843 E30.93736
G1 X108.031 Y142.715 E30.96408
G1 X107.445 Y142.49 E30.99539
G1 X106.827 Y142.191 E31.02965
G1 X106.371 Y141.929 E31.05588
G1 X105.879 Y141.557 E31.08666
G1 X105.352 Y141.087 E31.12188
G1 X104.993 Y140.718 E31.14757
G1 X104.618 Y140.217 E31.17879
G1 X104.399 Y139.909 E31.19765
G1 X103.985 Y139.136 E31.24139
G1 X103.669 Y138.285 E31.28668
G1 X103.476 Y137.411 E31.33134
G1 X103.42 Y136.736 E31.36513
G1 X103.401 Y136.397 E31.38207
G1 X103.4 Y132.172 E31.59285
G1 X103.506 Y131.029 E31.65012
G1 X103.677 Y130.344 E31.68535
G1 X103.915 Y129.67 E31.72101
G1 X104.127 Y129.18 E31.74764
G1 X104.549 Y128.47 E31.78885
G1 X105.091 Y127.78 E31.83262
G1 X105.615 Y127.271 E31.86907
G1 X106.175 Y126.827 E31.90472
G1 X106.514 Y126.587 E31.92545
G1 X107.223 Y126.205 E31.96563
G1 X108.058 Y125.883 E32.01028
G1 X108.898 Y125.686 E32.05332
G1 X109.595 Y125.615 E32.08827
G1 X110.788 Y124.173 E32.18164
G1 X110.788 Y91.581 E33.80767
G1 X110.851 Y91.312 E33.82145
G1 X111.231 Y90.887 E33.84989
G1 X111.788 Y90.331 E33.88916
G1 X111.788 Y75.181 E34.64499
G1 X107.988 Y75.181 E34.83458
G1 X107.988 Y90.331 E35.59041
G1 X108.813 Y91.156 E35.64862
G1 X108.925 Y91.312 E35.6582
G1 X108.988 Y91.581 E35.67199
G1 X108.988 Y123.337 E37.2563
G0 F1800 X108.859 Y124.221
G1 F600 X108.596 Y124.316 E37.27025
G1 X107.813 Y124.498 E37.31035
G1 X106.906 Y124.817 E37.35832
