;FLAVOR:Marlin
;TIME:335
;Filament used: 0.247442m
;Layer height: 0.18
;MINX:-8.8
;MINY:-35.219
;MINZ:0.3
;MAXX:8.8
;MAXY:35.219
;MAXZ:2.46
;Generated with Cura_SteamEngine 4.13.0
M140 S50
M105
M190 S50
M104 S220
M105
M109 S220
M82 ;absolute extrusion mode
M651
G90
G28
M132 X Y Z A B
G1 Z50 F420
M7 T0
M6 T0
M907 X100 Y100 Z40 A100 B20
G92 E0
G92 E0
G1 F1500 E-6.5
;LAYER_COUNT:13
;LAYER:0
M107
;MESH:?????????????????????5.stl
G0 F1800 X-1.012 Y13.823 Z0.3
;TYPE:WALL-INNER
G1 F1500 E0
G1 F900 X-1.012 Y-18.668 E1.62098
G1 X-2.012 Y-19.667 E1.6915
G1 X-2.012 Y-34.819 E2.44744
G1 X1.788 Y-34.819 E2.63702
G1 X1.788 Y-19.667 E3.39296
G1 X0.788 Y-18.668 E3.46348
G1 X0.788 Y14.173 E5.10192
G1 X-.403 Y15.614 E5.19519
G1 X-1.001 Y15.666 E5.22514
G1 X-1.872 Y15.861 E5.26967
G1 X-2.706 Y16.17 E5.31404
G1 X-3.493 Y16.59 E5.35855
G1 X-4.216 Y17.111 E5.40301
G1 X-4.862 Y17.726 E5.4475
G1 X-5.418 Y18.421 E5.49191
G1 X-5.877 Y19.185 E5.53637
G1 X-6.228 Y20.004 E5.58083
G1 X-6.466 Y20.862 E5.62525
G1 X-6.585 Y21.738 E5.66936
G1 X-6.6 Y22.181 E5.69147
G1 X-6.599 Y26.468 E5.90535
G1 X-6.537 Y27.338 E5.94886
G1 X-6.345 Y28.239 E5.99482
G1 X-6.017 Y29.134 E6.04238
G1 X-5.579 Y29.944 E6.08832
G1 X-5.056 Y30.663 E6.13268
G1 X-4.417 Y31.325 E6.17858
G1 X-3.691 Y31.891 E6.22451
G1 X-2.894 Y32.352 E6.27044
G1 X-2.04 Y32.696 E6.31638
G1 X-1.147 Y32.92 E6.36231
G1 X-.23 Y33.016 E6.40831
G1 X0.69 Y32.984 E6.45424
G1 X1.598 Y32.824 E6.50023
G1 X2.473 Y32.54 E6.54613
G1 X3.301 Y32.135 E6.59212
G1 X4.064 Y31.621 E6.63801
G1 X4.77 Y30.981 E6.68555
G1 X5.34 Y30.299 E6.7299
G1 X5.829 Y29.518 E6.77587
G1 X6.203 Y28.677 E6.82179
G1 X6.457 Y27.791 E6.86777
G1 X6.584 Y26.886 E6.91337
G1 X6.6 Y26.43 E6.93613
G1 X6.601 Y22.281 E7.14312
G1 X6.682 Y22.026 E7.15647
G1 X6.876 Y21.884 E7.16847
G1 X7.035 Y21.859 E7.1765
G1 X7.969 Y21.86 E7.22309
G1 X8.113 Y21.884 E7.23038
G1 X8.285 Y21.99 E7.24046
G1 X8.396 Y22.218 E7.25311
G1 X8.4 Y22.276 E7.25601
G1 X8.399 Y26.451 E7.4643
G1 X8.347 Y27.353 E7.50938
G1 X8.189 Y28.288 E7.55669
G1 X7.93 Y29.187 E7.60336
G1 X7.569 Y30.061 E7.65054
G1 X7.118 Y30.88 E7.69718
G1 X6.567 Y31.655 E7.74462
G1 X6.263 Y32.016 E7.76817
G1 X5.592 Y32.687 E7.81551
G1 X5.244 Y32.98 E7.83821
G1 X4.473 Y33.528 E7.8854
G1 X3.64 Y33.989 E7.9329
G1 X2.769 Y34.349 E7.97992
G1 X2.332 Y34.488 E8.0028
G1 X1.403 Y34.7 E8.05034
G1 X0.938 Y34.766 E8.07377
G1 X0.00 Y34.819 E8.12064
G1 X-.938 Y34.766 E8.16751
G1 X-1.403 Y34.7 E8.19094
G1 X-2.332 Y34.488 E8.23848
G1 X-3.219 Y34.177 E8.28538
G1 X-3.64 Y33.989 E8.30838
G1 X-4.473 Y33.528 E8.35588
G1 X-5.244 Y32.98 E8.40307
G1 X-5.592 Y32.687 E8.42576
G1 X-6.263 Y32.016 E8.47311
G1 X-6.567 Y31.655 E8.49665
G1 X-7.118 Y30.88 E8.54409
G1 X-7.569 Y30.061 E8.59074
G1 X-7.93 Y29.187 E8.63792
G1 X-8.07 Y28.747 E8.66095
G1 X-8.283 Y27.816 E8.7086
G1 X-8.387 Y26.886 E8.75529
G1 X-8.4 Y26.419 E8.7786
G1 X-8.399 Y22.16 E8.99108
G1 X-8.348 Y21.263 E9.0359
G1 X-8.196 Y20.354 E9.08188
G1 X-7.934 Y19.433 E9.12965
G1 X-7.777 Y19.017 E9.15184
G1 X-7.574 Y18.56 E9.17678
G1 X-7.372 Y18.165 E9.19892
G1 X-7.114 Y17.726 E9.22432
G1 X-6.596 Y16.991 E9.26918
G1 X-6.3 Y16.636 E9.29224
G1 X-5.64 Y15.966 E9.33916
G1 X-4.916 Y15.38 E9.38563
G1 X-4.125 Y14.874 E9.43248
G1 X-3.725 Y14.663 E9.45504
G1 X-3.263 Y14.453 E9.48036
G1 X-2.401 Y14.141 E9.5261
G1 X-1.967 Y14.025 E9.54851
G1 X-1.012 Y13.823 E9.59721
G0 F1800 X-1.412 Y13.499
;TYPE:WALL-OUTER
G1 F900 X-1.412 Y-18.502 E11.19375
G1 X-2.412 Y-19.501 E11.26427
G1 X-2.412 Y-35.219 E12.04844
G1 X2.188 Y-35.219 E12.27793
G1 X2.188 Y-19.501 E13.06211
G1 X1.188 Y-18.502 E13.13263
G1 X1.188 Y14.317 E14.76998
G1 X-.201 Y15.997 E14.87873
G1 X-.94 Y16.062 E14.91574
G1 X-1.758 Y16.245 E14.95756
G1 X-2.542 Y16.536 E14.99928
G1 X-3.281 Y16.93 E15.04106
G1 X-3.96 Y17.42 E15.08284
G1 X-4.567 Y17.997 E15.12462
G1 X-5.089 Y18.65 E15.16633
G1 X-5.52 Y19.368 E15.20811
G1 X-5.85 Y20.137 E15.24986
G1 X-6.073 Y20.943 E15.29158
G1 X-6.186 Y21.772 E15.33332
G1 X-6.2 Y22.188 E15.35409
G1 X-6.199 Y26.454 E15.56692
G1 X-6.14 Y27.282 E15.60833
G1 X-5.96 Y28.128 E15.65148
G1 X-5.651 Y28.969 E15.69618
G1 X-5.24 Y29.73 E15.73933
G1 X-4.749 Y30.405 E15.78098
G1 X-4.149 Y31.027 E15.82409
G1 X-3.467 Y31.559 E15.86724
G1 X-2.718 Y31.992 E15.91041
G1 X-1.916 Y32.315 E15.95354
G1 X-1.077 Y32.525 E15.99669
G1 X-.216 Y32.615 E16.03988
G1 X0.648 Y32.585 E16.08301
G1 X1.501 Y32.435 E16.12622
G1 X2.323 Y32.168 E16.16934
G1 X3.1 Y31.788 E16.21249
G1 X3.817 Y31.305 E16.25562
G1 X4.481 Y30.703 E16.30034
G1 X5.016 Y30.063 E16.34195
G1 X5.475 Y29.33 E16.3851
G1 X5.826 Y28.54 E16.42823
G1 X6.065 Y27.708 E16.47142
G1 X6.185 Y26.851 E16.51459
G1 X6.2 Y26.423 E16.53596
G1 X6.201 Y22.248 E16.74425
G1 X6.243 Y22.004 E16.7566
G1 X6.357 Y21.784 E16.76896
G1 X6.533 Y21.612 E16.78124
G1 X6.752 Y21.499 E16.79353
G1 X7.004 Y21.459 E16.80626
G1 X8.004 Y21.46 E16.85615
G1 X8.254 Y21.501 E16.86879
G1 X8.562 Y21.691 E16.88685
G1 X8.713 Y21.897 E16.89959
G1 X8.791 Y22.141 E16.91237
G1 X8.8 Y22.259 E16.91828
G1 X8.799 Y26.451 E17.12742
G1 X8.745 Y27.398 E17.17474
G1 X8.58 Y28.372 E17.22402
G1 X8.457 Y28.849 E17.2486
G1 X8.304 Y29.33 E17.27378
G1 X8.132 Y29.781 E17.29786
G1 X7.927 Y30.239 E17.3229
G1 X7.455 Y31.096 E17.37171
G1 X6.883 Y31.901 E17.42098
G1 X6.558 Y32.287 E17.44615
G1 X5.868 Y32.977 E17.49483
G1 X5.484 Y33.3 E17.51987
G1 X4.686 Y33.867 E17.56871
G1 X3.823 Y34.345 E17.61793
G1 X3.362 Y34.551 E17.64312
G1 X2.912 Y34.723 E17.66715
G1 X2.434 Y34.875 E17.69218
G1 X1.477 Y35.094 E17.74115
G1 X0.981 Y35.164 E17.76615
G1 X0.00 Y35.219 E17.81516
G1 X-.981 Y35.164 E17.86418
G1 X-1.477 Y35.094 E17.88917
G1 X-2.434 Y34.875 E17.93815
G1 X-2.912 Y34.723 E17.96318
G1 X-3.362 Y34.551 E17.98721
G1 X-3.823 Y34.345 E18.0124
G1 X-4.686 Y33.867 E18.06162
G1 X-5.484 Y33.3 E18.11046
G1 X-5.868 Y32.977 E18.1355
G1 X-6.558 Y32.287 E18.18418
G1 X-6.883 Y31.901 E18.20935
G1 X-7.455 Y31.096 E18.25862
G1 X-7.927 Y30.239 E18.30743
G1 X-8.132 Y29.781 E18.33247
G1 X-8.304 Y29.33 E18.35655
G1 X-8.457 Y28.849 E18.38173
G1 X-8.677 Y27.887 E18.43096
G1 X-8.786 Y26.917 E18.47966
G1 X-8.8 Y26.419 E18.50452
G1 X-8.799 Y22.16 E18.717
G1 X-8.746 Y21.22 E18.76397
G1 X-8.584 Y20.255 E18.81279
G1 X-8.463 Y19.78 E18.83724
G1 X-8.312 Y19.303 E18.8622
G1 X-8.143 Y18.855 E18.88609
G1 X-7.94 Y18.398 E18.91104
G1 X-7.717 Y17.962 E18.93547
G1 X-7.456 Y17.518 E18.96117
G1 X-6.914 Y16.748 E19.00815
G1 X-6.593 Y16.363 E19.03315
G1 X-5.915 Y15.675 E19.08134
G1 X-5.542 Y15.356 E19.10583
G1 X-5.145 Y15.052 E19.13078
G1 X-4.331 Y14.53 E19.17902
G1 X-3.898 Y14.302 E19.20344
G1 X-3.417 Y14.083 E19.2298
G1 X-2.522 Y13.76 E19.27727
G1 X-2.061 Y13.636 E19.30109
G1 X-1.412 Y13.499 E19.33418
G0 F1800 X-1.412 Y13.299
G0 X-.912 Y13.299
G0 X-.622 Y14.139
;TYPE:SKIN
G1 F900 X-.622 Y-18.83 E20.97901
G1 X-1.622 Y-19.827 E21.04946
G1 X-1.622 Y-34.429 E21.77796
G1 X1.398 Y-34.429 E21.92863
G1 X1.398 Y-19.827 E22.65712
G1 X0.398 Y-18.83 E22.72757
G1 X0.398 Y14.034 E24.36717
G1 X-.598 Y15.24 E24.4452
G1 X-1.061 Y15.28 E24.46838
G1 X-1.983 Y15.486 E24.51552
G1 X-2.866 Y15.813 E24.56249
G1 X-3.7 Y16.258 E24.60965
G1 X-4.466 Y16.81 E24.65676
G1 X-5.15 Y17.461 E24.70387
G1 X-5.739 Y18.198 E24.75094
G1 X-6.225 Y19.007 E24.79802
G1 X-6.597 Y19.875 E24.84514
G1 X-6.849 Y20.784 E24.8922
G1 X-6.975 Y21.705 E24.93857
G1 X-6.99 Y22.175 E24.96203
G1 X-6.989 Y26.482 E25.17691
G1 X-6.925 Y27.393 E25.22247
G1 X-6.721 Y28.348 E25.27119
G1 X-6.374 Y29.294 E25.32146
G1 X-5.91 Y30.152 E25.37013
G1 X-5.356 Y30.914 E25.41713
G1 X-4.678 Y31.616 E25.46582
G1 X-3.909 Y32.215 E25.51445
G1 X-3.066 Y32.703 E25.56305
G1 X-2.161 Y33.068 E25.61173
G1 X-1.215 Y33.305 E25.66039
G1 X-.244 Y33.406 E25.70909
G1 X0.731 Y33.372 E25.75777
G1 X1.692 Y33.204 E25.80644
G1 X2.619 Y32.903 E25.85506
G1 X3.496 Y32.474 E25.90377
G1 X4.305 Y31.929 E25.95244
G1 X5.052 Y31.252 E26.00273
G1 X5.656 Y30.529 E26.04973
G1 X6.174 Y29.701 E26.09846
G1 X6.57 Y28.811 E26.14706
G1 X6.839 Y27.873 E26.19574
G1 X6.974 Y26.92 E26.24376
G1 X6.99 Y26.437 E26.26787
G1 X6.991 Y22.344 E26.47207
G1 X7.028 Y22.256 E26.47684
G1 X7.07 Y22.249 E26.47896
G1 X7.939 Y22.25 E26.52231
G1 X8.01 Y22.317 E26.52719
G1 X8.009 Y26.428 E26.73228
G1 X7.957 Y27.32 E26.77686
G1 X7.811 Y28.191 E26.82092
G1 X7.562 Y29.056 E26.86583
G1 X7.212 Y29.902 E26.91151
G1 X6.791 Y30.667 E26.95507
G1 X6.255 Y31.421 E27.00122
G1 X5.97 Y31.759 E27.02328
G1 X5.335 Y32.394 E27.06808
G1 X5.011 Y32.667 E27.08922
G1 X4.263 Y33.198 E27.13499
G1 X3.475 Y33.635 E27.17994
G1 X2.637 Y33.981 E27.22517
G1 X2.218 Y34.115 E27.24712
G1 X1.335 Y34.316 E27.2923
G1 X0.908 Y34.376 E27.31381
G1 X0.00 Y34.427 E27.35918
G1 X-.908 Y34.376 E27.40455
G1 X-1.335 Y34.316 E27.42607
G1 X-2.221 Y34.114 E27.4714
G1 X-3.071 Y33.816 E27.51634
G1 X-3.47 Y33.637 E27.53816
G1 X-4.263 Y33.198 E27.58338
G1 X-5.011 Y32.667 E27.62914
G1 X-5.335 Y32.394 E27.65028
G1 X-5.97 Y31.759 E27.69508
G1 X-6.255 Y31.421 E27.71714
G1 X-6.791 Y30.667 E27.7633
G1 X-7.212 Y29.902 E27.80686
G1 X-7.564 Y29.051 E27.8528
G1 X-7.696 Y28.635 E27.87458
G1 X-7.897 Y27.755 E27.91961
G1 X-7.997 Y26.856 E27.96474
G1 X-8.01 Y26.419 E27.98655
G1 X-8.009 Y22.182 E28.19794
G1 X-7.958 Y21.291 E28.24246
G1 X-7.817 Y20.446 E28.2852
G1 X-7.566 Y19.563 E28.331
G1 X-7.42 Y19.175 E28.35168
G1 X-7.217 Y18.718 E28.37663
G1 X-6.782 Y17.93 E28.42154
G1 X-6.296 Y17.241 E28.4636
G1 X-6 Y16.886 E28.48666
G1 X-5.388 Y16.264 E28.5302
G1 X-4.682 Y15.692 E28.57553
G1 X-3.938 Y15.216 E28.61959
G1 X-3.121 Y14.817 E28.66495
G1 X-2.284 Y14.514 E28.70936
G1 X-1.877 Y14.405 E28.73039
G1 X-.622 Y14.139 E28.79439
G0 F1800 X-4.241 Y17.081
G0 X-4.891 Y17.699
G0 X-5.45 Y18.399
G0 X-5.912 Y19.167
G0 X-6.265 Y19.991
G0 X-6.505 Y20.854
G0 X-6.639 Y22.181
G0 X-6.639 Y26.04
G0 X-6.329 Y31.005
G1 F900 X-4.594 Y32.74 E28.9168
G1 X-4.524 Y32.81
G0 F1800 X-3.606 Y32.597
G1 F900 X-2.315 Y33.888 E29.00789
G0 F1800 X-1.559 Y34.079
G1 F900 X-2.522 Y33.115 E29.07587
G1 X-2.592 Y33.045
G0 F1800 X-3.215 Y33.553
G1 F900 X-7.123 Y29.646 E29.35156
G1 X-7.193 Y29.576
G0 F1800 X-6.692 Y28.945
G1 F900 X-7.661 Y27.976 E29.41993
G0 F1800 X-7.765 Y27.307
G1 F900 X-6.954 Y28.118 E29.47715
G0 F1800 X-7.105 Y27.401
G1 F900 X-7.822 Y26.684 E29.52774
G0 F1800 X-7.829 Y26.111
G1 F900 X-7.147 Y26.793 E29.57586
G0 F1800 X-7.168 Y26.206
G1 F900 X-7.829 Y25.545 E29.6225
G0 F1800 X-7.829 Y24.979
G1 F900 X-7.168 Y25.641 E29.66917
G0 F1800 X-7.168 Y25.075
G1 F900 X-7.829 Y24.414 E29.71581
G0 F1800 X-7.829 Y23.848
G1 F900 X-7.168 Y24.509 E29.76244
G0 F1800 X-7.169 Y23.943
G1 F900 X-7.829 Y23.282 E29.80905
G0 F1800 X-7.829 Y22.717
G1 F900 X-7.169 Y23.377 E29.85561
G0 F1800 X-7.169 Y22.811
G1 F900 X-7.826 Y22.154 E29.90197
G0 F1800 X-7.796 Y21.619
G1 F900 X-7.169 Y22.246 E29.94621
G0 F1800 X-7.155 Y21.694
G1 F900 X-7.744 Y21.105 E29.98776
G0 F1800 X-7.664 Y20.619
G1 F900 X-7.086 Y21.197 E30.02854
G0 F1800 X-7.013 Y20.705
G1 F900 X-7.551 Y20.166 E30.06654
G0 F1800 X-7.426 Y19.726
G1 F900 X-6.89 Y20.262 E30.10436
G0 F1800 X-6.767 Y19.819
G1 F900 X-7.279 Y19.307 E30.14048
G0 F1800 X-7.107 Y18.913
G1 F900 X-6.598 Y19.422 E30.17639
G0 F1800 X-6.429 Y19.026
G1 F900 X-6.914 Y18.541 E30.21061
G0 F1800 X-6.713 Y18.176
G1 F900 X-6.227 Y18.662 E30.2449
G0 F1800 X-6.015 Y18.309
G1 F900 X-6.494 Y17.83 E30.2787
G0 F1800 X-6.26 Y17.498
G1 F900 X-5.787 Y17.971 E30.31207
G0 F1800 X-5.536 Y17.656
G1 F900 X-6.012 Y17.18 E30.34565
G0 F1800 X-5.745 Y16.882
G1 F900 X-5.285 Y17.341 E30.37807
G0 F1800 X-4.997 Y17.064
G1 F900 X-5.464 Y16.597 E30.41102
G0 F1800 X-5.173 Y16.322
G1 F900 X-4.707 Y16.788 E30.4439
G0 F1800 X-4.394 Y16.535
G1 F900 X-4.862 Y16.068 E30.47689
G0 F1800 X-4.546 Y15.817
G1 F900 X-4.066 Y16.298 E30.51079
G0 F1800 X-3.729 Y16.069
G1 F900 X-4.201 Y15.597 E30.54409
G0 F1800 X-3.856 Y15.376
G1 F900 X-3.361 Y15.871 E30.57902
G0 F1800 X-2.992 Y15.675
G1 F900 X-3.476 Y15.191 E30.61317
G0 F1800 X-3.095 Y15.006
G1 F900 X-2.585 Y15.516 E30.64915
G0 F1800 X-2.172 Y15.363
G1 F900 X-2.685 Y14.85 E30.68534
G0 F1800 X-2.27 Y14.7
G1 F900 X-1.726 Y15.243 E30.72369
G0 F1800 X-1.264 Y15.14
G1 F900 X-1.826 Y14.578 E30.76334
G0 F1800 X-1.359 Y14.479
G1 F900 X-.766 Y15.072 E30.80518
G0 F1800 X-.47 Y14.803
G1 F900 X-.893 Y14.379 E30.83506
G0 F1800 X-.441 Y14.265
G1 F900 X-.214 Y14.493 E30.85111
G0 F1800 X0.041 Y14.183
G1 F900 X-.441 Y13.7 E30.88516
G0 F1800 X-.441 Y13.134
G1 F900 X0.218 Y13.794 E30.93169
G0 F1800 X0.218 Y13.229
G1 F900 X-.441 Y12.568 E30.97825
G0 F1800 X-.441 Y12.003
G1 F900 X0.218 Y12.663 E31.02479
G0 F1800 X0.218 Y12.097
G1 F900 X-.441 Y11.437 E31.07132
G0 F1800 X-.441 Y10.871
G1 F900 X0.218 Y11.532 E31.11788
G0 F1800 X0.218 Y10.966
G1 F900 X-.441 Y10.306 E31.16442
G0 F1800 X-.441 Y9.74
G1 F900 X0.218 Y10.4 E31.21095
G0 F1800 X0.218 Y9.835
G1 F900 X-.441 Y9.174 E31.25751
G0 F1800 X-.441 Y8.609
G1 F900 X0.218 Y9.269 E31.30404
G0 F1800 X0.218 Y8.703
G1 F900 X-.441 Y8.043 E31.35058
G0 F1800 X-.441 Y7.477
G1 F900 X0.218 Y8.138 E31.39714
G0 F1800 X0.218 Y7.572
G1 F900 X-.441 Y6.911 E31.44371
G0 F1800 X-.441 Y6.346
G1 F900 X0.218 Y7.006 E31.49024
G0 F1800 X0.218 Y6.441
G1 F900 X-.441 Y5.78 E31.53681
G0 F1800 X-.441 Y5.214
G1 F900 X0.218 Y5.875 E31.58337
G0 F1800 X0.218 Y5.309
G1 F900 X-.441 Y4.649 E31.6299
G0 F1800 X-.441 Y4.083
G1 F900 X0.218 Y4.743 E31.67644
G0 F1800 X0.218 Y4.178
G1 F900 X-.441 Y3.517 E31.723
G0 F1800 X-.441 Y2.952
G1 F900 X0.218 Y3.612 E31.76953
G0 F1800 X0.218 Y3.046
G1 F900 X-.441 Y2.386 E31.81607
G0 F1800 X-.441 Y1.82
G1 F900 X0.218 Y2.481 E31.86263
G0 F1800 X0.218 Y1.915
G1 F900 X-.441 Y1.255 E31.90916
G0 F1800 X-.441 Y0.689
G1 F900 X0.218 Y1.349 E31.95569
G0 F1800 X0.218 Y0.784
G1 F900 X-.441 Y0.123 E32.00226
G0 F1800 X-.441 Y-.441
G1 F900 X0.218 Y0.218 E32.04876
G0 F1800 X0.218 Y-.347
G1 F900 X-.441 Y-1.007 E32.09529
G0 F1800 X-.441 Y-1.573
G1 F900 X0.218 Y-.912 E32.14186
G0 F1800 X0.218 Y-1.478
G1 F900 X-.441 Y-2.138 E32.18839
G0 F1800 X-.441 Y-2.704
G1 F900 X0.218 Y-2.044 E32.23492
G0 F1800 X0.218 Y-2.609
G1 F900 X-.441 Y-3.27 E32.28148
G0 F1800 X-.441 Y-3.836
G1 F900 X0.218 Y-3.175 E32.32805
G0 F1800 X0.218 Y-3.741
G1 F900 X-.441 Y-4.401 E32.37458
G0 F1800 X-.441 Y-4.967
G1 F900 X0.218 Y-4.306 E32.42115
G0 F1800 X0.218 Y-4.872
G1 F900 X-.441 Y-5.533 E32.46772
G0 F1800 X-.441 Y-6.098
G1 F900 X0.218 Y-5.438 E32.51425
G0 F1800 X0.218 Y-6.004
G1 F900 X-.441 Y-6.664 E32.56078
G0 F1800 X-.441 Y-7.23
G1 F900 X0.218 Y-6.569 E32.60734
G0 F1800 X0.218 Y-7.135
G1 F900 X-.441 Y-7.795 E32.65388
G0 F1800 X-.441 Y-8.361
G1 F900 X0.218 Y-7.701 E32.70041
G0 F1800 X0.218 Y-8.266
G1 F900 X-.441 Y-8.927 E32.74697
G0 F1800 X-.441 Y-9.492
G1 F900 X0.218 Y-8.832 E32.79351
G0 F1800 X0.218 Y-9.398
G1 F900 X-.441 Y-10.058 E32.84004
G0 F1800 X-.441 Y-10.624
G1 F900 X0.218 Y-9.963 E32.8866
G0 F1800 X0.218 Y-10.529
G1 F900 X-.441 Y-11.189 E32.93313
G0 F1800 X-.441 Y-11.755
G1 F900 X0.218 Y-11.095 E32.97967
G0 F1800 X0.218 Y-11.66
G1 F900 X-.441 Y-12.321 E33.02623
G0 F1800 X-.441 Y-12.887
G1 F900 X0.218 Y-12.226 E33.0728
G0 F1800 X0.218 Y-12.792
G1 F900 X-.441 Y-13.452 E33.11933
G0 F1800 X-.441 Y-14.018
G1 F900 X0.218 Y-13.357 E33.1659
G0 F1800 X0.218 Y-13.923
G1 F900 X-.441 Y-14.584 E33.21246
G0 F1800 X-.441 Y-15.149
G1 F900 X0.218 Y-14.489 E33.25899
G0 F1800 X0.218 Y-15.055
G1 F900 X-.441 Y-15.715 E33.30553
G0 F1800 X-.441 Y-16.281
G1 F900 X0.218 Y-15.62 E33.35209
G0 F1800 X0.218 Y-16.186
G1 F900 X-.441 Y-16.846 E33.39862
G0 F1800 X-.441 Y-17.412
G1 F900 X0.218 Y-16.752 E33.44516
G0 F1800 X0.218 Y-17.317
G1 F900 X-.441 Y-17.978 E33.49172
G0 F1800 X-.441 Y-18.543
G1 F900 X0.218 Y-17.883 E33.53825
G0 F1800 X0.218 Y-18.449
G1 F900 X-1.441 Y-20.109 E33.65534
G0 F1800 X-1.441 Y-20.675
G1 F900 X0.273 Y-18.959 E33.77634
G0 F1800 X0.556 Y-19.242
G1 F900 X-1.441 Y-21.24 E33.91728
G0 F1800 X-1.441 Y-21.806
G1 F900 X0.84 Y-19.524 E34.07825
G0 F1800 X1.122 Y-19.807
G1 F900 X-1.441 Y-22.372 E34.25915
G0 F1800 X-1.441 Y-22.937
G1 F900 X1.218 Y-20.277 E34.4468
G0 F1800 X1.218 Y-20.843
G1 F900 X-1.441 Y-23.503 E34.63444
G0 F1800 X-1.441 Y-24.069
G1 F900 X1.218 Y-21.409 E34.82208
G0 F1800 X1.218 Y-21.974
G1 F900 X-1.441 Y-24.634 E35.00972
