;FLAVOR:Marlin
;TIME:866
;Filament used: 0.504217m
;Layer height: 0.18
;MINX:95.912
;MINY:96.398
;MINZ:0.216
;MAXX:124.087
;MAXY:129.008
;MAXZ:6.036
;Generated with Cura_SteamEngine 5.0.0
M140 S100
M105
M190 S100
M104 S250
M105
M109 S250
M82 ;absolute extrusion mode
G28 ;Home
G1 Z15.0 F6000 ;Move the platform down 15mm
;Prime the extruder
G92 E0
G1 F200 E3
G92 E0
G92 E0
G92 E0
G1 F2700 E-5
;LAYER_COUNT:28
;LAYER:-6
M107
G0 F9000 X97.376 Y99.171 Z0.216
;TYPE:SUPPORT-INTERFACE
G1 F2700 E0
G1 F900 X96.951 Y99.79 E0.05394
G1 X96.623 Y100.389 E0.10301
G1 X96.343 Y101.04 E0.15392
G1 X96.135 Y101.706 E0.20404
G1 X95.988 Y102.419 E0.25634
G1 X95.914 Y103.138 E0.30827
G1 X95.912 Y103.817 E0.35705
G1 X95.978 Y104.515 E0.40742
G1 X96.14 Y105.307 E0.4655
G1 X96.303 Y106.164 E0.52817
G1 X96.333 Y106.85 E0.5775
G1 X96.277 Y107.535 E0.62688
G1 X96.14 Y108.182 E0.67439
G1 X95.989 Y108.91 E0.7278
G1 X95.913 Y109.631 E0.77989
G1 X95.912 Y110.321 E0.82946
G1 X95.978 Y111.018 E0.87976
G1 X96.114 Y111.714 E0.9307
G1 X96.333 Y112.424 E0.98408
G1 X96.585 Y113.031 E1.0313
G1 X96.938 Y113.682 E1.0845
G1 X97.708 Y114.82 E1.18321
G1 X98.016 Y115.416 E1.23141
G1 X98.248 Y116.046 E1.27964
G1 X98.403 Y116.715 E1.32898
G1 X98.469 Y117.372 E1.37642
G1 X98.457 Y117.885 E1.41328
G1 X98.351 Y118.733 E1.47468
G1 X98.165 Y119.347 E1.52077
G1 X97.972 Y120 E1.56969
G1 X97.807 Y120.709 E1.62198
G1 X97.705 Y121.263 E1.66245
G1 X97.656 Y121.874 E1.70649
G1 X97.669 Y122.516 E1.75262
G1 X97.753 Y123.272 E1.80727
G1 X97.863 Y123.852 E1.84968
G1 X98.038 Y124.475 E1.89617
G1 X98.268 Y125.026 E1.93906
G1 X98.566 Y125.539 E1.98169
G1 X98.918 Y126 E2.02336
G1 X99.326 Y126.413 E2.06506
G1 X99.773 Y126.764 E2.10589
G1 X100.287 Y127.072 E2.14894
G1 X100.824 Y127.305 E2.191
G1 X101.339 Y127.457 E2.22957
G1 X101.994 Y127.613 E2.27795
G1 X102.749 Y127.876 E2.33538
G1 X103.27 Y128.058 E2.37503
G1 X103.967 Y128.274 E2.42745
G1 X104.808 Y128.549 E2.49102
G1 X105.52 Y128.811 E2.54553
G1 X106.088 Y128.941 E2.58739
G1 X106.769 Y129.004 E2.63652
G1 X110.539 Y129.008 E2.90737
G1 X111.049 Y128.971 E2.9441
G1 X111.885 Y128.833 E3.00497
G1 X112.474 Y128.627 E3.0498
G1 X113.386 Y128.296 E3.1195
G1 X114.236 Y128.148 E3.18149
G1 X115.306 Y128.021 E3.2589
G1 X115.825 Y127.875 E3.29763
G1 X116.365 Y127.644 E3.33983
G1 X116.864 Y127.354 E3.38129
G1 X117.318 Y127.006 E3.42239
G1 X117.736 Y126.592 E3.46465
G1 X118.094 Y126.135 E3.50636
G1 X118.384 Y125.648 E3.54708
G1 X118.62 Y125.113 E3.58909
G1 X118.782 Y124.552 E3.63104
G1 X118.875 Y123.969 E3.67345
G1 X118.909 Y123.202 E3.72861
G1 X118.941 Y122.689 E3.76553
G1 X119.061 Y122.027 E3.81387
G1 X119.269 Y121.372 E3.86324
G1 X119.554 Y120.755 E3.91207
G1 X119.968 Y120.107 E3.96731
G1 X120.265 Y119.595 E4.00983
G1 X120.5 Y119.038 E4.05327
G1 X120.651 Y118.531 E4.09127
G1 X120.879 Y117.556 E4.16321
G1 X121.119 Y116.638 E4.23137
G1 X121.351 Y116.095 E4.2738
G1 X121.733 Y115.42 E4.32952
G1 X122.155 Y114.878 E4.37887
G1 X122.636 Y114.309 E4.43239
G1 X123.038 Y113.724 E4.48339
G1 X123.38 Y113.103 E4.53432
G1 X123.658 Y112.453 E4.58511
G1 X123.878 Y111.737 E4.63892
G1 X124.012 Y111.084 E4.68681
G1 X124.087 Y110.37 E4.73839
G1 X124.087 Y109.991 E4.76561
G1 X124.054 Y109.324 E4.81359
G1 X123.945 Y108.603 E4.86598
G1 X123.83 Y108.036 E4.90754
G1 X123.693 Y107.303 E4.96111
G1 X123.667 Y106.647 E5.00828
G1 X123.723 Y105.962 E5.05766
G1 X123.864 Y105.298 E5.10642
G1 X124.012 Y104.581 E5.15902
G1 X124.087 Y103.867 E5.2106
G1 X124.087 Y103.154 E5.26182
G1 X124.02 Y102.471 E5.31112
G1 X123.881 Y101.774 E5.36218
G1 X123.668 Y101.072 E5.41489
G1 X123.406 Y100.448 E5.46351
G1 X123.067 Y99.818 E5.5149
G1 X122.669 Y99.228 E5.56603
G1 X122.231 Y98.702 E5.61521
G1 X121.695 Y98.177 E5.66911
G1 X121.188 Y97.77 E5.71582
G1 X120.555 Y97.357 E5.77012
G1 X119.936 Y97.035 E5.82024
G1 X119.263 Y96.772 E5.87215
G1 X118.602 Y96.585 E5.92151
G1 X117.867 Y96.46 E5.97507
G1 X117.329 Y96.413 E6.01387
G1 X116.696 Y96.398 E6.05935
G1 X102.847 Y96.402 E7.05429
G1 X102.125 Y96.457 E7.10631
G1 X101.462 Y96.571 E7.15464
G1 X100.784 Y96.755 E7.20511
G1 X100.095 Y97.024 E7.25825
G1 X99.482 Y97.334 E7.3076
G1 X98.881 Y97.722 E7.35899
G1 X98.338 Y98.147 E7.40853
G1 X97.787 Y98.685 E7.46386
G1 X97.376 Y99.171 E7.50958
G0 F9000 X97.472 Y99.735
G1 F900 X118.917 Y121.18 E9.68839
G0 F9000 X119.724 Y119.724
G1 F900 X98.524 Y98.524 E11.84231
G0 F9000 X99.856 Y97.593
G1 F900 X120.344 Y118.081 E13.92388
G0 F9000 X120.826 Y116.301
G1 F900 X101.5 Y96.975 E15.8874
G0 F9000 X103.589 Y96.801
G1 F900 X121.655 Y114.867 E17.7229
G0 F9000 X122.643 Y113.592
G1 F900 X105.851 Y96.8 E19.42897
G0 F9000 X108.113 Y96.8
G1 F900 X123.363 Y112.049 E20.97831
G0 F9000 X123.686 Y110.109
G1 F900 X110.375 Y96.799 E22.33066
G0 F9000 X112.637 Y96.798
G1 F900 X123.319 Y107.48 E23.41594
G0 F9000 X123.444 Y105.342
G1 F900 X114.899 Y96.797 E24.28411
G0 F9000 X117.17 Y96.805
G1 F900 X123.669 Y103.304 E24.94441
G0 F9000 X122.782 Y100.155
G1 F900 X120.343 Y97.716 E25.19221
G0 F9000 X96.703 Y101.228
G1 F900 X118.52 Y123.045 E27.40882
G0 F9000 X118.226 Y125.014
G1 F900 X96.318 Y103.106 E29.63466
G0 F9000 X96.614 Y105.665
G1 F900 X117.354 Y126.405 E31.74184
G0 F9000 X116.034 Y127.348
G1 F900 X96.603 Y107.917 E33.71603
G0 F9000 X96.312 Y109.888
G1 F900 X114.175 Y127.751 E35.5309
G0 F9000 X112.388 Y128.227
G1 F900 X96.895 Y112.734 E37.10499
G0 F9000 X98.824 Y116.926
G1 F900 X110.5 Y128.602 E38.29127
G0 F9000 X108.237 Y128.602
G1 F900 X98.674 Y119.039 E39.26287
G0 F9000 X98.191 Y120.819
G1 F900 X105.847 Y128.474 E40.04066
G0 F9000 X102.44 Y127.33
G1 F900 X98.111 Y123.001 E40.48049
G0 F600 X98.111 Y123.001 Z0.486
G0 F9000 X115.945 Y127.398
;TIME_ELAPSED:42.260280
;LAYER:-5
;TYPE:SUPPORT
G1 F900 X116.413 Y127.165 E40.52744
G1 X116.853 Y126.869 E40.57506
G1 X117.239 Y126.533 E40.62102
G1 X117.758 Y125.917 E40.69335
G1 X118.033 Y125.457 E40.74148
G1 X118.219 Y125.024 E40.7838
G1 X115.792 Y127.451 E41.09203
G1 X115.421 Y127.581 E41.12733
G1 X114.899 Y127.685 E41.17513
G1 X114.069 Y127.76 E41.24997
G1 X118.502 Y123.327 E41.81296
G1 X118.54 Y122.654 E41.87349
G1 X118.671 Y121.934 E41.93921
G1 X118.758 Y121.657 E41.96528
G1 X112.058 Y128.358 E42.81625
G1 X111.568 Y128.498 E42.86201
G1 X110.394 Y128.607 E42.96789
G1 X120.118 Y118.883 E44.20284
G1 X120.217 Y118.596 E44.2301
G1 X120.486 Y117.476 E44.33354
G1 X120.618 Y116.969 E44.38059
G1 X108.981 Y128.606 E45.85848
G1 X107.569 Y128.604 E45.98528
G1 X122.75 Y113.423 E47.91327
G1 X122.921 Y113.126 E47.94404
G1 X123.25 Y112.407 E48.01505
G1 X123.493 Y111.63 E48.08816
G1 X123.593 Y111.166 E48.13078
G1 X106.207 Y128.552 E50.3388
G1 X106.155 Y128.547 E50.34349
G1 X105.623 Y128.426 E50.39249
G1 X105.111 Y128.233 E50.44162
G1 X123.678 Y109.666 E52.79963
G1 X123.636 Y109.11 E52.8497
G1 X123.499 Y108.431 E52.9119
G1 X104.055 Y127.876 E55.38135
G1 X103.77 Y127.808 E55.40766
G1 X102.979 Y127.537 E55.48275
G1 X123.287 Y107.229 E58.06186
G1 X123.264 Y106.609 E58.11758
G1 X123.312 Y106.067 E58.16644
G1 X123.257 Y106.049 E58.17164
G1 X123.327 Y105.774 E58.19712
G1 X101.919 Y127.183 E60.91599
G1 X101.18 Y127.011 E60.98413
G1 X100.811 Y126.876 E61.01942
G1 X123.673 Y104.014 E63.92288
G1 X123.682 Y103.945 E63.92913
G1 X123.696 Y103.386 E63.97935
G1 X123.639 Y102.635 E64.04698
G1 X99.902 Y126.371 E67.06151
G1 X99.78 Y126.287 E67.07481
G1 X99.173 Y125.686 E67.15152
G1 X123.373 Y101.486 E70.22492
G1 X123.298 Y101.223 E70.24948
G1 X122.968 Y100.477 E70.32273
G1 X98.616 Y124.829 E73.41543
G1 X98.511 Y124.621 E73.43635
G1 X98.256 Y123.774 E73.51579
G1 X122.437 Y99.593 E76.58677
G1 X122.41 Y99.55 E76.59133
G1 X121.788 Y98.828 E76.67691
G1 X98.072 Y122.545 E79.68889
G1 X98.046 Y122.176 E79.72211
G1 X98.06 Y121.609 E79.77305
G1 X98.142 Y121.06 E79.8229
G1 X121.04 Y98.162 E82.73094
G1 X120.96 Y98.098 E82.74014
G1 X120.176 Y97.612 E82.82297
G1 X98.652 Y119.136 E85.55651
G1 X98.736 Y118.841 E85.58406
G1 X98.849 Y118.118 E85.64977
G1 X98.868 Y117.506 E85.70476
G1 X119.2 Y97.174 E88.28692
G1 X118.646 Y97.005 E88.33893
G1 X118.063 Y96.896 E88.39219
G1 X98.707 Y116.252 E90.8504
G1 X98.635 Y115.939 E90.87924
G1 X98.353 Y115.192 E90.95094
G1 X116.748 Y96.797 E93.2871
G1 X115.334 Y96.797 E93.41409
G1 X97.847 Y114.284 E95.63493
G1 X97.266 Y113.451 E95.72613
G1 X113.919 Y96.797 E97.84112
G1 X112.504 Y96.798 E97.96819
G1 X96.799 Y112.504 E99.96279
G1 X96.64 Y112.096 E100.00211
G1 X96.467 Y111.422 E100.0646
G1 X111.09 Y96.798 E101.92178
G1 X109.675 Y96.799 E102.04885
G1 X96.312 Y110.162 E103.74595
G1 X96.303 Y110 E103.76052
G1 X96.334 Y109.351 E103.81887
G1 X96.469 Y108.591 E103.88818
G1 X108.26 Y96.8 E105.38564
G1 X106.845 Y96.8 E105.51271
G1 X96.732 Y106.913 E106.79706
G1 X96.706 Y106.146 E106.86597
G1 X96.607 Y105.624 E106.91369
G1 X105.431 Y96.8 E108.03433
G1 X104.016 Y96.801 E108.1614
G1 X96.371 Y104.446 E109.13232
G1 X96.307 Y103.712 E109.19848
G1 X96.322 Y103.081 E109.25516
G1 X102.574 Y96.829 E110.04916
G1 X101.838 Y96.903 E110.11559
G1 X100.813 Y97.176 E110.21085
G1 X96.68 Y101.309 E110.73574
G1 X96.754 Y101.08 E110.75735
G1 X97.036 Y100.45 E110.81933
G1 X97.287 Y100 E110.86561
G1 X97.761 Y99.325 E110.93968
G1 X98.089 Y98.945 E110.98476
G1 X98.652 Y98.401 E111.05506
G1 X99.259 Y97.942 E111.1234
G1 X99.953 Y97.534 E111.1957
G1 X100.55 Y97.263 E111.25457
G0 F600 X100.55 Y97.263 Z0.666
G0 F9000 X121.343 Y98.15
;TIME_ELAPSED:95.042065
;LAYER:-4
;TYPE:SUPPORT-INTERFACE
G1 F1200 X122.346 Y99.153 E111.29703
G1 X122.147 Y98.907 E111.3065
G1 X121.64 Y98.396 E111.32805
G1 X121.137 Y97.979 E111.34761
G1 X120.587 Y97.607 E111.36749
G1 X119.848 Y97.221 E111.39244
G1 X123.28 Y100.653 E111.53773
G1 X123.606 Y101.544 E111.56613
G1 X118.952 Y96.89 E111.76315
G1 X118.211 Y96.715 E111.78594
G1 X123.784 Y102.288 E112.02186
G1 X123.864 Y102.934 E112.04135
G1 X117.569 Y96.639 E112.30784
G1 X116.962 Y96.597 E112.32605
G1 X123.888 Y103.523 E112.61925
G1 X123.869 Y104.07 E112.63564
G1 X116.396 Y96.597 E112.95199
G1 X115.831 Y96.597 E112.9689
G1 X123.808 Y104.574 E113.3066
G1 X123.714 Y105.047 E113.32103
G1 X115.265 Y96.597 E113.67873
G1 X114.699 Y96.597 E113.69567
G1 X123.604 Y105.502 E114.07265
G1 X123.496 Y105.921 E114.0856
G1 X123.52 Y105.984 E114.08762
G1 X114.134 Y96.597 E114.48498
G1 X113.568 Y96.597 E114.50192
G1 X123.475 Y106.505 E114.92134
G1 X123.483 Y107.078 E114.93849
G1 X113.003 Y96.598 E115.38214
G1 X112.437 Y96.598 E115.39909
G1 X123.568 Y107.729 E115.8703
G1 X123.703 Y108.429 E115.89164
G1 X111.872 Y96.598 E116.39248
G1 X111.306 Y96.598 E116.40943
G1 X123.839 Y109.131 E116.93999
G1 X123.89 Y109.748 E116.95852
G1 X110.74 Y96.598 E117.5152
G1 X110.175 Y96.598 E117.53212
G1 X123.885 Y110.308 E118.1125
G1 X123.838 Y110.827 E118.1281
G1 X109.61 Y96.599 E118.73042
G1 X109.044 Y96.599 E118.74736
G1 X123.764 Y111.319 E119.37051
G1 X123.657 Y111.778 E119.38462
G1 X108.478 Y96.599 E120.02719
G1 X107.912 Y96.599 E120.04414
G1 X123.521 Y112.207 E120.70489
G1 X123.371 Y112.623 E120.71813
G1 X107.347 Y96.599 E121.39648
G1 X106.781 Y96.599 E121.41342
G1 X123.196 Y113.014 E122.10832
G1 X123.001 Y113.384 E122.12084
G1 X106.216 Y96.599 E122.83141
G1 X105.65 Y96.599 E122.84835
G1 X122.791 Y113.74 E123.57398
G1 X122.555 Y114.07 E123.58613
G1 X105.085 Y96.599 E124.32571
G1 X104.519 Y96.599 E124.34265
G1 X122.311 Y114.391 E125.09584
G1 X122.048 Y114.694 E125.10786
G1 X103.953 Y96.599 E125.87388
G1 X103.388 Y96.599 E125.89079
G1 X121.797 Y115.009 E126.67012
G1 X121.554 Y115.331 E126.6822
G1 X102.829 Y96.607 E127.47487
G1 X102.293 Y96.636 E127.49093
G1 X121.343 Y115.686 E128.29738
G1 X121.149 Y116.058 E128.30994
G1 X101.803 Y96.712 E129.12892
G1 X101.336 Y96.81 E129.1432
G1 X120.977 Y116.452 E129.97469
G1 X120.846 Y116.886 E129.98826
G1 X100.892 Y96.932 E130.83298
G1 X100.478 Y97.084 E130.84618
G1 X120.729 Y117.335 E131.70347
G1 X120.616 Y117.788 E131.71745
G1 X100.085 Y97.256 E132.58661
G1 X99.707 Y97.444 E132.59925
G1 X120.507 Y118.245 E133.4798
G1 X120.394 Y118.697 E133.49375
G1 X99.349 Y97.652 E134.38465
G1 X99.011 Y97.879 E134.39684
G1 X120.25 Y119.119 E135.29598
G1 X120.075 Y119.51 E135.3088
G1 X98.688 Y98.122 E136.2142
G1 X98.381 Y98.381 E136.22623
G1 X119.875 Y119.875 E137.13614
G1 X119.655 Y120.221 E137.14841
G1 X98.089 Y98.655 E138.06137
G1 X97.822 Y98.953 E138.07335
G1 X119.436 Y120.568 E138.98836
G1 X119.246 Y120.943 E139.00094
G1 X97.563 Y99.26 E139.91885
G1 X97.33 Y99.593 E139.93102
G1 X119.07 Y121.333 E140.85134
G1 X118.934 Y121.763 E140.86484
G1 X97.101 Y99.929 E141.78913
G1 X96.908 Y100.302 E141.8017
G1 X118.823 Y122.217 E142.72943
G1 X118.739 Y122.699 E142.74408
G1 X96.715 Y100.675 E143.67642
G1 X96.55 Y101.075 E143.68938
G1 X118.708 Y123.233 E144.6274
G1 X118.685 Y123.776 E144.64366
G1 X96.401 Y101.493 E145.587
G1 X96.286 Y101.943 E145.6009
G1 X118.624 Y124.281 E146.54654
G1 X118.52 Y124.742 E146.56069
G1 X96.2 Y102.423 E147.50554
G1 X96.126 Y102.915 E147.52044
G1 X118.377 Y125.165 E148.46237
G1 X118.206 Y125.56 E148.47526
G1 X96.112 Y103.466 E149.41057
G1 X96.136 Y104.055 E149.42821
G1 X117.994 Y125.914 E150.35355
G1 X117.757 Y126.242 E150.36567
G1 X96.22 Y104.705 E151.2774
G1 X96.363 Y105.414 E151.29905
G1 X117.497 Y126.548 E152.19372
G1 X117.213 Y126.83 E152.2057
G1 X96.496 Y106.112 E153.08274
G1 X96.506 Y106.168 E153.08444
G1 X96.527 Y106.709 E153.10065
G1 X116.896 Y127.078 E153.96294
G1 X116.554 Y127.302 E153.97517
G1 X96.513 Y107.261 E154.82357
G1 X96.451 Y107.765 E154.83877
G1 X116.188 Y127.502 E155.67431
G1 X115.793 Y127.673 E155.68719
G1 X96.34 Y108.219 E156.51072
G1 X96.232 Y108.677 E156.52481
G1 X115.355 Y127.8 E157.33434
G1 X114.863 Y127.873 E157.34923
G1 X96.16 Y109.17 E158.14099
G1 X96.114 Y109.69 E158.15662
G1 X114.355 Y127.931 E158.92882
G1 X113.859 Y128.001 E158.94381
G1 X96.109 Y110.251 E159.69523
G1 X96.162 Y110.87 E159.71382
G1 X113.383 Y128.091 E160.44285
G1 X112.964 Y128.238 E160.45614
G1 X96.288 Y111.562 E161.16209
G1 X96.311 Y111.674 E161.16551
G1 X96.535 Y112.374 E161.18751
G1 X112.551 Y128.39 E161.86552
G1 X112.137 Y128.542 E161.87872
G1 X97.013 Y113.418 E162.51897
G1 X97.357 Y113.966 E162.53834
G1 X97.874 Y114.704 E162.56531
G1 X98.024 Y114.995 E162.57511
G1 X111.698 Y128.668 E163.15395
G1 X111.205 Y128.741 E163.16887
G1 X98.432 Y115.969 E163.70957
G1 X98.442 Y115.995 E163.71041
G1 X98.603 Y116.705 E163.7322
G1 X110.696 Y128.798 E164.24414
G1 X110.138 Y128.806 E164.26084
G1 X98.665 Y117.333 E164.74653
G1 X98.656 Y117.89 E164.7632
G1 X109.572 Y128.805 E165.22529
G1 X109.006 Y128.805 E165.24224
G1 X98.603 Y118.402 E165.68263
G1 X98.517 Y118.882 E165.69723
G1 X108.44 Y128.805 E166.1173
G1 X107.874 Y128.804 E166.13424
G1 X98.391 Y119.321 E166.53569
G1 X98.256 Y119.752 E166.54921
G1 X107.307 Y128.803 E166.93237
G1 X106.738 Y128.8 E166.9494
G1 X98.125 Y120.187 E167.31401
G1 X98.024 Y120.651 E167.32823
G1 X106.116 Y128.743 E167.67079
G1 X105.336 Y128.529 E167.695
G1 X97.925 Y121.118 E168.00873
G1 X97.871 Y121.63 E168.02414
G1 X104.405 Y128.163 E168.30073
G1 X103.655 Y127.979 E168.32384
G1 X97.856 Y122.18 E168.56933
G1 X97.891 Y122.781 E168.58736
G1 X102.787 Y127.677 E168.79462
G1 X101.937 Y127.393 E168.82145
G1 X97.986 Y123.442 E168.9887
G1 X98.142 Y124.163 E169.01079
G1 X101.199 Y127.22 E169.1402
G1 X101.141 Y127.207 E169.14198
G1 X100.626 Y127.022 E169.15836
G1 X100.123 Y126.764 E169.17528
G1 X99.663 Y126.448 E169.19199
G1 X99.248 Y126.077 E169.20865
G1 X98.881 Y125.655 E169.22539
G1 X98.539 Y125.126 E169.24425
G1 X100.233 Y126.821 E169.31598
G0 F600 X100.233 Y126.821 Z0.846
G0 F9000 X98.53 Y98.24
;TIME_ELAPSED:192.399692
;LAYER:-3
;TYPE:SUPPORT-INTERFACE
G1 F1200 X98.088 Y98.655 E169.33413
G1 X97.607 Y99.197 E169.35582
G1 X97.482 Y99.376 E169.36236
G1 X98.881 Y97.977 E169.42158
G1 X99.578 Y97.509 E169.44671
G1 X100.251 Y97.172 E169.46924
G1 X96.679 Y100.744 E169.62046
G1 X96.414 Y101.448 E169.64297
G1 X96.37 Y101.619 E169.64826
G1 X101.124 Y96.865 E169.84951
G1 X101.851 Y96.703 E169.87181
G1 X96.212 Y102.343 E170.11055
G1 X96.126 Y102.919 E170.12798
G1 X96.125 Y102.995 E170.13025
G1 X102.496 Y96.624 E170.39996
G1 X103.087 Y96.599 E170.41767
G1 X96.111 Y103.575 E170.71298
