;FLAVOR:Marlin
;TIME:6610
;Filament used: 3.84937m
;Layer height: 0.15
;MINX:76.158
;MINY:52.791
;MINZ:0.3
;MAXX:144.311
;MAXY:158.322
;MAXZ:7.95
;Generated with Cura_SteamEngine 5.0.0
M140 S60
M105
M190 S60
M104 S200
M105
M109 S200
M82 ;absolute extrusion mode
G28 ;Home
G1 Z15.0 F6000 ;Move the platform down 15mm
;Prime the extruder
G92 E0
G1 F200 E3
G92 E0
G92 E0
G92 E0
G1 F2700 E-5
;LAYER_COUNT:52
;LAYER:0
M106 S255
G0 F1800 X78.556 Y54.071 Z0.3
G0 X77.899 Y56.643
;TYPE:SKIRT
G1 F2700 E0
G1 F600 X77.909 Y55.954 E0.03438
G1 X77.957 Y55.45 E0.05964
G1 X78.083 Y54.961 E0.08483
G1 X78.284 Y54.497 E0.11006
G1 X78.556 Y54.071 E0.13527
G1 X78.892 Y53.693 E0.16051
G1 X79.283 Y53.372 E0.18574
G1 X79.719 Y53.117 E0.21094
G1 X80.191 Y52.935 E0.23618
G1 X80.685 Y52.828 E0.2614
G1 X81.339 Y52.792 E0.29408
G1 X90.438 Y52.791 E0.74803
G1 X91.139 Y52.801 E0.783
G1 X91.676 Y52.855 E0.80993
G1 X92.459 Y53 E0.84966
G1 X95.201 Y53.469 E0.98844
G1 X97.897 Y53.853 E1.12431
G1 X100.634 Y54.164 E1.26173
G1 X103.372 Y54.396 E1.39882
G1 X106.091 Y54.55 E1.53469
G1 X108.84 Y54.627 E1.67189
G1 X111.559 Y54.627 E1.80754
G1 X114.31 Y54.549 E1.94485
G1 X117.06 Y54.392 E2.08227
G1 X119.738 Y54.164 E2.21636
G1 X122.506 Y53.85 E2.35534
G1 X125.203 Y53.466 E2.49125
G1 X128.468 Y52.902 E2.65656
G1 X129.242 Y52.847 E2.69527
G1 X138.336 Y52.846 E3.14897
G1 X139.034 Y52.855 E3.1838
G1 X139.538 Y52.902 E3.20905
G1 X140.028 Y53.027 E3.23428
G1 X140.492 Y53.228 E3.25951
G1 X140.918 Y53.499 E3.2847
G1 X141.297 Y53.834 E3.30993
G1 X141.618 Y54.225 E3.33517
G1 X141.873 Y54.661 E3.36037
G1 X142.057 Y55.132 E3.3856
G1 X142.164 Y55.626 E3.41081
G1 X142.201 Y56.286 E3.44379
G1 X142.202 Y65.384 E3.89769
G1 X142.189 Y66.179 E3.93736
G1 X142.162 Y66.828 E3.96977
G1 X142.083 Y69.62 E4.10912
G1 X142.083 Y72.337 E4.24467
G1 X142.161 Y75.089 E4.38202
G1 X142.317 Y77.838 E4.51939
G1 X142.547 Y80.543 E4.65483
G1 X142.855 Y83.251 E4.79081
G1 X143.001 Y84.352 E4.84622
G1 X143.038 Y85.006 E4.8789
G1 X143.039 Y94.119 E5.33355
G1 X143.027 Y94.841 E5.36957
G1 X142.91 Y95.906 E5.42302
G1 X142.601 Y98.624 E5.5595
G1 X142.368 Y101.34 E5.6955
G1 X142.213 Y104.083 E5.83257
G1 X142.134 Y106.837 E5.97002
G1 X142.134 Y109.556 E6.10567
G1 X142.211 Y112.307 E6.24297
G1 X142.364 Y115.022 E6.37864
G1 X142.596 Y117.762 E6.51583
G1 X142.907 Y120.503 E6.65345
G1 X143.289 Y123.19 E6.78886
G1 X143.75 Y125.882 E6.92512
G1 X144.242 Y128.381 E7.05219
G1 X144.301 Y128.909 E7.07869
G1 X144.311 Y129.32 E7.0992
G1 X144.311 Y138.297 E7.54707
G1 X144.301 Y139.03 E7.58364
G1 X144.254 Y139.533 E7.60884
G1 X144.128 Y140.023 E7.63409
G1 X143.927 Y140.487 E7.65931
G1 X143.656 Y140.913 E7.6845
G1 X143.382 Y141.23 E7.70541
G1 X142.658 Y141.966 E7.75691
G1 X140.776 Y143.933 E7.89273
G1 X138.934 Y145.97 E8.02975
G1 X137.129 Y148.084 E8.16843
G1 X135.44 Y150.18 E8.30272
G1 X133.772 Y152.373 E8.44018
G1 X132.182 Y154.591 E8.57634
G1 X130.618 Y156.905 E8.71568
G1 X130.303 Y157.3 E8.74088
G1 X129.93 Y157.641 E8.7661
G1 X129.507 Y157.918 E8.79132
G1 X129.046 Y158.126 E8.81656
G1 X128.558 Y158.258 E8.84178
G1 X128.056 Y158.312 E8.86697
G1 X127.645 Y158.322 E8.88748
G1 X118.628 Y158.322 E9.33734
G1 X117.923 Y158.31 E9.37251
G1 X117.419 Y158.261 E9.39778
G1 X116.93 Y158.134 E9.42298
G1 X116.305 Y157.838 E9.45749
G1 X115.587 Y157.398 E9.4995
G1 X113.181 Y155.964 E9.63924
G1 X110.817 Y154.645 E9.77429
G1 X108.384 Y153.376 E9.91119
G1 X105.903 Y152.17 E10.04882
G1 X103.425 Y151.05 E10.18449
G1 X100.884 Y149.99 E10.32185
G1 X98.348 Y149.013 E10.45744
G1 X95.737 Y148.092 E10.59557
G1 X93.154 Y147.261 E10.73094
G1 X91.525 Y146.787 E10.81558
G1 X90.945 Y146.605 E10.84591
G1 X90.383 Y146.368 E10.87634
G1 X89.764 Y146.033 E10.91145
G1 X88.564 Y145.363 E10.98002
G1 X86.119 Y144.088 E11.11759
G1 X83.666 Y142.896 E11.25365
G1 X81.178 Y141.773 E11.38984
G1 X78.159 Y140.515 E11.55301
G1 X77.708 Y140.288 E11.5782
G1 X77.298 Y139.993 E11.6034
G1 X76.939 Y139.636 E11.62866
G1 X76.641 Y139.228 E11.65386
G1 X76.411 Y138.778 E11.67908
G1 X76.255 Y138.297 E11.70431
G1 X76.168 Y137.642 E11.73727
G1 X76.158 Y137.232 E11.75773
G1 X76.158 Y128.219 E12.20739
G1 X76.169 Y127.509 E12.24282
G1 X76.283 Y126.579 E12.28956
G1 X76.588 Y124.799 E12.37966
G1 X76.971 Y122.111 E12.51512
G1 X77.287 Y119.328 E12.65486
G1 X77.513 Y116.664 E12.78824
G1 X77.669 Y113.917 E12.92551
G1 X77.747 Y111.164 E13.06292
G1 X77.747 Y108.447 E13.19847
G1 X77.669 Y105.695 E13.33582
G1 X77.515 Y102.977 E13.47164
G1 X77.283 Y100.239 E13.60873
G1 X76.973 Y97.506 E13.74595
G1 X76.642 Y95.119 E13.86618
G1 X76.604 Y94.451 E13.89956
G1 X76.603 Y85.348 E14.35371
G1 X76.614 Y84.64 E14.38904
G1 X76.756 Y83.535 E14.44462
G1 X77.153 Y80.757 E14.58462
G1 X77.459 Y78.064 E14.71984
G1 X77.692 Y75.351 E14.85569
G1 X77.848 Y72.603 E14.99301
G1 X77.927 Y69.85 E15.13041
G1 X77.929 Y67.106 E15.26731
G1 X77.899 Y65.746 E15.33518
G1 X77.899 Y56.643 E15.78933
G1 F2700 E10.78933
;MESH:??????10x0.3mm.stl(2)
G0 F1800 X80.434 Y56.643
G0 X81.529 Y56.643
G0 X90.389 Y62.405
G1 F2700 E15.78933
G0 F1800 X90.899 Y62.405
;TYPE:WALL-OUTER
G1 F600 X90.899 Y56.191 E16.09935
G1 X81.299 Y56.191 E16.57829
G1 X81.299 Y65.791 E17.05724
G1 X87.429 Y65.792 E17.36307
G1 X87.654 Y65.866 E17.37488
G1 X90.974 Y65.866 E17.54052
G1 X90.974 Y62.57 E17.70496
G1 X90.899 Y62.405 E17.714
G0 F1800 X90.899 Y62.205
G0 X90.389 Y62.205
G0 X88.007 Y63.007
G0 X87.423 Y65.281
G0 X87.423 Y65.391
;TYPE:WALL-INNER
G1 F600 X87.679 Y65.466 E17.72731
G1 X90.574 Y65.466 E17.87174
G1 X90.574 Y62.679 E18.01079
G1 X90.499 Y62.405 E18.02496
G1 X90.499 Y56.591 E18.31502
G1 X81.699 Y56.591 E18.75405
G1 X81.699 Y65.391 E19.19309
G1 X87.423 Y65.391 E19.47866
G0 F1800 X87.435 Y64.991
G1 F600 X87.744 Y65.066 E19.49452
G1 X90.174 Y65.066 E19.61576
G1 X90.174 Y62.744 E19.7316
G1 X90.102 Y62.494 E19.74458
G1 X90.099 Y62.297 E19.75441
G1 X90.099 Y56.991 E20.01913
G1 X82.099 Y56.991 E20.41825
G1 X82.099 Y64.991 E20.81737
G1 X87.435 Y64.991 E21.08358
G0 F1800 X87.46 Y64.611
;TYPE:SKIN
G1 F600 X88.009 Y64.686 E21.11123
G1 X89.794 Y64.686 E21.20028
G1 X89.794 Y63.024 E21.2832
G1 X89.794 Y62.8 E21.29438
G1 X89.723 Y62.511 E21.30922
G1 X89.719 Y57.371 E21.56566
G1 X82.479 Y57.371 E21.92686
G1 X82.479 Y64.611 E22.28807
G1 X87.46 Y64.611 E22.53657
G0 F1800 X83.078 Y64.411
G1 F600 X82.678 Y64.01 E22.56483
G0 F1800 X82.678 Y63.445
G1 F600 X83.644 Y64.411 E22.63299
G0 F1800 X84.21 Y64.411
G1 F600 X82.678 Y62.879 E22.74108
G0 F1800 X82.678 Y62.313
G1 F600 X84.775 Y64.411 E22.88907
G0 F1800 X85.341 Y64.411
G1 F600 X82.678 Y61.748 E23.07696
G0 F1800 X82.678 Y61.182
G1 F600 X85.907 Y64.411 E23.30478
G0 F1800 X86.472 Y64.411
G1 F600 X82.678 Y60.616 E23.5725
G0 F1800 X82.678 Y60.051
G1 F600 X87.038 Y64.411 E23.88012
G0 F1800 X87.643 Y64.449
G1 F600 X82.678 Y59.485 E24.2304
G0 F1800 X82.678 Y58.919
G1 F600 X88.244 Y64.486 E24.62314
G0 F1800 X88.81 Y64.486
G1 F600 X82.678 Y58.353 E25.05582
G0 F1800 X82.678 Y57.788
G1 F600 X89.376 Y64.486 E25.5284
G0 F1800 X89.593 Y64.138
G1 F600 X83.027 Y57.571 E25.9917
G0 F1800 X83.592 Y57.571
G1 F600 X89.593 Y63.572 E26.41511
G0 F1800 X89.593 Y63.006
G1 F600 X84.158 Y57.571 E26.79858
G0 F1800 X84.724 Y57.571
G1 F600 X89.524 Y62.371 E27.13724
G0 F1800 X89.523 Y61.805
G1 F600 X85.289 Y57.571 E27.43597
G0 F1800 X85.855 Y57.571
G1 F600 X89.523 Y61.238 E27.69474
G0 F1800 X89.522 Y60.672
G1 F600 X86.421 Y57.571 E27.91353
G0 F1800 X86.986 Y57.571
G1 F600 X89.521 Y60.106 E28.09239
G0 F1800 X89.521 Y59.539
G1 F600 X87.552 Y57.571 E28.23127
G0 F1800 X88.118 Y57.571
G1 F600 X89.52 Y58.973 E28.33019
G0 F1800 X89.519 Y58.407
G1 F600 X88.683 Y57.571 E28.38918
G0 F1800 X89.249 Y57.571
G1 F600 X89.519 Y57.84 E28.40819
G1 F2700 E23.40819
;MESH:FSwitch001.stl
G0 F1800 X90.665 Y62.798
G1 F2700 E28.40819
G0 F1800 X91.112 Y62.7
;TYPE:WALL-OUTER
G1 F600 X91.018 Y62.626 E28.41416
G1 X87.626 Y62.626 E28.58339
G1 X87.626 Y65.91 E28.74723
G1 X87.701 Y66.011 E28.7535
G1 X87.7 Y73.113 E29.10782
G1 X87.7 Y84.671 E29.68446
G1 X87.694 Y84.723 E29.68707
G1 X87.626 Y84.775 E29.69134
G1 X87.625 Y87.375 E29.82105
G1 X89.716 Y87.375 E29.92537
G1 X89.81 Y87.3 E29.93137
G1 X105.736 Y87.299 E30.72592
G1 F601.5 X106.434 Y87.3 E30.76066
G1 X113.217 Y87.3 E31.09822
G1 X120 Y87.3 E31.43578
G1 F600 X129.841 Y87.301 E31.92675
G1 X129.924 Y87.375 E31.9323
G1 X132.375 Y87.375 E32.05458
G1 X132.375 Y84.857 E32.1802
G1 X132.3 Y84.758 E32.1864
G1 X132.301 Y66.043 E33.12009
G1 X132.375 Y65.965 E33.12546
G1 X132.375 Y62.625 E33.29209
G1 X129.083 Y62.625 E33.45633
G1 X128.982 Y62.7 E33.4626
G1 X91.112 Y62.7 E35.35195
G0 F1800 X91.018 Y62.626
G0 X90.937 Y62.626
G1 F2700 E30.35195
G0 F1800 X90.389 Y62.626
G0 X103.052 Y71.731
G1 F2700 E35.35195
G0 F1800 X103.562 Y71.7
G1 F600 X103.564 Y71.28 E35.3729
G1 X103.659 Y70.862 E35.39429
G1 X103.835 Y70.488 E35.41491
G1 X104.091 Y70.153 E35.43594
G1 X104.421 Y69.876 E35.45744
G1 X104.785 Y69.687 E35.4779
G1 X105.192 Y69.575 E35.49896
G1 X105.616 Y69.555 E35.52014
G1 X106.031 Y69.625 E35.54113
G1 X106.421 Y69.782 E35.56211
G1 X106.77 Y70.022 E35.58324
G1 X107.058 Y70.328 E35.6042
G1 X107.274 Y70.691 E35.62528
G1 X107.405 Y71.089 E35.64618
G1 X107.449 Y71.509 E35.66725
G1 X107.401 Y71.929 E35.68834
G1 X107.27 Y72.312 E35.70853
G1 X106.979 Y72.759 E35.73515
G1 X106.699 Y73.029 E35.75455
G1 X106.301 Y73.269 E35.77774
G1 X105.954 Y73.391 E35.79609
G1 X105.532 Y73.443 E35.8173
G1 X105.085 Y73.396 E35.83973
G1 X104.715 Y73.278 E35.8591
G1 X104.32 Y73.042 E35.88206
G1 X103.999 Y72.73 E35.90439
G1 X103.841 Y72.524 E35.91734
G1 X103.65 Y72.114 E35.93991
G1 X103.562 Y71.7 E35.96102
G0 F1800 X103.562 Y71.5
G0 X103.041 Y71.473
G0 X103.052 Y83.731
G0 X103.562 Y83.7
G1 F600 X103.564 Y83.28 E35.98198
G1 X103.659 Y82.862 E36.00336
G1 X103.912 Y82.385 E36.0303
G1 X104.175 Y82.081 E36.05036
G1 X104.468 Y81.851 E36.06894
G1 X104.874 Y81.662 E36.09128
G1 X105.26 Y81.572 E36.11106
G1 X105.674 Y81.564 E36.13172
G1 X106.133 Y81.664 E36.15515
G1 X106.477 Y81.82 E36.174
G1 X106.837 Y82.091 E36.19648
G1 X107.058 Y82.328 E36.21264
G1 X107.274 Y82.691 E36.23372
G1 X107.405 Y83.089 E36.25462
G1 X107.449 Y83.464 E36.27346
G1 X107.401 Y83.929 E36.29678
G1 X107.27 Y84.312 E36.31698
G1 X107.046 Y84.688 E36.33881
G1 X106.754 Y84.991 E36.35981
G1 X106.403 Y85.227 E36.38091
G1 X105.976 Y85.387 E36.40366
G1 X105.596 Y85.446 E36.42284
G1 X105.176 Y85.422 E36.44383
G1 X104.769 Y85.306 E36.46494
G1 X104.399 Y85.108 E36.48588
G1 X104.078 Y84.833 E36.50697
G1 X103.826 Y84.497 E36.52792
G1 X103.65 Y84.114 E36.54895
G1 X103.562 Y83.7 E36.57007
G0 F1800 X103.562 Y83.5
G0 X103.162 Y83.702
;TYPE:WALL-INNER
G1 F600 X103.173 Y83.196 E36.59532
G1 X103.295 Y82.695 E36.62104
G1 X103.515 Y82.249 E36.64585
G1 X103.83 Y81.85 E36.67122
G1 X104.233 Y81.522 E36.69714
G1 X104.763 Y81.278 E36.72625
G1 X105.237 Y81.172 E36.75048
G1 X105.736 Y81.169 E36.77538
G1 X106.277 Y81.291 E36.80304
G1 X106.701 Y81.488 E36.82637
G1 X107.125 Y81.813 E36.85302
G1 X107.4 Y82.12 E36.87359
G1 X107.652 Y82.561 E36.89893
G1 X107.803 Y83.043 E36.92413
G1 X107.847 Y83.418 E36.94296
G1 X107.809 Y83.928 E36.96848
G1 X107.616 Y84.513 E36.99921
G1 X107.337 Y84.962 E37.02558
G1 X106.98 Y85.321 E37.05084
G1 X106.555 Y85.597 E37.07612
G1 F601.5 X106.082 Y85.775 E37.10127
G1 X105.577 Y85.846 E37.12665
G1 F600 X105.071 Y85.808 E37.15197
G1 X104.584 Y85.661 E37.17735
G1 X104.143 Y85.415 E37.20254
G1 X103.76 Y85.077 E37.22803
G1 X103.464 Y84.667 E37.25325
G1 X103.26 Y84.202 E37.27859
G1 X103.162 Y83.702 E37.30401
G0 F1800 X103.05 Y83.708
G0 X103.678 Y73.147
G0 X103.76 Y73.077
G1 F600 X103.511 Y72.749 E37.32455
G1 X103.278 Y72.265 E37.35135
G1 X103.165 Y71.767 E37.37683
G1 X103.173 Y71.196 E37.40532
G1 X103.295 Y70.695 E37.43104
G1 X103.515 Y70.249 E37.45586
G1 X103.83 Y69.85 E37.48122
G1 X104.233 Y69.522 E37.50714
G1 X104.674 Y69.303 E37.53171
G1 X105.169 Y69.175 E37.55721
G1 X105.678 Y69.16 E37.58262
G1 X106.175 Y69.252 E37.60784
G1 X106.645 Y69.45 E37.63328
G1 X107.058 Y69.744 E37.65857
G1 X107.4 Y70.12 E37.68393
G1 X107.652 Y70.561 E37.70927
G1 X107.802 Y71.043 E37.73445
G1 X107.847 Y71.55 E37.75985
G1 X107.781 Y72.055 E37.78526
G1 X107.616 Y72.513 E37.80954
G1 X107.337 Y72.962 E37.83592
G1 X106.98 Y73.321 E37.86118
G1 X106.555 Y73.597 E37.88646
G1 X106.077 Y73.776 E37.91192
G1 X105.577 Y73.846 E37.93711
G1 X105.071 Y73.807 E37.96243
G1 X104.584 Y73.661 E37.9878
G1 X104.143 Y73.415 E38.01299
G1 X103.76 Y73.077 E38.03847
G0 F1800 X103.678 Y73.147
G0 X91.1 Y63.21
G0 X91.1 Y63.1
G1 F600 X90.985 Y63.086 E38.04425
G1 X90.937 Y63.026 E38.04809
G1 X88.026 Y63.026 E38.19332
G1 X88.026 Y65.828 E38.33311
G1 X88.09 Y65.895 E38.33773
G1 X88.1 Y66.119 E38.34892
G1 X88.1 Y84.671 E39.27448
G1 X88.081 Y84.825 E39.28222
G1 X88.026 Y84.867 E39.28568
G1 X88.025 Y86.975 E39.39084
G1 X89.616 Y86.975 E39.47022
G1 X89.654 Y86.924 E39.47339
G1 X90.329 Y86.9 E39.50709
G1 X105.736 Y86.898 E40.27575
G1 F601.5 X106.434 Y86.9 E40.31048
G1 X113.217 Y86.9 E40.64804
G1 X120 Y86.9 E40.9856
G1 F600 X129.819 Y86.899 E41.47548
G1 X129.975 Y86.92 E41.48333
G1 X130.017 Y86.975 E41.48678
G1 X131.975 Y86.975 E41.58447
G1 X131.975 Y84.95 E41.68549
G1 X131.92 Y84.908 E41.68895
G1 X131.9 Y84.753 E41.69674
G1 X131.9 Y66.057 E42.62949
G1 X131.915 Y65.932 E42.63577
G1 X131.975 Y65.884 E42.6396
G1 X131.975 Y63.025 E42.78224
G1 X129.165 Y63.025 E42.92243
G1 X129.109 Y63.087 E42.9266
G1 X128.934 Y63.1 E42.93536
G1 X91.1 Y63.1 E44.8229
G0 F1800 X91.088 Y63.5
G1 F600 X90.897 Y63.476 E44.83251
G1 X90.857 Y63.426 E44.8357
G1 X88.426 Y63.426 E44.95698
G1 X88.426 Y65.746 E45.07273
G1 X88.482 Y65.818 E45.07728
G1 X88.5 Y66.119 E45.09232
G1 X88.5 Y84.671 E46.01789
G1 X88.468 Y84.927 E46.03076
G1 X88.426 Y84.959 E46.03339
G1 X88.425 Y86.575 E46.11401
G1 X89.516 Y86.575 E46.16844
G1 X89.542 Y86.54 E46.17062
G1 X89.823 Y86.5 E46.18478
G1 X104.545 Y86.5 E46.91926
G1 F431.7 X104.925 Y86.344 E46.94775
G1 X104.599 Y86.094 E46.97624
G1 F600 X104.066 Y85.842 E47.00565
G1 X103.595 Y85.479 E47.03532
G1 X103.213 Y85.02 E47.06511
G1 X102.941 Y84.496 E47.09457
G1 X102.786 Y83.92 E47.12433
G1 X102.76 Y83.329 E47.15384
G1 X102.863 Y82.735 E47.18392
G1 X103.086 Y82.191 E47.21325
G1 X103.42 Y81.707 E47.24259
G1 X103.862 Y81.294 E47.27277
G1 X104.372 Y80.996 E47.30224
G1 X104.926 Y80.814 E47.33133
G1 X105.526 Y80.754 E47.36141
G1 X106.114 Y80.824 E47.39095
G1 X106.671 Y81.015 E47.42033
G1 X107.185 Y81.331 E47.45043
G1 X107.608 Y81.739 E47.47975
G1 X107.907 Y82.185 E47.50654
G1 X108.031 Y82.432 E47.52033
G1 X108.2 Y82.996 E47.54971
G1 X108.245 Y83.591 E47.57948
G1 X108.161 Y84.18 E47.60916
G1 X107.962 Y84.714 E47.63759
G1 X107.628 Y85.236 E47.66851
G1 X107.207 Y85.651 E47.698
G1 X106.707 Y85.967 E47.72751
G1 F628.3 X106.148 Y86.152 E47.75556
G1 F469.7 X105.736 Y86.368 E47.78521
G1 X106.179 Y86.518 E47.81502
G1 F628.3 X106.811 Y86.5 E47.84515
G1 F600 X129.819 Y86.499 E48.99302
G1 X130.079 Y86.534 E49.00611
G1 X130.11 Y86.575 E49.00867
G1 X131.575 Y86.575 E49.08176
G1 X131.575 Y85.042 E49.15824
G1 X131.533 Y85.01 E49.16088
G1 X131.5 Y84.753 E49.1738
G1 X131.5 Y66.052 E50.1068
G1 X131.525 Y65.842 E50.11735
G1 X131.575 Y65.803 E50.12052
G1 X131.575 Y63.425 E50.23915
G1 X129.246 Y63.425 E50.35535
G1 X129.193 Y63.478 E50.35909
G1 X128.934 Y63.5 E50.37206
G1 X91.088 Y63.5 E52.2602
G0 F1800 X102.786 Y71.919
G1 F600 X102.76 Y71.329 E52.28966
G1 X102.863 Y70.735 E52.31974
G1 X103.086 Y70.191 E52.34907
G1 X103.42 Y69.707 E52.37841
G1 X103.862 Y69.294 E52.40859
G1 X104.372 Y68.996 E52.43806
G1 X104.926 Y68.814 E52.46715
G1 X105.526 Y68.754 E52.49724
G1 X106.114 Y68.823 E52.52677
G1 X106.671 Y69.015 E52.55617
G1 X107.184 Y69.331 E52.58623
G1 X107.608 Y69.739 E52.61558
G1 X107.938 Y70.235 E52.6453
G1 X108.153 Y70.789 E52.67495
G1 X108.244 Y71.371 E52.70434
G1 X108.206 Y71.969 E52.73424
G1 X108.047 Y72.525 E52.76309
G1 X107.811 Y72.975 E52.78844
G1 X107.561 Y73.307 E52.80917
G1 X107.152 Y73.689 E52.83709
G1 X106.707 Y73.967 E52.86327
G1 X106.143 Y74.171 E52.89319
G1 X105.558 Y74.246 E52.92262
G1 X104.965 Y74.193 E52.95232
G1 X104.484 Y74.055 E52.97728
G1 X103.963 Y73.78 E53.00668
