;FLAVOR:Marlin
;TIME:6384
;Filament used: 3.7449m
;Layer height: 0.15
;MINX:84.3
;MINY:59.3
;MINZ:0.3
;MAXX:135.699
;MAXY:149.7
;MAXZ:7.95
;Generated with Cura_SteamEngine 5.0.0
M140 S60
M105
M190 S60
M104 S200
M105
M109 S200
M82 ;absolute extrusion mode
G28 ;Home
G1 Z15.0 F6000 ;Move the platform down 15mm
;Prime the extruder
G92 E0
G1 F200 E3
G92 E0
G92 E0
G92 E0
G1 F2700 E-5
;LAYER_COUNT:52
;LAYER:0
M106 S255
G0 F1800 X84.954 Y60.582 Z0.3
G0 X84.3 Y63.131
;TYPE:SKIRT
G1 F2700 E0
G1 F600 X84.309 Y62.466 E0.03318
G1 X84.356 Y61.962 E0.05843
G1 X84.482 Y61.473 E0.08363
G1 X84.683 Y61.009 E0.10885
G1 X84.954 Y60.582 E0.13409
G1 X85.289 Y60.204 E0.15928
G1 X85.68 Y59.883 E0.18452
G1 X86.117 Y59.628 E0.20977
G1 X86.588 Y59.444 E0.23499
G1 X87.082 Y59.338 E0.2602
G1 X87.74 Y59.301 E0.29308
G1 X131.839 Y59.3 E2.49319
G1 X132.537 Y59.31 E2.52801
G1 X133.04 Y59.357 E2.55322
G1 X133.53 Y59.483 E2.57846
G1 X133.994 Y59.685 E2.60371
G1 X134.42 Y59.957 E2.62892
G1 X134.798 Y60.292 E2.65412
G1 X135.118 Y60.683 E2.67933
G1 X135.373 Y61.12 E2.70457
G1 X135.556 Y61.591 E2.72978
G1 X135.663 Y62.085 E2.755
G1 X135.699 Y62.74 E2.78773
G1 X135.699 Y130.336 E6.1601
G1 X135.685 Y131.062 E6.19633
G1 X135.636 Y131.565 E6.22155
G1 X135.507 Y132.054 E6.24678
G1 X135.304 Y132.517 E6.272
G1 X135.03 Y132.941 E6.29718
G1 X134.797 Y133.213 E6.31505
G1 X132.842 Y135.254 E6.45605
G1 X130.982 Y137.312 E6.59445
G1 X129.221 Y139.373 E6.7297
G1 X127.486 Y141.524 E6.86757
G1 X125.84 Y143.687 E7.00317
G1 X124.252 Y145.902 E7.13914
G1 X122.644 Y148.282 E7.28244
G1 X122.329 Y148.677 E7.30765
G1 X121.955 Y149.018 E7.3329
G1 X121.533 Y149.296 E7.35811
G1 X121.072 Y149.503 E7.38332
G1 X120.584 Y149.636 E7.40856
G1 X120.083 Y149.69 E7.4337
G1 X119.673 Y149.7 E7.45416
G1 X107.342 Y149.694 E8.06935
G1 X106.53 Y149.679 E8.10987
G1 X105.741 Y149.611 E8.14938
G1 X105 Y149.492 E8.18682
G1 X104.186 Y149.292 E8.22864
G1 X103.394 Y149.029 E8.27028
G1 X102.69 Y148.731 E8.30842
G1 X102.099 Y148.433 E8.34144
G1 X101.484 Y148.066 E8.37717
G1 X101.047 Y147.769 E8.40353
G1 X100.444 Y147.301 E8.44161
G1 X99.857 Y146.767 E8.4812
G1 X99.687 Y146.596 E8.49323
G1 X97.34 Y144.052 E8.66591
G1 X95.422 Y142.093 E8.80269
G1 X93.465 Y140.203 E8.93843
G1 X91.452 Y138.367 E9.07435
G1 X89.36 Y136.564 E9.21214
G1 X87.22 Y134.822 E9.3498
G1 X85.545 Y133.52 E9.45565
G1 X85.171 Y133.179 E9.4809
G1 X84.856 Y132.784 E9.5061
G1 X84.608 Y132.344 E9.5313
G1 X84.431 Y131.87 E9.55655
G1 X84.332 Y131.374 E9.58178
G1 X84.301 Y130.759 E9.6125
G1 X84.3 Y63.131 E12.98647
G1 F2700 E7.98647
;MESH:FSwitch001.stl
G0 F1800 X86.835 Y63.131
G0 X87.93 Y63.131
G1 F2700 E12.98647
G0 F1800 X87.7 Y62.7
;TYPE:WALL-OUTER
G1 F600 X87.701 Y87.299 E14.21372
G1 X132.3 Y87.3 E16.43878
G1 X132.3 Y75 E17.05243
G1 X132.3 Y62.7 E17.66608
G1 X87.7 Y62.7 E19.89118
G0 F1800 X87.7 Y62.9
G0 X88.18 Y63.18
G0 X103.061 Y71.202
G0 X103.564 Y71.28
G1 F600 X103.659 Y70.862 E19.91257
G1 X103.835 Y70.488 E19.93319
G1 X104.091 Y70.153 E19.95422
G1 X104.421 Y69.876 E19.97572
G1 X104.785 Y69.687 E19.99618
G1 X105.192 Y69.575 E20.01724
G1 X105.616 Y69.555 E20.03842
G1 X106.031 Y69.625 E20.05941
G1 X106.421 Y69.782 E20.08039
G1 X106.77 Y70.022 E20.10152
G1 X107.058 Y70.328 E20.12248
G1 X107.274 Y70.691 E20.14356
G1 X107.405 Y71.089 E20.16446
G1 X107.45 Y71.487 E20.18444
G1 X107.401 Y71.929 E20.20663
G1 X107.27 Y72.312 E20.22683
G1 X106.979 Y72.759 E20.25344
G1 X106.699 Y73.029 E20.27284
G1 X106.301 Y73.269 E20.29603
G1 X105.954 Y73.391 E20.31438
G1 X105.532 Y73.443 E20.33559
G1 X105.085 Y73.396 E20.35802
G1 X104.715 Y73.278 E20.37739
G1 X104.32 Y73.042 E20.40035
G1 X103.999 Y72.73 E20.42268
G1 X103.826 Y72.497 E20.43716
G1 X103.65 Y72.114 E20.45819
G1 X103.562 Y71.7 E20.4793
G1 X103.564 Y71.28 E20.50026
G0 F1800 X103.608 Y71.085
G0 X103.105 Y70.946
G0 X103.052 Y83.731
G0 X103.562 Y83.7
G1 F600 X103.564 Y83.28 E20.52121
G1 X103.659 Y82.862 E20.5426
G1 X103.912 Y82.385 E20.56954
G1 X104.175 Y82.081 E20.58959
G1 X104.468 Y81.851 E20.60817
G1 X104.874 Y81.662 E20.63052
G1 X105.26 Y81.572 E20.65029
G1 X105.674 Y81.564 E20.67095
G1 X106.133 Y81.664 E20.69439
G1 X106.477 Y81.82 E20.71323
G1 X106.837 Y82.091 E20.73571
G1 X107.058 Y82.328 E20.75188
G1 X107.274 Y82.691 E20.77295
G1 X107.405 Y83.089 E20.79386
G1 X107.449 Y83.464 E20.81269
G1 X107.401 Y83.929 E20.83602
G1 X107.27 Y84.312 E20.85621
G1 X107.046 Y84.688 E20.87805
G1 X106.754 Y84.991 E20.89904
G1 X106.403 Y85.227 E20.92014
G1 X105.976 Y85.387 E20.94289
G1 X105.596 Y85.446 E20.96208
G1 X105.176 Y85.422 E20.98306
G1 X104.769 Y85.306 E21.00418
G1 X104.399 Y85.108 E21.02511
G1 X104.078 Y84.833 E21.0462
G1 X103.826 Y84.497 E21.06716
G1 X103.65 Y84.114 E21.08818
G1 X103.562 Y83.7 E21.1093
G0 F1800 X103.562 Y83.5
G0 X103.162 Y83.702
;TYPE:WALL-INNER
G1 F600 X103.173 Y83.196 E21.13455
G1 X103.295 Y82.695 E21.16028
G1 X103.515 Y82.249 E21.18509
G1 X103.83 Y81.85 E21.21045
G1 X104.233 Y81.522 E21.23637
G1 X104.763 Y81.278 E21.26548
G1 X105.237 Y81.172 E21.28971
G1 X105.736 Y81.169 E21.31461
G1 X106.277 Y81.291 E21.34228
G1 X106.701 Y81.488 E21.3656
G1 X107.125 Y81.813 E21.39226
G1 X107.4 Y82.12 E21.41282
G1 X107.652 Y82.561 E21.43816
G1 X107.803 Y83.043 E21.46336
G1 X107.847 Y83.418 E21.4822
G1 X107.809 Y83.928 E21.50771
G1 X107.616 Y84.513 E21.53844
G1 X107.337 Y84.962 E21.56482
G1 X106.98 Y85.321 E21.59008
G1 X106.555 Y85.597 E21.61536
G1 F601.5 X106.082 Y85.775 E21.64051
G1 X105.577 Y85.846 E21.66589
G1 F600 X105.071 Y85.808 E21.6912
G1 X104.584 Y85.661 E21.71658
G1 X104.143 Y85.415 E21.74178
G1 X103.76 Y85.077 E21.76726
G1 X103.464 Y84.667 E21.79249
G1 X103.26 Y84.202 E21.81782
G1 X103.162 Y83.702 E21.84324
G0 F1800 X103.05 Y83.708
G0 X103.366 Y72.719
G0 X103.464 Y72.667
G1 F600 X103.26 Y72.202 E21.86857
G1 X103.162 Y71.702 E21.89399
G1 X103.173 Y71.196 E21.91924
G1 X103.295 Y70.695 E21.94497
G1 X103.515 Y70.249 E21.96978
G1 X103.83 Y69.85 E21.99514
G1 X104.233 Y69.522 E22.02107
G1 X104.674 Y69.303 E22.04563
G1 X105.169 Y69.175 E22.07114
G1 X105.678 Y69.16 E22.09654
G1 X106.175 Y69.252 E22.12176
G1 X106.645 Y69.45 E22.14721
G1 X107.058 Y69.744 E22.1725
G1 X107.4 Y70.12 E22.19786
G1 X107.652 Y70.561 E22.2232
G1 X107.802 Y71.043 E22.24838
G1 X107.85 Y71.487 E22.27066
G1 X107.792 Y72.017 E22.29726
G1 X107.616 Y72.513 E22.32352
G1 X107.337 Y72.962 E22.34989
G1 X106.98 Y73.321 E22.37515
G1 X106.555 Y73.597 E22.40043
G1 X106.077 Y73.776 E22.4259
G1 X105.577 Y73.846 E22.45109
G1 X105.071 Y73.807 E22.4764
G1 X104.584 Y73.661 E22.50177
G1 X104.143 Y73.415 E22.52696
G1 X103.76 Y73.077 E22.55245
G1 X103.464 Y72.667 E22.57768
G0 F1800 X103.366 Y72.719
G0 X88.18 Y63.18
G0 X88.1 Y63.1
G1 F600 X88.101 Y86.899 E23.76501
G1 X105.606 Y86.9 E24.63834
G1 X131.9 Y86.9 E25.95015
G1 X131.9 Y75 E26.54385
G1 X131.9 Y63.1 E27.13754
G1 X88.1 Y63.1 E29.32273
G0 F1800 X88.18 Y63.18
G0 X102.76 Y71.329
G1 F600 X102.863 Y70.735 E29.35281
G1 X103.086 Y70.191 E29.38214
G1 X103.42 Y69.707 E29.41148
G1 X103.862 Y69.294 E29.44166
G1 X104.372 Y68.996 E29.47113
G1 X104.926 Y68.814 E29.50022
G1 X105.526 Y68.754 E29.5303
G1 X106.114 Y68.823 E29.55984
G1 X106.671 Y69.015 E29.58923
G1 X107.184 Y69.331 E29.61929
G1 X107.608 Y69.739 E29.64865
G1 X107.938 Y70.235 E29.67837
G1 X108.153 Y70.789 E29.70802
G1 X108.244 Y71.371 E29.73741
G1 X108.25 Y71.486 E29.74315
G1 X108.195 Y72.047 E29.77128
G1 X108.047 Y72.525 E29.79624
G1 X107.811 Y72.975 E29.82159
G1 X107.561 Y73.307 E29.84233
G1 X107.152 Y73.689 E29.87025
G1 X106.707 Y73.967 E29.89642
G1 X106.143 Y74.171 E29.92635
G1 X105.558 Y74.246 E29.95577
G1 X104.965 Y74.193 E29.98547
G1 X104.484 Y74.055 E30.01044
G1 X103.963 Y73.78 E30.03983
G1 X103.538 Y73.427 E30.06739
G1 X103.213 Y73.02 E30.09338
G1 X102.941 Y72.495 E30.12288
G1 X102.786 Y71.919 E30.15264
G1 X102.76 Y71.329 E30.1821
G0 F1800 X103.086 Y82.191
G1 F600 X103.42 Y81.707 E30.21144
G1 X103.862 Y81.294 E30.24162
G1 X104.372 Y80.996 E30.27109
G1 X104.926 Y80.814 E30.30018
G1 X105.526 Y80.754 E30.33026
G1 X106.114 Y80.824 E30.35981
G1 X106.671 Y81.015 E30.38918
G1 X107.185 Y81.331 E30.41929
G1 X107.608 Y81.739 E30.44861
G1 X107.907 Y82.185 E30.47539
G1 X108.031 Y82.432 E30.48918
G1 X108.2 Y82.996 E30.51856
G1 X108.245 Y83.591 E30.54833
G1 X108.161 Y84.18 E30.57801
G1 X107.962 Y84.714 E30.60644
G1 X107.628 Y85.236 E30.63736
G1 X107.207 Y85.651 E30.66685
G1 X106.707 Y85.967 E30.69636
G1 F628.3 X106.148 Y86.152 E30.72441
G1 F469.7 X105.736 Y86.368 E30.75406
G1 X106.179 Y86.518 E30.78387
G1 F628.3 X106.811 Y86.5 E30.814
G1 F600 X131.5 Y86.5 E32.04574
G1 X131.5 Y75 E32.61947
G1 X131.5 Y63.5 E33.19321
G1 X88.5 Y63.5 E35.33849
G1 X88.501 Y86.499 E36.48591
G1 X104.545 Y86.5 E37.28635
G1 F431.7 X104.925 Y86.344 E37.31484
G1 X104.599 Y86.094 E37.34333
G1 F600 X104.066 Y85.842 E37.37274
G1 X103.595 Y85.479 E37.40241
G1 X103.213 Y85.02 E37.4322
G1 X102.941 Y84.496 E37.46166
G1 X102.786 Y83.92 E37.49142
G1 X102.76 Y83.329 E37.52093
G1 X102.863 Y82.735 E37.55101
G1 X103.086 Y82.191 E37.58034
G0 F1800 X103.116 Y83.775
G0 X103.684 Y85.038
G0 X104.925 Y86.344
G1 F346.8 X105.175 Y86.363 E37.60198
G1 F360.9 X105.736 Y86.368 E37.64851
G0 F1800 X104.136 Y85.442
G0 X102.418 Y84.015
;TYPE:SKIN
G1 F600 X102.38 Y83.342 E37.68214
G1 X102.491 Y82.649 E37.71715
G1 X102.738 Y82.037 E37.75008
G1 X102.973 Y81.67 E37.77182
G1 X103.303 Y81.275 E37.7975
G1 X103.723 Y80.922 E37.82487
G1 X104.201 Y80.655 E37.85219
G1 X104.813 Y80.45 E37.88439
G1 X105.219 Y80.392 E37.90485
G1 X105.789 Y80.387 E37.93329
G1 X106.311 Y80.477 E37.95972
G1 X106.832 Y80.669 E37.98742
G1 X107.351 Y80.985 E38.01773
G1 X107.694 Y81.28 E38.0403
G1 X108.058 Y81.702 E38.06811
G1 X108.382 Y82.291 E38.10164
G1 X108.571 Y82.919 E38.13436
G1 X108.624 Y83.595 E38.16819
G1 X108.529 Y84.27 E38.2022
G1 X108.307 Y84.875 E38.23435
G1 X107.927 Y85.468 E38.26949
G1 X107.448 Y85.946 E38.30325
G1 X107.174 Y86.119 E38.31942
G1 X131.12 Y86.12 E39.51409
G1 X131.12 Y75 E40.06887
G1 X131.12 Y63.88 E40.62365
G1 X88.881 Y63.88 E42.73096
G1 X88.882 Y86.119 E43.84047
G1 X103.806 Y86.119 E44.58503
G1 X103.356 Y85.777 E44.61323
G1 X102.917 Y85.259 E44.6471
G1 X102.6 Y84.664 E44.68074
G1 X102.418 Y84.015 E44.71436
G0 F1800 X103.055 Y73.44
G1 F600 X102.763 Y73.01 E44.7403
G1 X102.51 Y72.408 E44.77287
G1 X102.385 Y71.743 E44.80663
G1 X102.406 Y71.067 E44.84037
G1 X102.575 Y70.4 E44.8747
G1 X102.872 Y69.811 E44.90761
G1 X103.297 Y69.283 E44.94143
G1 X103.837 Y68.852 E44.9759
G1 X104.427 Y68.562 E45.0087
G1 X104.959 Y68.417 E45.03621
G1 X105.763 Y68.387 E45.07635
G1 X106.423 Y68.516 E45.1099
G1 X107.05 Y68.785 E45.14394
G1 X107.595 Y69.179 E45.17749
G1 X108.046 Y69.687 E45.21138
G1 X108.382 Y70.29 E45.24582
G1 X108.57 Y70.919 E45.27857
G1 X108.629 Y71.463 E45.30587
G1 X108.63 Y71.483 E45.30687
G1 X108.577 Y72.086 E45.33707
G1 X108.408 Y72.641 E45.36601
G1 X108.144 Y73.159 E45.39502
G1 X107.839 Y73.569 E45.42051
G1 X107.377 Y73.997 E45.45193
G1 X106.878 Y74.304 E45.48116
G1 X106.369 Y74.509 E45.50854
G1 X105.834 Y74.607 E45.53567
G1 X105.236 Y74.6 E45.56551
G1 X104.714 Y74.517 E45.59188
G1 X104.326 Y74.4 E45.6121
G1 X103.879 Y74.173 E45.63711
G1 X103.358 Y73.776 E45.66979
G1 X103.055 Y73.44 E45.69236
G0 F1800 X89.313 Y85.919
G1 F600 X89.08 Y85.686 E45.7088
G0 F1800 X89.08 Y85.12
G1 F600 X89.878 Y85.919 E45.76514
G0 F1800 X90.444 Y85.919
G1 F600 X89.08 Y84.555 E45.86138
G0 F1800 X89.08 Y83.989
G1 F600 X91.01 Y85.919 E45.99755
G0 F1800 X91.575 Y85.919
G1 F600 X89.08 Y83.423 E46.17362
G0 F1800 X89.08 Y82.858
G1 F600 X92.141 Y85.919 E46.38959
G0 F1800 X92.707 Y85.919
G1 F600 X89.08 Y82.292 E46.64549
G0 F1800 X89.08 Y81.726
G1 F600 X93.273 Y85.919 E46.94133
G0 F1800 X93.838 Y85.919
G1 F600 X89.08 Y81.161 E47.27704
G0 F1800 X89.08 Y80.595
G1 F600 X94.404 Y85.919 E47.65267
G0 F1800 X94.97 Y85.919
G1 F600 X89.08 Y80.029 E48.06824
G0 F1800 X89.08 Y79.463
G1 F600 X95.535 Y85.919 E48.52371
G0 F1800 X96.101 Y85.919
G1 F600 X89.08 Y78.898 E49.01908
G0 F1800 X89.08 Y78.332
G1 F600 X96.667 Y85.919 E49.55439
G0 F1800 X97.232 Y85.919
G1 F600 X89.08 Y77.766 E50.12959
G0 F1800 X89.08 Y77.201
G1 F600 X97.798 Y85.919 E50.74469
G0 F1800 X98.364 Y85.919
G1 F600 X89.08 Y76.635 E51.39973
G0 F1800 X89.08 Y76.069
G1 F600 X98.929 Y85.919 E52.09466
G0 F1800 X99.495 Y85.919
G1 F600 X89.08 Y75.504 E52.8295
G0 F1800 X89.08 Y74.938
G1 F600 X100.061 Y85.919 E53.60427
G0 F1800 X100.626 Y85.919
G1 F600 X89.08 Y74.372 E54.41893
G0 F1800 X89.08 Y73.807
G1 F600 X101.192 Y85.919 E55.2735
G0 F1800 X101.758 Y85.919
G1 F600 X89.08 Y73.241 E56.168
G0 F1800 X89.08 Y72.675
G1 F600 X102.324 Y85.919 E57.10244
G0 F1800 X102.889 Y85.919
G1 F600 X89.08 Y72.11 E58.07674
G0 F1800 X89.08 Y71.544
G1 F600 X102.574 Y85.038 E59.02881
G1 X102.644 Y85.108
G0 F1800 X102.254 Y84.152
G1 F600 X89.08 Y70.978 E59.95831
G0 F1800 X89.08 Y70.412
G1 F600 X102.193 Y83.526 E60.88354
G0 F1800 X102.232 Y82.999
G1 F600 X89.08 Y69.847 E61.81148
G0 F1800 X89.08 Y69.281
G1 F600 X102.321 Y82.522 E62.74571
G0 F1800 X102.486 Y82.121
G1 F600 X89.08 Y68.715 E63.69157
G0 F1800 X89.08 Y68.15
G1 F600 X102.683 Y81.752 E64.6513
G0 F1800 X102.92 Y81.424
G1 F600 X89.08 Y67.584 E65.62779
G0 F1800 X89.08 Y67.018
G1 F600 X103.179 Y81.117 E66.62255
G0 F1800 X103.486 Y80.859
G1 F600 X89.08 Y66.453 E67.63897
G0 F1800 X89.08 Y65.887
G1 F600 X103.826 Y80.633 E68.67938
G0 F1800 X104.201 Y80.442
G1 F600 X89.08 Y65.321 E69.74625
G0 F1800 X89.08 Y64.756
G1 F600 X104.624 Y80.3 E70.84296
G0 F1800 X105.094 Y80.204
G1 F600 X89.08 Y64.19 E71.97284
G0 F1800 X89.535 Y64.08
G1 F600 X105.645 Y80.189 E73.10945
G0 F1800 X106.295 Y80.273
G1 F600 X90.101 Y64.08 E74.25199
G0 F1800 X90.667 Y64.08
G1 F600 X107.316 Y80.728 E75.42663
G1 X107.386 Y80.798
G0 F1800 X108.28 Y81.693
G1 F600 X112.507 Y85.919 E75.72483
G0 F1800 X113.072 Y85.919
G1 F600 X91.233 Y64.08 E77.26569
G0 F1800 X91.798 Y64.08
G1 F600 X113.638 Y85.919 E78.80659
G0 F1800 X114.204 Y85.919
G1 F600 X92.364 Y64.08 E80.34748
G0 F1800 X92.93 Y64.08
G1 F600 X114.769 Y85.919 E81.88834
G0 F1800 X115.335 Y85.919
G1 F600 X103.717 Y74.302 E82.70802
G1 X103.647 Y74.232
G0 F1800 X104.701 Y74.719
G1 F600 X115.901 Y85.919 E83.49824
G0 F1800 X116.466 Y85.919
G1 F600 X105.356 Y74.809 E84.28211
G0 F1800 X105.909 Y74.797
G1 F600 X117.032 Y85.919 E85.06686
G0 F1800 X117.598 Y85.919
G1 F600 X106.385 Y74.707 E85.85796
G0 F1800 X106.797 Y74.553
G1 F600 X118.163 Y85.919 E86.6599
G0 F1800 X118.729 Y85.919
G1 F600 X107.168 Y74.358 E87.47559
G0 F1800 X107.514 Y74.139
G1 F600 X119.295 Y85.919 E88.30676
G0 F1800 X119.86 Y85.919
G1 F600 X107.809 Y73.867 E89.15706
G0 F1800 X108.081 Y73.575
G1 F600 X120.426 Y85.919 E90.02803
G0 F1800 X120.992 Y85.919
G1 F600 X108.321 Y73.249 E90.92201
G0 F1800 X108.513 Y72.875
G1 F600 X121.558 Y85.919 E91.84237
G0 F1800 X122.123 Y85.919
G1 F600 X108.668 Y72.465 E92.79165
G0 F1800 X108.781 Y72.011
G1 F600 X122.689 Y85.919 E93.77294
G0 F1800 X123.255 Y85.919
G1 F600 X108.827 Y71.492 E94.79088
G0 F1800 X108.75 Y70.849
G1 F600 X123.82 Y85.919 E95.85415
G0 F1800 X124.386 Y85.919
G1 F600 X108.419 Y69.952 E96.9807
G1 X108.349 Y69.882
G0 F1800 X107.034 Y68.568
G1 F600 X102.546 Y64.08 E97.29736
G0 F1800 X101.981 Y64.08
G1 F600 X106.162 Y68.261 E97.59235
G0 F1800 X105.536 Y68.201
G1 F600 X101.415 Y64.08 E97.88311
G0 F1800 X100.849 Y64.08
G1 F600 X104.984 Y68.214 E98.17482
G0 F1800 X104.528 Y68.324
G1 F600 X100.284 Y64.08 E98.47426
G0 F1800 X99.718 Y64.08
G1 F600 X104.126 Y68.488 E98.78526
G0 F1800 X103.748 Y68.676
G1 F600 X99.152 Y64.08 E99.10954
G0 F1800 X98.586 Y64.08
G1 F600 X103.428 Y68.921 E99.45113
G0 F1800 X103.127 Y69.186
G1 F600 X98.021 Y64.08 E99.81139
G0 F1800 X97.455 Y64.08
G1 F600 X102.869 Y69.494 E100.19337
G0 F1800 X102.642 Y69.833
G1 F600 X96.889 Y64.08 E100.59928
G0 F1800 X96.324 Y64.08
G1 F600 X102.447 Y70.202 E101.03125
G0 F1800 X102.311 Y70.632
G1 F600 X95.758 Y64.08 E101.49357
G0 F1800 X95.192 Y64.08
G1 F600 X102.211 Y71.098 E101.98876
G0 F1800 X102.184 Y71.636
G1 F600 X94.627 Y64.08 E102.52191
G0 F1800 X94.061 Y64.08
G1 F600 X102.283 Y72.302 E103.10202
G1 X102.353 Y72.372
G0 F1800 X102.733 Y73.317
G1 F600 X93.495 Y64.08 E103.75378
G1 X93.425 Y64.01
