;FLAVOR:Marlin
;TIME:172
;Filament used: 0.111373m
;Layer height: 0.18
;MINX:100.2
;MINY:107.7
;MINZ:0.3
;MAXX:119.8
;MAXY:112.3
;MAXZ:4.08
;Generated with Cura_SteamEngine 5.0.0
M140 S100
M105
M190 S100
M104 S230
M105
M109 S230
M82 ;absolute extrusion mode
G28 ;Home
G1 Z15.0 F6000 ;Move the platform down 15mm
;Prime the extruder
G92 E0
G1 F200 E3
G92 E0
G92 E0
G92 E0
G1 F2700 E-5
;LAYER_COUNT:22
;LAYER:0
M107
;MESH:M2?????????Holder.stl
G0 F3600 X107 Y108.75 Z0.3
;TYPE:WALL-OUTER
G1 F2700 E0
G1 F1010.5 X106.5 Y108.725 E0.04449
G1 F1129.4 X106 Y108.7 E0.08429
G1 F1200 X100.2 Y108.7 E0.51834
G1 X100.2 Y111.3 E0.71291
G1 X106 Y111.3 E1.14696
G1 F1129.4 X106.5 Y111.275 E1.18676
G1 F1010.5 X107 Y111.25 E1.23125
G1 F958.1 X107.044 Y111.251 E1.23538
G1 F1064.3 X107.201 Y111.5 E1.26021
G1 F1200 X107.201 Y112.299 E1.32001
G1 X112.8 Y112.3 E1.73901
G1 X112.8 Y111.487 E1.79985
G1 F1061.9 X112.956 Y111.251 E1.82377
G1 F956.2 X113 Y111.25 E1.82791
G1 F1010.5 X113.5 Y111.275 E1.8724
G1 F1129.4 X114 Y111.3 E1.9122
G1 F1200 X119.8 Y111.3 E2.34625
G1 X119.8 Y108.7 E2.54082
G1 X114 Y108.7 E2.97486
G1 F1064.3 X113.087 Y108.751 E3.05202
G1 F958.1 X113 Y108.75 E3.06018
G1 F1066.7 X112.8 Y108.5 E3.08713
G1 F1200 X112.8 Y107.7 E3.147
G1 X108.542 Y107.7 E3.46565
G1 X107.201 Y107.701 E3.566
G1 X107.201 Y108.5 E3.62579
G1 F1066.7 X107 Y108.75 E3.6528
G0 F3600 X106.801 Y108.741
G0 X106.22 Y109.28
G0 X107.35 Y108.951
G0 X108.45 Y109.3
G1 F1200 X108.45 Y108.729 E3.69553
G1 X108.47 Y108.662 E3.70076
G1 X108.65 Y108.55 E3.71663
G1 X111.35 Y108.55 E3.91868
G1 X111.541 Y108.69 E3.93641
G1 X111.55 Y109.3 E3.98206
G1 X112.181 Y109.3 E4.02928
G1 F1066.7 X113 Y109.25 E4.09836
G1 F958.1 X113.044 Y109.251 E4.10249
G1 F1064.3 X113.2 Y109.5 E4.12728
G1 F1200 X113.2 Y110.5 E4.20211
G1 F1066.7 X113 Y110.75 E4.22907
G1 X112.181 Y110.7 E4.29815
G1 F1200 X111.55 Y110.7 E4.34537
G1 X111.55 Y111.271 E4.3881
G1 X111.53 Y111.338 E4.39333
G1 X111.35 Y111.45 E4.4092
G1 X108.65 Y111.45 E4.61125
G1 X108.455 Y111.297 E4.6298
G1 X108.45 Y110.7 E4.67448
G1 X107.819 Y110.7 E4.7217
G1 F1064.3 X107.087 Y110.751 E4.78361
G1 F958.1 X107 Y110.75 E4.79177
G1 F1066.7 X106.8 Y110.5 E4.81872
G1 F1200 X106.8 Y109.5 E4.89356
G1 F1061.9 X106.956 Y109.251 E4.91841
G1 X107.819 Y109.3 E4.9915
G1 F1200 X108.45 Y109.3 E5.03872
G0 F3600 X108.45 Y109.1
G0 X108.542 Y108.129
;TYPE:WALL-INNER
G1 F1054.9 X108.65 Y108.125 E5.04792
G1 F1066.7 X111.35 Y108.125 E5.27524
G1 F1045.8 X111.92 Y108.472 E5.33254
G1 F1061.9 X111.967 Y108.883 E5.36752
G1 F1103.4 X112.713 Y108.883 E5.42823
G1 X112.394 Y108.622 E5.46178
G1 F1061.9 X112.366 Y108.134 E5.50311
G1 F1034.5 X111.858 Y108.13 E5.54721
G1 F1057.3 X111.35 Y108.125 E5.59036
G0 F3600 X112.13 Y108.28
G0 X113.438 Y109.062
G0 X113.81 Y110.5
G0 X113.6 Y110.5
G1 F1200 X113.2 Y110.9 E5.6327
G1 X119.4 Y110.9 E6.09668
G1 X119.4 Y109.1 E6.23138
G1 X113.266 Y109.1 E6.69042
G1 X113.6 Y109.5 E6.72942
G1 X113.6 Y110.5 E6.80425
G0 F3600 X113.81 Y110.5
G0 X112.562 Y111.062
G0 X111.458 Y111.871
G1 F1054.9 X111.35 Y111.875 E6.81345
G1 F1066.7 X108.65 Y111.875 E7.04076
G0 F3600 X107.87 Y111.72
G0 X107.339 Y111.117
G1 F1103.4 X107.606 Y111.378 E7.07115
G1 F1064.3 X107.635 Y111.865 E7.11232
G1 F1036.7 X108.143 Y111.87 E7.15632
G1 F1057.3 X108.651 Y111.875 E7.19947
G1 F1045.8 X108.079 Y111.529 E7.25688
G1 F1064.3 X108.033 Y111.117 E7.29186
G1 F1103.4 X107.339 Y111.117 E7.34834
G0 F3600 X107.78 Y111.28
G0 X106.562 Y110.938
G0 X106.19 Y109.5
G0 X106.4 Y109.5
G1 F1200 X106.736 Y109.1 E7.38743
G1 X100.6 Y109.1 E7.84662
G1 X100.6 Y110.9 E7.98133
G1 X106.8 Y110.9 E8.4453
G1 X106.4 Y110.5 E8.48764
G1 X106.4 Y109.5 E8.56247
G0 F3600 X106.19 Y109.5
G0 X107.35 Y108.951
G0 X107.287 Y108.883
G1 F1103.4 X108.033 Y108.883 E8.62318
G1 F1064.3 X108.079 Y108.471 E8.65816
G1 F1034.5 X108.542 Y108.129 E8.70813
G1 X107.869 Y108.135 E8.76656
G1 F1025.6 X107.635 Y108.135 E8.78705
G1 F1064.3 X107.606 Y108.622 E8.82821
G1 F1103.4 X107.287 Y108.883 E8.86175
G0 F3600 X107.78 Y108.72
G0 X106.562 Y109.062
G0 X106.562 Y110.938
G0 X108.212 Y110.938
G0 X112.13 Y111.72
G0 X111.458 Y111.871
G1 F1034.5 X112.366 Y111.866 E8.94058
G1 F1061.9 X112.394 Y111.378 E8.98191
G1 F1103.4 X112.663 Y111.117 E9.01242
G1 X111.967 Y111.117 E9.06906
G1 F1061.9 X111.92 Y111.528 E9.10404
G1 F1034.5 X111.458 Y111.871 E9.15399
G0 F3600 X112.13 Y111.72
G0 X113.438 Y110.938
G0 X114 Y109.5
G1 F1200 X114 Y110.5 E9.22883
G1 X119 Y110.5 E9.603
G1 X119 Y109.5 E9.67784
G1 X114 Y109.5 E10.05201
G0 F3600 X111.788 Y109.062
G0 X108.212 Y108.312
G0 X106.562 Y109.062
G0 X106 Y109.5
G1 F1200 X101 Y109.5 E10.42619
G1 X101 Y110.5 E10.50103
G1 X106 Y110.5 E10.8752
G1 X106 Y109.5 E10.95004
G0 F3600 X105.5 Y110
G1 F800 X101.5 Y110 E11.39905
G0 F3600 X106.562 Y109.062
G0 X108.212 Y109.062
G0 X111.788 Y108.312
G0 X113.438 Y109.062
G0 X114.5 Y110
G1 F800 X118.5 Y110 E11.84806
;MESH:NONMESH
G0 F600 X118.5 Y110 Z0.48
G0 F3600 X113.438 Y109.062
G0 X111.788 Y109.062
G0 X108.212 Y108.312
G0 X107 Y108.75
;TIME_ELAPSED:13.515856
;LAYER:1
M106 S255
;TYPE:WALL-OUTER
;MESH:M2?????????Holder.stl
G1 F1136.8 X106.5 Y108.725 E11.86586
G1 F1270.6 X106 Y108.7 E11.88178
G1 F1350 X100.2 Y108.7 E12.0554
G1 X100.2 Y111.3 E12.13323
G1 X106 Y111.3 E12.30684
G1 F1270.6 X106.5 Y111.275 E12.32277
G1 F1136.8 X107 Y111.25 E12.34056
G1 F1077.8 X107.044 Y111.251 E12.34221
G1 F1197.3 X107.201 Y111.5 E12.35215
G1 F1350 X107.201 Y112.299 E12.37606
G1 X112.8 Y112.3 E12.54367
G1 X112.8 Y111.487 E12.568
G1 F1194.7 X112.956 Y111.251 E12.57757
G1 F1075.7 X113 Y111.25 E12.57922
G1 F1136.8 X113.5 Y111.275 E12.59702
G1 F1270.6 X114 Y111.3 E12.61294
G1 F1350 X119.8 Y111.3 E12.78656
G1 X119.8 Y110 E12.82548
G1 X119.8 Y108.7 E12.86439
G1 X114 Y108.7 E13.03801
G1 F1197.3 X113.087 Y108.751 E13.06887
G1 F1077.8 X113 Y108.75 E13.07213
G1 F1200 X112.8 Y108.5 E13.08291
G1 F1350 X112.8 Y107.7 E13.10686
G1 X107.201 Y107.701 E13.27446
G1 X107.201 Y108.5 E13.29838
G1 F1200 X107 Y108.75 E13.30918
G0 F6300 X106.801 Y108.741
G0 X106.22 Y109.28
G0 X107.35 Y108.951
G0 X108.45 Y109.3
G1 F1350 X108.45 Y108.729 E13.32627
G1 X108.47 Y108.662 E13.32837
G1 X108.65 Y108.55 E13.33471
G1 X111.35 Y108.55 E13.41554
G1 X111.541 Y108.69 E13.42262
G1 X111.55 Y109.3 E13.44089
G1 X112.181 Y109.3 E13.45977
G1 F1200 X113 Y109.25 E13.48741
G1 F1077.8 X113.044 Y109.251 E13.48906
G1 F1197.3 X113.2 Y109.5 E13.49897
G1 F1350 X113.2 Y110.5 E13.52891
G1 F1200 X113 Y110.75 E13.53969
G1 X112.181 Y110.7 E13.56732
G1 F1350 X111.55 Y110.7 E13.58621
G1 X111.55 Y111.271 E13.6033
G1 X111.53 Y111.338 E13.60539
G1 X111.35 Y111.45 E13.61174
G1 X108.65 Y111.45 E13.69256
G1 X108.455 Y111.297 E13.69998
G1 X108.45 Y110.7 E13.71785
G1 X107.819 Y110.7 E13.73674
G1 F1197.3 X107.087 Y110.751 E13.76151
G1 F1077.8 X107 Y110.75 E13.76477
G1 F1200 X106.8 Y110.5 E13.77555
G1 F1350 X106.8 Y109.5 E13.80549
G1 F1194.7 X106.956 Y109.251 E13.81542
G1 X107.819 Y109.3 E13.84466
G1 F1350 X108.45 Y109.3 E13.86355
G0 F6300 X108.45 Y109.1
G0 X108.542 Y108.129
;TYPE:WALL-INNER
G1 F1186.8 X108.65 Y108.125 E13.86723
G1 F1200 X111.35 Y108.125 E13.95816
G1 F1176.5 X111.92 Y108.472 E13.98108
G1 F1194.7 X111.967 Y108.883 E13.99507
G1 F1241.4 X112.713 Y108.883 E14.01936
G1 X112.394 Y108.622 E14.03277
G1 F1194.7 X112.366 Y108.134 E14.04931
G1 F1163.8 X111.858 Y108.13 E14.06695
G1 F1189.4 X111.35 Y108.125 E14.08421
G0 F6300 X112.13 Y108.28
G0 X113.438 Y109.062
G0 X113.81 Y110.5
G0 X113.6 Y110.5
G1 F1350 X113.2 Y110.9 E14.10114
G1 X119.4 Y110.9 E14.28673
G1 X119.4 Y110 E14.31367
G1 X119.4 Y109.1 E14.34061
G1 X113.266 Y109.1 E14.52423
G1 X113.6 Y109.5 E14.53983
G1 X113.6 Y110.5 E14.56976
G0 F6300 X113.81 Y110.5
G0 X112.562 Y111.062
G0 X111.458 Y111.871
G1 F1186.8 X111.35 Y111.875 E14.57344
G1 F1200 X108.65 Y111.875 E14.66437
G0 F6300 X107.87 Y111.72
G0 X107.339 Y111.117
G1 F1241.4 X107.606 Y111.378 E14.67652
G1 F1197.3 X107.635 Y111.865 E14.69299
G1 F1166.3 X108.143 Y111.87 E14.71059
G1 F1189.4 X108.651 Y111.875 E14.72785
G1 F1176.5 X108.079 Y111.529 E14.75081
G1 F1197.3 X108.033 Y111.117 E14.76481
G1 F1241.4 X107.339 Y111.117 E14.7874
G0 F6300 X107.78 Y111.28
G0 X106.562 Y110.938
G0 X106.19 Y109.5
G0 X106.4 Y109.5
G1 F1350 X106.736 Y109.1 E14.80303
G1 X100.6 Y109.1 E14.98671
G1 X100.6 Y110.9 E15.04059
G1 X106.8 Y110.9 E15.22618
G1 X106.4 Y110.5 E15.24312
G1 X106.4 Y109.5 E15.27305
G0 F6300 X106.19 Y109.5
G0 X107.35 Y108.951
G0 X107.287 Y108.883
G1 F1241.4 X108.033 Y108.883 E15.29734
G1 F1197.3 X108.079 Y108.471 E15.31133
G1 F1163.8 X108.542 Y108.129 E15.33131
G1 X107.869 Y108.135 E15.35468
G1 F1153.8 X107.635 Y108.135 E15.36288
G1 F1197.3 X107.606 Y108.622 E15.37935
G1 F1241.4 X107.287 Y108.883 E15.39276
G0 F6300 X107.78 Y108.72
G0 X106.562 Y109.062
G0 X106.562 Y110.938
G0 X108.212 Y110.938
G0 X112.13 Y111.72
G0 X111.458 Y111.871
G1 F1163.8 X112.366 Y111.866 E15.42429
G1 F1194.7 X112.394 Y111.378 E15.44083
G1 F1241.4 X112.663 Y111.117 E15.45303
G1 X111.967 Y111.117 E15.47569
G1 F1194.7 X111.92 Y111.528 E15.48968
G1 F1163.8 X111.458 Y111.871 E15.50966
G0 F6300 X112.13 Y111.72
G0 X113.438 Y110.938
G0 X114 Y109.5
G1 F1350 X114 Y110.5 E15.53959
G1 X119 Y110.5 E15.68926
G1 X119 Y110 E15.70423
G1 X119 Y109.5 E15.7192
G1 X114 Y109.5 E15.86887
G0 F6300 X111.788 Y109.062
G0 X108.212 Y108.312
G0 X106.562 Y109.062
G0 X106 Y109.5
G1 F1350 X101 Y109.5 E16.01854
G1 X101 Y110.5 E16.04847
G1 X106 Y110.5 E16.19814
G1 X106 Y109.5 E16.22808
G0 F6300 X105.5 Y110
G1 F900 X101.5 Y110 E16.40768
G0 F6300 X106.562 Y109.062
G0 X108.212 Y109.062
G0 X111.788 Y108.312
G0 X113.438 Y109.062
G0 X114.5 Y110
G1 F900 X118.5 Y110 E16.58729
;MESH:NONMESH
G0 F600 X118.5 Y110 Z0.66
G0 F6300 X113.438 Y109.062
G0 X111.788 Y109.062
G0 X108.212 Y108.312
G0 X107 Y108.75
;TIME_ELAPSED:21.784372
;LAYER:2
;TYPE:WALL-OUTER
;MESH:M2?????????Holder.stl
G1 F1263.2 X106.5 Y108.725 E16.60508
G1 F1411.8 X106 Y108.7 E16.621
G1 F1500 X100.2 Y108.7 E16.79462
G1 X100.2 Y111.3 E16.87245
G1 X106 Y111.3 E17.04607
G1 F1411.8 X106.5 Y111.275 E17.06199
G1 F1263.2 X107 Y111.25 E17.07979
G1 F1197.6 X107.044 Y111.251 E17.08144
G1 F1330.4 X107.201 Y111.5 E17.09137
G1 F1500 X107.201 Y112.299 E17.11529
G1 X112.8 Y112.3 E17.28289
G1 X112.8 Y111.487 E17.30723
G1 F1327.4 X112.956 Y111.251 E17.3168
G1 F1195.2 X113 Y111.25 E17.31845
G1 F1263.2 X113.5 Y111.275 E17.33625
G1 F1411.8 X114 Y111.3 E17.35217
G1 F1500 X119.8 Y111.3 E17.52579
G1 X119.8 Y108.7 E17.60361
G1 X114 Y108.7 E17.77723
G1 F1330.4 X113.087 Y108.751 E17.80809
G1 F1197.6 X113 Y108.75 E17.81136
G1 F1333.3 X112.803 Y108.54 E17.82105
G1 F1500 X112.8 Y107.7 E17.8462
G1 X107.201 Y107.701 E18.0138
G1 X107.201 Y108.5 E18.03772
G1 F1333.3 X107 Y108.75 E18.04852
G0 F9000 X106.801 Y108.741
G0 X106.22 Y109.28
G0 X106.562 Y110.938
G0 X107.87 Y111.28
G0 X108.45 Y110.7
G1 F1500 X107.819 Y110.7 E18.06741
G1 F1330.4 X107.087 Y110.751 E18.09217
G1 F1197.6 X107 Y110.75 E18.09544
G1 F1333.3 X106.8 Y110.5 E18.10622
G1 F1500 X106.8 Y109.5 E18.13615
G1 F1327.4 X106.956 Y109.251 E18.14609
G1 X107.819 Y109.3 E18.17533
G1 F1500 X108.45 Y109.3 E18.19422
G1 X108.45 Y108.729 E18.21131
G1 X108.47 Y108.662 E18.2134
G1 X108.65 Y108.55 E18.21975
G1 X111.35 Y108.55 E18.30057
G1 X111.541 Y108.69 E18.30766
G1 X111.55 Y109.3 E18.32592
G1 X112.181 Y109.3 E18.34481
G1 F1333.3 X113 Y109.25 E18.37244
G1 F1197.6 X113.044 Y109.251 E18.37409
G1 F1330.4 X113.2 Y109.5 E18.38401
G1 F1500 X113.2 Y110.5 E18.41394
G1 F1333.3 X113 Y110.75 E18.42472
G1 X112.181 Y110.7 E18.45236
G1 F1500 X111.55 Y110.7 E18.47124
G1 X111.55 Y111.271 E18.48834
G1 X111.53 Y111.338 E18.49043
G1 X111.35 Y111.45 E18.49678
G1 X108.65 Y111.45 E18.5776
G1 X108.455 Y111.297 E18.58502
G1 X108.45 Y111.25 E18.58643
G1 X108.45 Y110.7 E18.6029
G0 F9000 X108.25 Y110.7
G0 X107.87 Y111.28
G0 X107.339 Y111.117
;TYPE:WALL-INNER
G1 F1379.3 X107.606 Y111.378 E18.61505
G1 F1330.4 X107.635 Y111.865 E18.63152
G1 F1295.9 X108.143 Y111.87 E18.64912
G1 F1321.6 X108.651 Y111.875 E18.66638
G1 F1307.2 X108.079 Y111.529 E18.68934
G1 F1330.4 X108.033 Y111.117 E18.70333
G1 F1379.3 X107.339 Y111.117 E18.72593
G0 F9000 X107.78 Y111.28
G0 X108.65 Y111.875
G1 F1333.3 X111.35 Y111.875 E18.81685
G1 F1318.7 X111.458 Y111.871 E18.82053
G1 F1293.1 X112.366 Y111.866 E18.85206
G1 F1327.4 X112.394 Y111.378 E18.86859
G1 F1379.3 X112.663 Y111.117 E18.8808
G1 X111.967 Y111.117 E18.90345
G1 F1327.4 X111.92 Y111.528 E18.91745
G1 F1293.1 X111.458 Y111.871 E18.93743
G0 F9000 X112.13 Y111.72
G0 X113.438 Y110.938
G0 X113.6 Y110.5
G1 F1500 X113.2 Y110.9 E18.95436
G1 X119.4 Y110.9 E19.13995
G1 X119.4 Y109.1 E19.19383
G1 X113.266 Y109.1 E19.37745
G1 X113.6 Y109.5 E19.39305
G1 X113.6 Y110.5 E19.42298
G0 F9000 X113.81 Y110.5
G0 X113.438 Y109.062
G0 X112.562 Y108.938
G0 X111.35 Y108.125
G1 F1333.3 X108.65 Y108.125 E19.51391
G1 F1318.7 X108.542 Y108.129 E19.51759
G0 F9000 X107.87 Y108.28
G0 X107.287 Y108.883
G1 F1379.3 X108.033 Y108.883 E19.54187
G1 F1330.4 X108.079 Y108.471 E19.55586
G1 F1293.1 X108.542 Y108.129 E19.57585
G1 X107.869 Y108.135 E19.59922
G1 F1282.1 X107.635 Y108.135 E19.60741
G1 F1330.4 X107.606 Y108.622 E19.62388
G1 F1379.3 X107.287 Y108.883 E19.6373
G0 F9000 X107.78 Y108.72
G0 X106.562 Y109.062
G0 X106.4 Y109.5
G1 F1500 X106.736 Y109.1 E19.65294
G1 X100.6 Y109.1 E19.83661
G1 X100.6 Y110.9 E19.89049
G1 X106.8 Y110.9 E20.07608
G1 X106.4 Y110.5 E20.09302
G1 X106.4 Y109.5 E20.12295
G0 F9000 X106.19 Y109.5
G0 X108.201 Y109.086
G0 X112.13 Y108.28
G0 X111.35 Y108.125
G1 F1307.2 X111.92 Y108.472 E20.14587
G1 F1327.4 X111.967 Y108.883 E20.15987
G1 F1379.3 X112.713 Y108.883 E20.18415
G1 X112.394 Y108.622 E20.19757
G1 F1327.4 X112.366 Y108.134 E20.2141
G1 F1293.1 X111.858 Y108.13 E20.23174
G1 F1321.6 X111.35 Y108.125 E20.249
G0 F9000 X112.13 Y108.28
G0 X113.438 Y109.062
G0 X114 Y109.5
G1 F1500 X114 Y110.5 E20.27894
G1 X119 Y110.5 E20.42861
G1 X119 Y109.5 E20.45854
G1 X114 Y109.5 E20.60821
G0 F9000 X111.788 Y109.062
G0 X108.212 Y108.312
G0 X106.562 Y109.062
G0 X106 Y109.5
G1 F1500 X101 Y109.5 E20.75788
G1 X101 Y110.5 E20.78782
G1 X106 Y110.5 E20.93749
G1 X106 Y109.5 E20.96742
G0 F9000 X105.5 Y110
G1 F1000 X101.5 Y110 E21.14703
G0 F9000 X106.562 Y109.062
G0 X108.212 Y109.062
G0 X111.788 Y108.312
G0 X113.438 Y109.062
G0 X114.5 Y110
G1 F1000 X118.5 Y110 E21.32663
;MESH:NONMESH
G0 F600 X118.5 Y110 Z0.84
G0 F9000 X113.438 Y109.062
G0 X111.788 Y109.062
G0 X108.212 Y108.312
G0 X107 Y108.75
;TIME_ELAPSED:29.256904
;LAYER:3
;TYPE:WALL-OUTER
;MESH:M2?????????Holder.stl
G1 F1263.2 X106.5 Y108.725 E21.34443
G1 F1411.8 X106 Y108.7 E21.36035
G1 F1500 X100.2 Y108.7 E21.53397
G1 X100.2 Y111.3 E21.6118
G1 X106 Y111.3 E21.78541
G1 F1411.8 X106.5 Y111.275 E21.80134
G1 F1263.2 X107 Y111.25 E21.81913
G1 F1197.6 X107.044 Y111.251 E21.82078
G1 F1330.4 X107.201 Y111.5 E21.83072
G1 F1500 X107.201 Y112.299 E21.85463
G1 X112.8 Y112.3 E22.02224
G1 X112.8 Y111.487 E22.04657
G1 F1327.4 X112.956 Y111.251 E22.05614
G1 F1195.2 X113 Y111.25 E22.05779
G1 F1263.2 X113.5 Y111.275 E22.07559
G1 F1411.8 X114 Y111.3 E22.09151
G1 F1500 X119.8 Y111.3 E22.26513
G1 X119.8 Y110 E22.30404
G1 X119.8 Y108.7 E22.34296
G1 X114 Y108.7 E22.51658
G1 F1330.4 X113.087 Y108.751 E22.54744
G1 F1197.6 X113 Y108.75 E22.5507
G1 F1333.3 X112.8 Y108.5 E22.56148
G1 F1500 X112.8 Y107.7 E22.58543
G1 X107.201 Y107.701 E22.75303
G1 X107.201 Y108.5 E22.77695
G1 F1333.3 X107 Y108.75 E22.78775
G0 F9000 X106.801 Y108.741
G0 X106.22 Y109.28
G0 X107.35 Y108.951
G0 X108.45 Y109.3
G1 F1500 X108.45 Y108.729 E22.80484
G1 X108.47 Y108.662 E22.80694
G1 X108.65 Y108.55 E22.81328
G1 X111.35 Y108.55 E22.8941
G1 X111.541 Y108.69 E22.90119
G1 X111.55 Y109.3 E22.91946
G1 X112.181 Y109.3 E22.93834
G1 F1333.3 X113 Y109.25 E22.96598
G1 F1197.6 X113.044 Y109.251 E22.96763
G1 F1330.4 X113.2 Y109.5 E22.97754
G1 F1500 X113.2 Y110.5 E23.00748
G1 F1333.3 X113 Y110.75 E23.01826
G1 X112.181 Y110.7 E23.04589
G1 F1500 X111.55 Y110.7 E23.06478
G1 X111.55 Y111.271 E23.08187
G1 X111.53 Y111.338 E23.08396
G1 X111.35 Y111.45 E23.09031
G1 X108.65 Y111.45 E23.17113
G1 X108.455 Y111.297 E23.17855
G1 X108.45 Y110.7 E23.19642
G1 X107.819 Y110.7 E23.21531
G1 F1330.4 X107.087 Y110.751 E23.24008
