;FLAVOR:Marlin
;TIME:172
;Filament used: 0.111372m
;Layer height: 0.18
;MINX:100.2
;MINY:107.7
;MINZ:0.3
;MAXX:119.8
;MAXY:112.3
;MAXZ:4.08
;Generated with Cura_SteamEngine 5.0.0
M140 S80
M105
M190 S80
M104 S230
M105
M109 S230
M82 ;absolute extrusion mode
G28 ;Home
G1 Z15.0 F6000 ;Move the platform down 15mm
;Prime the extruder
G92 E0
G1 F200 E3
G92 E0
G92 E0
G92 E0
G1 F2700 E-5
;LAYER_COUNT:22
;LAYER:0
M107
;MESH:M2?????????Holder.stl
G0 F3600 X107 Y108.75 Z0.3
;TYPE:WALL-OUTER
G1 F2700 E0
G1 F1010.5 X106.5 Y108.725 E0.04449
G1 F1129.4 X106 Y108.7 E0.08429
G1 F1200 X100.2 Y108.7 E0.51834
G1 X100.2 Y111.3 E0.71291
G1 X106 Y111.3 E1.14696
G1 F1129.4 X106.5 Y111.275 E1.18676
G1 F1010.5 X107 Y111.25 E1.23125
G1 F958.1 X107.044 Y111.251 E1.23538
G1 F1064.3 X107.201 Y111.5 E1.26021
G1 F1200 X107.201 Y112.299 E1.32001
G1 X112.8 Y112.3 E1.73901
G1 X112.8 Y111.487 E1.79985
G1 F1061.9 X112.956 Y111.251 E1.82377
G1 F956.2 X113 Y111.25 E1.82791
G1 F1010.5 X113.5 Y111.275 E1.8724
G1 F1129.4 X114 Y111.3 E1.9122
G1 F1200 X119.8 Y111.3 E2.34625
G1 X119.8 Y110 E2.44353
G1 X119.8 Y108.7 E2.54082
G1 X114 Y108.7 E2.97486
G1 F1064.3 X113.087 Y108.751 E3.05202
G1 F958.1 X113 Y108.75 E3.06018
G1 F1066.7 X112.8 Y108.5 E3.08713
G1 F1200 X112.8 Y107.7 E3.147
G1 X107.201 Y107.701 E3.566
G1 X107.201 Y108.5 E3.62579
G1 F1066.7 X107 Y108.75 E3.6528
G0 F3600 X106.801 Y108.741
G0 X106.22 Y109.28
G0 X106.562 Y110.938
G0 X107.87 Y111.28
G0 X108.45 Y110.7
G1 F1200 X107.819 Y110.7 E3.70002
G1 F1064.3 X107.087 Y110.751 E3.76193
G1 F958.1 X107 Y110.75 E3.77009
G1 F1066.7 X106.8 Y110.5 E3.79704
G1 F1200 X106.8 Y109.5 E3.87188
G1 F1061.9 X106.956 Y109.251 E3.89673
G1 X107.819 Y109.3 E3.96982
G1 F1200 X108.45 Y109.3 E4.01704
G1 X108.45 Y108.729 E4.05977
G1 X108.47 Y108.662 E4.06501
G1 X108.65 Y108.55 E4.08087
G1 X111.35 Y108.55 E4.28293
G1 X111.541 Y108.69 E4.30065
G1 X111.55 Y109.3 E4.3463
G1 X112.181 Y109.3 E4.39353
G1 F1066.7 X113 Y109.25 E4.46261
G1 F958.1 X113.044 Y109.251 E4.46673
G1 F1064.3 X113.2 Y109.5 E4.49152
G1 F1200 X113.2 Y110.5 E4.56636
G1 F1066.7 X113 Y110.75 E4.59331
G1 X112.181 Y110.7 E4.66239
G1 F1200 X111.55 Y110.7 E4.70961
G1 X111.55 Y111.271 E4.75234
G1 X111.53 Y111.338 E4.75758
G1 X111.35 Y111.45 E4.77344
G1 X108.65 Y111.45 E4.9755
G1 X108.458 Y111.31 E4.99328
G1 X108.45 Y110.7 E5.03893
G0 F3600 X108.25 Y110.7
G0 X107.87 Y111.28
G0 X107.339 Y111.117
;TYPE:WALL-INNER
G1 F1103.4 X107.606 Y111.378 E5.06932
G1 F1064.3 X107.635 Y111.865 E5.11048
G1 F1036.7 X108.143 Y111.87 E5.15449
G1 F1057.3 X108.651 Y111.875 E5.19764
G1 F1045.8 X108.079 Y111.529 E5.25505
G1 F1054.9 X108.056 Y111.435 E5.26329
G1 F1093.4 X108.033 Y111.117 E5.28947
G1 F1103.4 X107.339 Y111.117 E5.34595
G0 F3600 X107.78 Y111.28
G0 X108.65 Y111.875
G1 F1066.7 X111.35 Y111.875 E5.57326
G1 F1054.9 X111.458 Y111.871 E5.58246
G1 F1034.5 X112.366 Y111.866 E5.66129
G1 F1061.9 X112.394 Y111.378 E5.70262
G1 F1103.4 X112.663 Y111.117 E5.73313
G1 X111.967 Y111.117 E5.78977
G1 F1061.9 X111.92 Y111.528 E5.82475
G1 F1034.5 X111.458 Y111.871 E5.8747
G0 F3600 X112.13 Y111.72
G0 X113.438 Y110.938
G0 X113.6 Y110.5
G1 F1200 X113.2 Y110.9 E5.91703
G1 X119.4 Y110.9 E6.38101
G1 X119.4 Y109.1 E6.51572
G1 X113.266 Y109.1 E6.97476
G1 X113.6 Y109.5 E7.01375
G1 X113.6 Y110.5 E7.08859
G0 F3600 X113.81 Y110.5
G0 X113.438 Y109.062
G0 X112.562 Y108.938
G0 X111.35 Y108.125
G1 F1066.7 X108.65 Y108.125 E7.3159
G1 F1054.9 X108.542 Y108.129 E7.3251
G0 F3600 X107.87 Y108.28
G0 X107.287 Y108.883
G1 F1103.4 X108.033 Y108.883 E7.38581
G1 F1064.3 X108.079 Y108.471 E7.42079
G1 F1034.5 X108.542 Y108.129 E7.47076
G1 X107.869 Y108.135 E7.52919
G1 F1025.6 X107.635 Y108.135 E7.54967
G1 F1064.3 X107.606 Y108.622 E7.59084
G1 F1103.4 X107.287 Y108.883 E7.62438
G0 F3600 X107.78 Y108.72
G0 X106.562 Y109.062
G0 X106.4 Y109.5
G1 F1200 X106.736 Y109.1 E7.66348
G1 X100.6 Y109.1 E8.12267
G1 X100.6 Y110.9 E8.25737
G1 X106.8 Y110.9 E8.72135
G1 X106.4 Y110.5 E8.76368
G1 X106.4 Y109.5 E8.83852
G0 F3600 X106.19 Y109.5
G0 X108.201 Y109.086
G0 X112.13 Y108.28
G0 X111.35 Y108.125
G1 F1045.8 X111.92 Y108.472 E8.89582
G1 F1061.9 X111.967 Y108.883 E8.9308
G1 F1103.4 X112.713 Y108.883 E8.99152
G1 X112.394 Y108.622 E9.02506
G1 F1061.9 X112.366 Y108.134 E9.06639
G1 F1034.5 X111.858 Y108.13 E9.11049
G1 F1057.3 X111.35 Y108.125 E9.15364
G0 F3600 X112.13 Y108.28
G0 X113.438 Y109.062
G0 X114 Y109.5
G1 F1200 X114 Y110.5 E9.22848
G1 X119 Y110.5 E9.60266
G1 X119 Y109.5 E9.67749
G1 X114 Y109.5 E10.05167
G0 F3600 X111.788 Y109.062
G0 X108.212 Y108.312
G0 X106.562 Y109.062
G0 X106 Y109.5
G1 F1200 X101 Y109.5 E10.42584
G1 X101 Y110.5 E10.50068
G1 X106 Y110.5 E10.87486
G1 X106 Y109.5 E10.94969
G0 F3600 X105.5 Y110
G1 F800 X101.5 Y110 E11.3987
G0 F3600 X106.562 Y109.062
G0 X108.212 Y109.062
G0 X111.788 Y108.312
G0 X113.438 Y109.062
G0 X114.5 Y110
G1 F800 X118.5 Y110 E11.84772
;MESH:NONMESH
G0 F600 X118.5 Y110 Z0.48
G0 F3600 X113.438 Y109.062
G0 X111.788 Y109.062
G0 X108.212 Y108.312
G0 X107 Y108.75
;TIME_ELAPSED:13.437215
;LAYER:1
M106 S255
;TYPE:WALL-OUTER
;MESH:M2?????????Holder.stl
G1 F1136.8 X106.5 Y108.725 E11.86551
G1 F1270.6 X106 Y108.7 E11.88143
G1 F1350 X100.2 Y108.7 E12.05505
G1 X100.2 Y111.3 E12.13288
G1 X106 Y111.3 E12.3065
G1 F1270.6 X106.5 Y111.275 E12.32242
G1 F1136.8 X107 Y111.25 E12.34022
G1 F1077.8 X107.044 Y111.251 E12.34187
G1 F1197.3 X107.201 Y111.5 E12.3518
G1 F1350 X107.201 Y112.299 E12.37572
G1 X112.8 Y112.3 E12.54332
G1 X112.8 Y111.487 E12.56766
G1 F1194.7 X112.956 Y111.251 E12.57723
G1 F1075.7 X113 Y111.25 E12.57888
G1 F1136.8 X113.5 Y111.275 E12.59667
G1 F1270.6 X114 Y111.3 E12.6126
G1 F1350 X119.8 Y111.3 E12.78621
G1 X119.8 Y110 E12.82513
G1 X119.8 Y108.7 E12.86404
G1 X114 Y108.7 E13.03766
G1 F1197.3 X113.087 Y108.751 E13.06852
G1 F1077.8 X113 Y108.75 E13.07179
G1 F1200 X112.8 Y108.5 E13.08257
G1 F1350 X112.8 Y107.7 E13.10651
G1 X107.201 Y107.701 E13.27412
G1 X107.201 Y108.5 E13.29803
G1 F1200 X107 Y108.75 E13.30884
G0 F6300 X106.801 Y108.741
G0 X106.22 Y109.28
G0 X107.35 Y108.951
G0 X108.45 Y109.3
G1 F1350 X108.45 Y108.729 E13.32593
G1 X108.47 Y108.662 E13.32802
G1 X108.65 Y108.55 E13.33437
G1 X111.35 Y108.55 E13.41519
G1 X111.541 Y108.69 E13.42228
G1 X111.55 Y109.3 E13.44054
G1 X112.181 Y109.3 E13.45943
G1 F1200 X113 Y109.25 E13.48706
G1 F1077.8 X113.044 Y109.251 E13.48871
G1 F1197.3 X113.2 Y109.5 E13.49863
G1 F1350 X113.2 Y110.5 E13.52856
G1 F1200 X113 Y110.75 E13.53934
G1 X112.181 Y110.7 E13.56697
G1 F1350 X111.55 Y110.7 E13.58586
G1 X111.55 Y111.271 E13.60296
G1 X111.53 Y111.338 E13.60505
G1 X111.35 Y111.45 E13.61139
G1 X108.65 Y111.45 E13.69222
G1 X108.455 Y111.297 E13.69964
G1 X108.45 Y110.7 E13.71751
G1 X107.819 Y110.7 E13.7364
G1 F1197.3 X107.087 Y110.751 E13.76116
G1 F1077.8 X107 Y110.75 E13.76442
G1 F1200 X106.8 Y110.5 E13.77521
G1 F1350 X106.8 Y109.5 E13.80514
G1 F1194.7 X106.956 Y109.251 E13.81508
G1 X107.819 Y109.3 E13.84432
G1 F1350 X108.45 Y109.3 E13.86321
G0 F6300 X108.45 Y109.1
G0 X108.542 Y108.129
;TYPE:WALL-INNER
G1 F1186.8 X108.65 Y108.125 E13.86689
G1 F1200 X111.35 Y108.125 E13.95781
G1 F1176.5 X111.92 Y108.472 E13.98073
G1 F1194.7 X111.967 Y108.883 E13.99472
G1 F1241.4 X112.713 Y108.883 E14.01901
G1 X112.394 Y108.622 E14.03243
G1 F1194.7 X112.366 Y108.134 E14.04896
G1 F1163.8 X111.858 Y108.13 E14.0666
G1 F1189.4 X111.35 Y108.125 E14.08386
G0 F6300 X112.13 Y108.28
G0 X113.438 Y109.062
G0 X113.81 Y110.5
G0 X113.6 Y110.5
G1 F1350 X113.2 Y110.9 E14.10079
G1 X119.4 Y110.9 E14.28639
G1 X119.4 Y110 E14.31333
G1 X119.4 Y109.1 E14.34027
G1 X113.266 Y109.1 E14.52388
G1 X113.6 Y109.5 E14.53948
G1 X113.6 Y110.5 E14.56942
G0 F6300 X113.81 Y110.5
G0 X112.562 Y111.062
G0 X111.458 Y111.871
G1 F1186.8 X111.35 Y111.875 E14.5731
G1 F1200 X108.65 Y111.875 E14.66402
G0 F6300 X107.87 Y111.72
G0 X107.339 Y111.117
G1 F1241.4 X107.606 Y111.378 E14.67618
G1 F1197.3 X107.635 Y111.865 E14.69264
G1 F1166.3 X108.143 Y111.87 E14.71024
G1 F1189.4 X108.651 Y111.875 E14.7275
G1 F1176.5 X108.079 Y111.529 E14.75047
G1 F1197.3 X108.033 Y111.117 E14.76446
G1 F1241.4 X107.339 Y111.117 E14.78705
G0 F6300 X107.78 Y111.28
G0 X106.562 Y110.938
G0 X106.19 Y109.5
G0 X106.4 Y109.5
G1 F1350 X106.736 Y109.1 E14.80269
G1 X100.6 Y109.1 E14.98636
G1 X100.6 Y110.9 E15.04025
G1 X106.8 Y110.9 E15.22584
G1 X106.4 Y110.5 E15.24277
G1 X106.4 Y109.5 E15.2727
G0 F6300 X106.19 Y109.5
G0 X107.35 Y108.951
G0 X107.287 Y108.883
G1 F1241.4 X108.033 Y108.883 E15.29699
G1 F1197.3 X108.079 Y108.471 E15.31098
G1 F1163.8 X108.542 Y108.129 E15.33097
G1 X107.869 Y108.135 E15.35434
G1 F1153.8 X107.635 Y108.135 E15.36253
G1 F1197.3 X107.606 Y108.622 E15.379
G1 F1241.4 X107.287 Y108.883 E15.39242
G0 F6300 X107.78 Y108.72
G0 X106.562 Y109.062
G0 X106.562 Y110.938
G0 X108.212 Y110.938
G0 X112.13 Y111.72
G0 X111.458 Y111.871
G1 F1163.8 X112.366 Y111.866 E15.42395
G1 F1194.7 X112.394 Y111.378 E15.44048
G1 F1241.4 X112.663 Y111.117 E15.45268
G1 X111.967 Y111.117 E15.47534
G1 F1194.7 X111.92 Y111.528 E15.48933
G1 F1163.8 X111.458 Y111.871 E15.50931
G0 F6300 X112.13 Y111.72
G0 X113.438 Y110.938
G0 X114 Y109.5
G1 F1350 X114 Y110.5 E15.53925
G1 X119 Y110.5 E15.68892
G1 X119 Y110 E15.70388
G1 X119 Y109.5 E15.71885
G1 X114 Y109.5 E15.86852
G0 F6300 X111.788 Y109.062
G0 X108.212 Y108.312
G0 X106.562 Y109.062
G0 X106 Y109.5
G1 F1350 X101 Y109.5 E16.01819
G1 X101 Y110.5 E16.04813
G1 X106 Y110.5 E16.1978
G1 X106 Y109.5 E16.22773
G0 F6300 X105.5 Y110
G1 F900 X101.5 Y110 E16.40734
G0 F6300 X106.562 Y109.062
G0 X108.212 Y109.062
G0 X111.788 Y108.312
G0 X113.438 Y109.062
G0 X114.5 Y110
G1 F900 X118.5 Y110 E16.58694
;MESH:NONMESH
G0 F600 X118.5 Y110 Z0.66
G0 F6300 X113.438 Y109.062
G0 X111.788 Y109.062
G0 X108.212 Y108.312
G0 X107 Y108.75
;TIME_ELAPSED:21.705731
;LAYER:2
;TYPE:WALL-OUTER
;MESH:M2?????????Holder.stl
G1 F1263.2 X106.5 Y108.725 E16.60474
G1 F1411.8 X106 Y108.7 E16.62066
G1 F1500 X100.2 Y108.7 E16.79428
G1 X100.2 Y111.3 E16.8721
G1 X106 Y111.3 E17.04572
G1 F1411.8 X106.5 Y111.275 E17.06165
G1 F1263.2 X107 Y111.25 E17.07944
G1 F1197.6 X107.044 Y111.251 E17.08109
G1 F1330.4 X107.201 Y111.5 E17.09103
G1 F1500 X107.201 Y112.299 E17.11494
G1 X112.8 Y112.3 E17.28254
G1 X112.8 Y111.487 E17.30688
G1 F1327.4 X112.956 Y111.251 E17.31645
G1 F1195.2 X113 Y111.25 E17.3181
G1 F1263.2 X113.5 Y111.275 E17.3359
G1 F1411.8 X114 Y111.3 E17.35182
G1 F1500 X119.8 Y111.3 E17.52544
G1 X119.8 Y110 E17.56435
G1 X119.8 Y108.7 E17.60327
G1 X114 Y108.7 E17.77689
G1 F1330.4 X113.087 Y108.751 E17.80775
G1 F1197.6 X113 Y108.75 E17.81101
G1 F1333.3 X112.8 Y108.5 E17.82179
G1 F1500 X112.8 Y107.7 E17.84574
G1 X107.201 Y107.701 E18.01334
G1 X107.201 Y108.5 E18.03726
G1 F1333.3 X107 Y108.75 E18.04806
G0 F9000 X106.801 Y108.741
G0 X106.22 Y109.28
G0 X107.35 Y108.951
G0 X108.45 Y109.3
G1 F1500 X108.45 Y108.729 E18.06515
G1 X108.47 Y108.662 E18.06725
G1 X108.65 Y108.55 E18.07359
G1 X111.35 Y108.55 E18.15441
G1 X111.541 Y108.69 E18.1615
G1 X111.55 Y109.3 E18.17976
G1 X112.181 Y109.3 E18.19865
G1 F1333.3 X113 Y109.25 E18.22628
G1 F1197.6 X113.044 Y109.251 E18.22794
G1 F1330.4 X113.2 Y109.5 E18.23785
G1 F1500 X113.2 Y110.5 E18.26779
G1 F1333.3 X113 Y110.75 E18.27857
G1 X112.181 Y110.7 E18.3062
G1 F1500 X111.55 Y110.7 E18.32509
G1 X111.55 Y111.271 E18.34218
G1 X111.53 Y111.338 E18.34427
G1 X111.35 Y111.45 E18.35062
G1 X108.65 Y111.45 E18.43144
G1 X108.455 Y111.297 E18.43886
G1 X108.45 Y110.7 E18.45673
G1 X107.819 Y110.7 E18.47562
G1 F1330.4 X107.087 Y110.751 E18.50039
G1 F1197.6 X107 Y110.75 E18.50365
G1 F1333.3 X106.8 Y110.5 E18.51443
G1 F1500 X106.8 Y109.5 E18.54436
G1 F1327.4 X106.956 Y109.251 E18.5543
G1 X107.819 Y109.3 E18.58354
G1 F1500 X108.45 Y109.3 E18.60243
G0 F9000 X108.45 Y109.1
G0 X108.542 Y108.129
;TYPE:WALL-INNER
G1 F1318.7 X108.65 Y108.125 E18.60611
G1 F1333.3 X111.35 Y108.125 E18.69703
G1 F1307.2 X111.92 Y108.472 E18.71996
G1 F1327.4 X111.967 Y108.883 E18.73395
G1 F1379.3 X112.713 Y108.883 E18.75823
G1 X112.394 Y108.622 E18.77165
G1 F1327.4 X112.366 Y108.134 E18.78819
G1 F1293.1 X111.858 Y108.13 E18.80583
G1 F1321.6 X111.35 Y108.125 E18.82309
G0 F9000 X112.13 Y108.28
G0 X113.438 Y109.062
G0 X113.81 Y110.5
G0 X113.6 Y110.5
G1 F1500 X113.2 Y110.9 E18.84002
G1 X119.4 Y110.9 E19.02561
G1 X119.4 Y110 E19.05255
G1 X119.4 Y109.1 E19.07949
G1 X113.266 Y109.1 E19.26311
G1 X113.6 Y109.5 E19.27871
G1 X113.6 Y110.5 E19.30864
G0 F9000 X113.81 Y110.5
G0 X112.562 Y111.062
G0 X111.458 Y111.871
G1 F1318.7 X111.35 Y111.875 E19.31232
G1 F1333.3 X108.65 Y111.875 E19.40325
G0 F9000 X107.87 Y111.72
G0 X107.339 Y111.117
G1 F1379.3 X107.606 Y111.378 E19.4154
G1 F1330.4 X107.635 Y111.865 E19.43187
G1 F1295.9 X108.143 Y111.87 E19.44947
G1 F1321.6 X108.651 Y111.875 E19.46673
G1 F1307.2 X108.079 Y111.529 E19.48969
G1 F1330.4 X108.033 Y111.117 E19.50368
G1 F1379.3 X107.339 Y111.117 E19.52628
G0 F9000 X107.78 Y111.28
G0 X106.562 Y110.938
G0 X106.19 Y109.5
G0 X106.4 Y109.5
G1 F1500 X106.736 Y109.1 E19.54191
G1 X100.6 Y109.1 E19.72559
G1 X100.6 Y110.9 E19.77947
G1 X106.8 Y110.9 E19.96506
G1 X106.4 Y110.5 E19.982
G1 X106.4 Y109.5 E20.01193
G0 F9000 X106.19 Y109.5
G0 X107.35 Y108.951
G0 X107.287 Y108.883
G1 F1379.3 X108.033 Y108.883 E20.03621
G1 F1330.4 X108.079 Y108.471 E20.05021
G1 F1293.1 X108.542 Y108.129 E20.07019
G1 X107.869 Y108.135 E20.09356
G1 F1282.1 X107.635 Y108.135 E20.10176
G1 F1330.4 X107.606 Y108.622 E20.11822
G1 F1379.3 X107.287 Y108.883 E20.13164
G0 F9000 X107.78 Y108.72
G0 X106.562 Y109.062
G0 X106.562 Y110.938
G0 X108.212 Y110.938
G0 X112.13 Y111.72
G0 X111.458 Y111.871
G1 F1293.1 X112.366 Y111.866 E20.16317
G1 F1327.4 X112.394 Y111.378 E20.17971
G1 F1379.3 X112.663 Y111.117 E20.19191
G1 X111.967 Y111.117 E20.21456
G1 F1327.4 X111.92 Y111.528 E20.22856
G1 F1293.1 X111.458 Y111.871 E20.24854
G0 F9000 X112.13 Y111.72
G0 X113.438 Y110.938
G0 X114 Y109.5
G1 F1500 X114 Y110.5 E20.27847
G1 X119 Y110.5 E20.42814
G1 X119 Y110 E20.44311
G1 X119 Y109.5 E20.45808
G1 X114 Y109.5 E20.60775
G0 F9000 X111.788 Y109.062
G0 X108.212 Y108.312
G0 X106.562 Y109.062
G0 X106 Y109.5
G1 F1500 X101 Y109.5 E20.75742
G1 X101 Y110.5 E20.78735
G1 X106 Y110.5 E20.93702
G1 X106 Y109.5 E20.96696
G0 F9000 X105.5 Y110
G1 F1000 X101.5 Y110 E21.14656
G0 F9000 X106.562 Y109.062
G0 X108.212 Y109.062
G0 X111.788 Y108.312
G0 X113.438 Y109.062
G0 X114.5 Y110
G1 F1000 X118.5 Y110 E21.32617
;MESH:NONMESH
G0 F600 X118.5 Y110 Z0.84
G0 F9000 X113.438 Y109.062
G0 X111.788 Y109.062
G0 X108.212 Y108.312
G0 X107 Y108.75
;TIME_ELAPSED:29.255248
;LAYER:3
;TYPE:WALL-OUTER
;MESH:M2?????????Holder.stl
G1 F1263.2 X106.5 Y108.725 E21.34396
G1 F1411.8 X106 Y108.7 E21.35988
G1 F1500 X100.2 Y108.7 E21.5335
G1 X100.2 Y111.3 E21.61133
G1 X106 Y111.3 E21.78495
G1 F1411.8 X106.5 Y111.275 E21.80087
G1 F1263.2 X107 Y111.25 E21.81867
G1 F1197.6 X107.044 Y111.251 E21.82032
G1 F1330.4 X107.201 Y111.5 E21.83025
G1 F1500 X107.201 Y112.299 E21.85417
G1 X112.8 Y112.3 E22.02177
G1 X112.8 Y111.487 E22.04611
G1 F1327.4 X112.956 Y111.251 E22.05567
G1 F1195.2 X113 Y111.25 E22.05733
G1 F1263.2 X113.5 Y111.275 E22.07512
G1 F1411.8 X114 Y111.3 E22.09105
G1 F1500 X119.8 Y111.3 E22.26466
G1 X119.8 Y110 E22.30358
G1 X119.8 Y108.7 E22.34249
G1 X114 Y108.7 E22.51611
G1 F1330.4 X113.087 Y108.751 E22.54697
G1 F1197.6 X113 Y108.75 E22.55024
G1 F1333.3 X112.8 Y108.5 E22.56102
G1 F1500 X112.8 Y107.7 E22.58496
G1 X107.201 Y107.701 E22.75257
G1 X107.201 Y108.5 E22.77648
G1 F1333.3 X107 Y108.75 E22.78729
G0 F9000 X106.801 Y108.741
G0 X106.22 Y109.28
G0 X107.35 Y108.951
G0 X108.45 Y109.3
G1 F1500 X108.45 Y108.729 E22.80438
G1 X108.47 Y108.662 E22.80647
G1 X108.65 Y108.55 E22.81282
G1 X111.35 Y108.55 E22.89364
G1 X111.541 Y108.69 E22.90073
G1 X111.55 Y109.3 E22.91899
G1 X112.181 Y109.3 E22.93788
G1 F1333.3 X113 Y109.25 E22.96551
G1 F1197.6 X113.044 Y109.251 E22.96716
G1 F1330.4 X113.2 Y109.5 E22.97708
G1 F1500 X113.2 Y110.5 E23.00701
G1 F1333.3 X113 Y110.75 E23.01779
G1 X112.181 Y110.7 E23.04542
G1 F1500 X111.55 Y110.7 E23.06431
G1 X111.55 Y111.271 E23.08141
G1 X111.53 Y111.338 E23.0835
G1 X111.35 Y111.45 E23.08984
G1 X108.65 Y111.45 E23.17067
G1 X108.455 Y111.297 E23.17809
