;FLAVOR:Marlin
;TIME:4313
;Filament used: 3.36935m
;Layer height: 0.2
;MINX:77.659
;MINY:76.7
;MINZ:0.3
;MAXX:142.38
;MAXY:143.282
;MAXZ:8.1
;Generated with Cura_SteamEngine 5.0.0
M140 S60
M105
M190 S60
M104 S200
M105
M109 S200
M82 ;absolute extrusion mode
G28 ;Home
G1 Z15.0 F6000 ;Move the platform down 15mm
;Prime the extruder
G92 E0
G1 F200 E3
G92 E0
G92 E0
G92 E0
G1 F2700 E-5
;LAYER_COUNT:40
;LAYER:0
M107
;MESH:05.stl
G0 F4500 X98.377 Y76.7 Z0.3
;TYPE:WALL-OUTER
G1 F2700 E0
G1 F1500 X98.377 Y84.3 E0.37917
G1 X104.473 Y84.299 E0.6833
G1 X112.426 Y84.3 E1.08007
G1 X114.22 Y84.299 E1.16958
G1 X121.477 Y84.299 E1.53163
G1 X121.477 Y78.406 E1.82563
G1 X121.477 Y76.7 E1.91074
G1 X98.377 Y76.7 E3.06321
G0 F4500 X98.377 Y76.9
G0 X98.857 Y77.18
G0 X101.148 Y80.668
G0 X101.654 Y80.611
G1 F1500 X101.712 Y80.006 E3.09353
G1 X101.944 Y79.447 E3.12373
G1 X102.322 Y78.986 E3.15347
G1 X102.738 Y78.691 E3.17891
G1 F1503.8 X103.25 Y78.502 E3.20607
G1 X103.755 Y78.451 E3.23133
G1 X104.219 Y78.518 E3.25466
G1 X104.709 Y78.717 E3.28098
G1 F1500 X105.126 Y79.026 E3.30687
G1 X105.416 Y79.381 E3.32974
G1 X105.652 Y79.875 E3.35706
G1 X105.749 Y80.462 E3.38674
G1 X105.751 Y80.492 E3.38824
G1 X105.695 Y80.974 E3.41245
G1 X105.541 Y81.401 E3.4351
G1 X105.236 Y81.858 E3.46251
G1 X104.776 Y82.244 E3.49247
G1 X104.313 Y82.455 E3.51785
G1 X103.776 Y82.548 E3.54504
G1 F1503.8 X103.258 Y82.5 E3.57093
G1 X102.751 Y82.317 E3.59775
G1 F1500 X102.326 Y82.018 E3.62368
G1 X101.975 Y81.603 E3.6508
G1 X101.758 Y81.146 E3.67603
G1 X101.654 Y80.611 E3.70323
G0 F4500 X101.673 Y80.412
G0 X101.149 Y80.394
G0 X101.403 Y79.511
G0 X102.495 Y78.308
G0 X103.4 Y78.041
G0 X107.967 Y78
G0 X108.477 Y78
G1 F1500 X108.516 Y77.879 E3.70957
G1 X108.677 Y77.8 E3.71852
G1 X111.677 Y77.8 E3.86819
G1 X111.838 Y77.879 E3.87713
G1 X111.877 Y78 E3.88348
G1 X111.878 Y78.822 E3.92449
G1 X111.877 Y83 E4.13293
G1 X111.837 Y83.121 E4.13929
G1 X111.677 Y83.2 E4.14819
G1 X108.677 Y83.2 E4.29786
G1 X108.517 Y83.121 E4.30676
G1 X108.477 Y83 E4.31312
G1 X108.477 Y78 E4.56257
G0 F4500 X108.516 Y77.879
G0 X108.581 Y77.847
G0 X108.581 Y77.29
G0 X112.315 Y77.362
G0 X114.1 Y80.668
G0 X114.606 Y80.611
G1 F1500 X114.664 Y80.006 E4.59289
G1 X114.896 Y79.447 E4.62309
G1 X115.274 Y78.986 E4.65283
G1 X115.69 Y78.691 E4.67827
G1 F1503.8 X116.202 Y78.502 E4.70543
G1 X116.707 Y78.451 E4.73069
G1 X117.171 Y78.518 E4.75402
G1 X117.661 Y78.717 E4.78034
G1 F1500 X118.078 Y79.026 E4.80624
G1 X118.368 Y79.381 E4.8291
G1 X118.604 Y79.875 E4.85642
G1 X118.701 Y80.462 E4.8861
G1 X118.703 Y80.492 E4.8876
G1 X118.647 Y80.974 E4.91181
G1 X118.493 Y81.401 E4.93446
G1 X118.188 Y81.858 E4.96187
G1 X117.728 Y82.244 E4.99183
G1 X117.265 Y82.455 E5.01721
G1 X116.728 Y82.548 E5.0444
G1 F1503.8 X116.21 Y82.5 E5.07029
G1 X115.703 Y82.317 E5.09711
G1 F1500 X115.278 Y82.018 E5.12304
G1 X114.92 Y81.594 E5.15072
G1 X114.71 Y81.147 E5.17536
G1 X114.606 Y80.611 E5.2026
G0 F4500 X114.625 Y80.412
G0 X114.214 Y80.691
;TYPE:WALL-INNER
G1 F1500 X114.266 Y79.963 E5.23902
G1 X114.529 Y79.288 E5.27516
G1 X114.968 Y78.728 E5.31066
G1 X115.412 Y78.389 E5.33853
G1 F1503.8 X116.063 Y78.127 E5.37345
G1 X116.624 Y78.052 E5.40162
G1 F1500 X117.172 Y78.107 E5.42909
G1 X117.813 Y78.347 E5.46324
G1 X118.283 Y78.673 E5.49178
G1 X118.647 Y79.081 E5.51906
G1 X118.965 Y79.703 E5.55391
G1 X119.097 Y80.402 E5.5894
G1 X119.103 Y80.492 E5.5939
G1 X119.049 Y81.012 E5.61998
G1 X118.826 Y81.623 E5.65243
G1 X118.521 Y82.08 E5.67984
G1 X117.981 Y82.554 E5.71569
G1 F1503.8 X117.48 Y82.804 E5.74355
G1 X116.796 Y82.942 E5.77828
G1 F1500 X116.223 Y82.91 E5.80691
G1 X115.566 Y82.693 E5.84143
G1 X115.085 Y82.379 E5.87009
G1 X114.621 Y81.861 E5.90478
G1 X114.364 Y81.366 E5.93261
G1 X114.214 Y80.691 E5.96711
G0 F4500 X114.104 Y80.703
G0 X112.426 Y83.789
G0 X112.426 Y83.9
G1 F1500 X114.22 Y83.899 E6.05661
G1 F1503.8 X115.893 Y83.9 E6.13987
G1 X116.595 Y83.898 E6.1748
G1 F1500 X117.425 Y83.899 E6.21621
G1 X121.077 Y83.899 E6.39841
G1 X121.077 Y78.406 E6.67246
G1 X121.077 Y77.1 E6.73761
G1 X112.427 Y77.1 E7.16916
G1 F1600 X111.677 Y77.075 E7.20426
G1 F1714.3 X108.677 Y77.075 E7.33523
G1 F1600 X107.927 Y77.1 E7.37032
G1 F1500 X98.777 Y77.1 E7.82682
G1 X98.777 Y83.9 E8.16607
G1 X107.928 Y83.9 E8.62262
G1 F1600 X108.677 Y83.925 E8.65767
G1 F1714.3 X111.677 Y83.925 E8.78863
G1 F1600 X112.426 Y83.9 E8.82368
G0 F4500 X112.426 Y83.789
G0 X108.039 Y83.638
G0 X108.077 Y83
G1 F1500 X108.077 Y78 E9.07313
G1 X108.196 Y77.639 E9.0921
G1 F1587.3 X108.577 Y77.43 E9.11259
G1 F1699.7 X108.677 Y77.425 E9.11699
G1 F1714.3 X111.677 Y77.425 E9.24796
G1 F1600 X112.158 Y77.639 E9.27258
G1 F1500 X112.277 Y78 E9.29154
G1 X112.278 Y78.822 E9.33255
G1 X112.277 Y83 E9.54099
G1 X112.157 Y83.361 E9.55997
G1 F1587.3 X111.777 Y83.57 E9.58042
G1 F1699.7 X111.677 Y83.575 E9.58483
G1 F1714.3 X108.677 Y83.575 E9.71579
G1 F1600 X108.197 Y83.362 E9.74035
G1 F1500 X108.077 Y83 E9.75938
G0 F4500 X107.967 Y83
G0 X103.399 Y82.981
G0 X102.387 Y82.621
G0 X101.579 Y81.925
G0 X101.669 Y81.861
G1 F1500 X101.412 Y81.366 E9.7872
G1 X101.262 Y80.69 E9.82175
G1 X101.314 Y79.963 E9.85811
G1 X101.577 Y79.288 E9.89425
G1 X102.016 Y78.728 E9.92975
G1 X102.46 Y78.389 E9.95762
G1 F1503.8 X103.111 Y78.127 E9.99255
G1 X103.672 Y78.052 E10.02071
G1 F1500 X104.22 Y78.107 E10.04819
G1 X104.861 Y78.347 E10.08234
G1 X105.331 Y78.673 E10.11088
G1 X105.695 Y79.081 E10.13815
G1 X106.013 Y79.703 E10.17301
G1 X106.145 Y80.402 E10.2085
G1 X106.151 Y80.492 E10.213
G1 X106.096 Y81.012 E10.23908
G1 X105.874 Y81.623 E10.27152
G1 X105.569 Y82.08 E10.29893
G1 X105.029 Y82.554 E10.33477
G1 F1503.8 X104.527 Y82.804 E10.36268
G1 X103.844 Y82.942 E10.39736
G1 F1500 X103.271 Y82.91 E10.42599
G1 X102.614 Y82.693 E10.46051
G1 X102.133 Y82.379 E10.48917
G1 X101.669 Y81.861 E10.52386
G0 F4500 X101.364 Y82.12
G1 F1500 X101.051 Y81.537 E10.55688
G1 X100.869 Y80.766 E10.5964
G1 X100.857 Y80.469 E10.61123
G1 X100.916 Y79.921 E10.63873
G1 X100.993 Y79.63 E10.65374
G1 X101.234 Y79.076 E10.68389
G1 X101.71 Y78.47 E10.72233
G1 X102.229 Y78.062 E10.75527
G1 F1333.3 X102.954 Y77.704 E10.80065
G1 F1085 X103.13 Y77.602 E10.81468
G1 F1192.8 X102.381 Y77.501 E10.86209
G1 F1500 X101.259 Y77.5 E10.91807
G1 X99.177 Y77.5 E11.02194
G1 X99.177 Y83.5 E11.32128
G1 X102.402 Y83.499 E11.48218
G1 F1405.2 X102.941 Y83.472 E11.51092
G1 F1147.2 X103.226 Y83.404 E11.53003
G1 F1209.7 X102.477 Y83.069 E11.58079
G1 F1500 X101.903 Y82.706 E11.61468
G1 X101.364 Y82.12 E11.6544
G0 F4500 X103.226 Y83.404
G1 F1038.1 X103.926 Y83.417 E11.70487
G1 F982 X104.473 Y83.37 E11.74671
G0 F4500 X106.499 Y81.018
G1 F1500 X106.32 Y81.615 E11.77781
G1 X106.033 Y82.104 E11.80609
G1 X105.701 Y82.522 E11.83272
G1 X105.281 Y82.864 E11.85975
G1 F1385.7 X104.707 Y83.198 E11.89561
G1 F1067.6 X104.473 Y83.37 E11.91597
G1 X104.765 Y83.467 E11.93754
G1 F1385.7 X105.507 Y83.499 E11.97765
G1 F1500 X107.843 Y83.5 E12.09419
G1 X107.677 Y83 E12.12047
G1 X107.677 Y78 E12.36993
G1 X107.843 Y77.5 E12.39621
G1 X105.105 Y77.501 E12.53281
G1 F1405.2 X104.575 Y77.528 E12.56107
G1 F1127.8 X104.283 Y77.606 E12.58113
G1 F1188.1 X105.012 Y77.976 E12.63262
G1 F1500 X105.569 Y78.352 E12.66615
G1 X106.001 Y78.824 E12.69807
G1 X106.374 Y79.531 E12.73795
G1 X106.46 Y79.812 E12.75261
G1 X106.54 Y80.342 E12.77935
G1 X106.499 Y81.018 E12.81314
G0 F4500 X105.95 Y79.408
G0 X104.283 Y77.606
G1 F1034.5 X103.729 Y77.575 E12.85328
G1 F1038.1 X103.13 Y77.602 E12.89651
G0 F4500 X108.039 Y77.362
G0 X112.315 Y77.362
G0 X114.316 Y82.119
G1 F1500 X114.003 Y81.537 E12.92947
G1 X113.821 Y80.767 E12.96895
G1 X113.809 Y80.468 E12.98388
G1 X113.868 Y79.92 E13.01138
G1 X113.944 Y79.63 E13.02633
G1 X114.162 Y79.129 E13.05359
G1 X114.314 Y78.882 E13.06806
G1 X114.662 Y78.47 E13.09497
G1 X115.181 Y78.062 E13.1279
G1 F1333.3 X115.906 Y77.704 E13.17328
G1 F1085 X116.082 Y77.602 E13.18732
G1 F1192.8 X115.333 Y77.501 E13.23473
G1 F1500 X114.211 Y77.5 E13.29071
G1 X112.511 Y77.5 E13.37552
G1 X112.677 Y78 E13.4018
G1 X112.677 Y80.576 E13.53032
G1 X112.678 Y82.608 E13.6317
G1 X112.677 Y83 E13.65126
G1 X112.511 Y83.499 E13.67749
G1 X115.354 Y83.499 E13.81933
G1 F1405.2 X115.893 Y83.472 E13.84807
G1 F1149.4 X116.178 Y83.403 E13.86716
G1 F1212.1 X115.429 Y83.069 E13.9178
G1 F1500 X114.855 Y82.706 E13.95168
G1 X114.316 Y82.119 E13.99144
G0 F4500 X116.178 Y83.403
G1 F1039.9 X116.878 Y83.417 E14.04182
G1 F982 X117.425 Y83.37 E14.08366
G0 F4500 X119.451 Y81.018
G1 F1500 X119.272 Y81.615 E14.11476
G1 X119.003 Y82.078 E14.14147
G1 X118.653 Y82.522 E14.16968
G1 X118.233 Y82.864 E14.1967
G1 F1385.7 X117.659 Y83.198 E14.23257
G1 F1067.6 X117.425 Y83.37 E14.25292
G1 X117.717 Y83.465 E14.27445
G1 F1385.7 X118.459 Y83.499 E14.31456
G1 F1500 X120.677 Y83.499 E14.42522
G1 X120.677 Y78.406 E14.67931
G1 X120.677 Y77.5 E14.72451
G1 X118.057 Y77.501 E14.85522
G1 F1405.2 X117.527 Y77.528 E14.88348
G1 F1127.8 X117.235 Y77.606 E14.90354
G1 F1188.1 X117.964 Y77.976 E14.95503
G1 F1500 X118.521 Y78.352 E14.98856
G1 X118.953 Y78.824 E15.02048
G1 X119.325 Y79.531 E15.06034
G1 X119.412 Y79.812 E15.07501
G1 X119.492 Y80.342 E15.10176
G1 X119.451 Y81.018 E15.13554
G0 F4500 X118.902 Y79.408
G0 X117.235 Y77.606
G1 F1034.5 X116.681 Y77.575 E15.17568
G1 F1038.1 X116.082 Y77.602 E15.21891
G0 F4500 X117.912 Y78.341
G0 X118.8 Y79.269
G0 X119.802 Y81.334
;TYPE:SKIN
G1 F1388.9 X119.494 Y82.022 E15.25953
G1 F1500 X119.172 Y82.513 E15.28882
G1 X118.895 Y82.817 E15.30934
G1 X118.522 Y83.118 E15.33325
G1 X120.297 Y83.118 E15.42181
G1 X120.297 Y82.178 E15.4687
G1 F1415.1 X120.274 Y81.474 E15.50595
G1 F1395.3 X120.291 Y80.683 E15.54838
G1 F1382.5 X120.269 Y79.717 E15.60069
G1 F1357.5 X120.283 Y79.196 E15.62942
G1 F1449.3 X120.297 Y78.675 E15.65633
G1 F1500 X120.297 Y78.41 E15.66955
G1 X120.297 Y77.88 E15.696
G1 X118.499 Y77.881 E15.7857
G1 X118.775 Y78.072 E15.80244
G1 X119.237 Y78.569 E15.8363
G1 X119.433 Y78.871 E15.85426
G1 X119.667 Y79.362 E15.8814
G1 F1401.9 X119.816 Y79.751 E15.90363
G1 F1376.1 X119.876 Y80.283 E15.93275
G1 F1449.3 X119.88 Y80.652 E15.9518
G1 F1366.7 X119.802 Y81.334 E15.98939
G0 F4500 X119.359 Y82.59
G1 F1500 X119.687 Y82.917 E16.01249
G0 F4500 X120.096 Y82.761
G1 F1500 X119.585 Y82.25 E16.04855
G0 F4500 X119.781 Y81.88
G1 F1500 X120.096 Y82.195 E16.07077
G0 F4500 X120.048 Y81.581
G1 F1500 X119.968 Y81.501 E16.07642
G0 F4500 X120.088 Y79.359
G1 F1500 X119.696 Y78.967 E16.10408
G0 F4500 X120.096 Y78.801
G1 F1500 X119.377 Y78.082 E16.1548
G0 F4500 X119.941 Y78.08
G1 F1500 X120.096 Y78.235 E16.16574
G0 F4500 X118.823 Y81.739
G0 X117.947 Y82.64
G0 X116.706 Y83.001
G0 X114.024 Y82.365
G1 F1500 X113.827 Y82.054 E16.18411
G1 X113.561 Y81.408 E16.21896
G1 X113.448 Y80.839 E16.2479
G1 F1526.7 X113.437 Y80.428 E16.26806
G1 F1492.5 X113.481 Y79.877 E16.29577
G1 F1470.6 X113.598 Y79.473 E16.31718
G1 F1500 X113.953 Y78.734 E16.35808
G1 X114.368 Y78.227 E16.39077
G1 X114.798 Y77.881 E16.4183
G1 X113.028 Y77.881 E16.50661
G1 X113.058 Y78.391 E16.53209
G1 X113.058 Y79.44 E16.58443
G1 F1526.7 X113.051 Y80.408 E16.63188
G1 F1538.5 X113.054 Y80.913 E16.65644
G1 F1515.2 X113.057 Y81.418 E16.68139
G1 F1500 X113.057 Y82.997 E16.76016
G1 X113.028 Y83.118 E16.76637
G1 X113.569 Y83.119 E16.79336
G1 X114.798 Y83.118 E16.85468
G1 X114.402 Y82.807 E16.8798
G1 X114.024 Y82.365 E16.90881
G0 F4500 X113.256 Y82.709
G1 F1500 X113.465 Y82.918 E16.92356
G0 F4500 X114.031 Y82.918
G1 F1500 X113.256 Y82.143 E16.97824
G0 F4500 X113.53 Y81.852
G1 F1500 X113.256 Y81.578 E16.99757
G0 F4500 X113.393 Y79.451
G1 F1500 X113.257 Y79.316 E17.00713
G0 F4500 X113.574 Y79.067
G1 F1500 X113.257 Y78.75 E17.0295
G0 F4500 X113.76 Y78.688
G1 F1500 X113.257 Y78.184 E17.06502
G0 F4500 X113.719 Y78.081
G1 F1500 X113.998 Y78.36 E17.08471
G0 F4500 X112.315 Y77.362
G0 X108.039 Y77.362
G0 X106.682 Y81.73
G1 F1500 X106.356 Y82.304 E17.11764
G1 X105.973 Y82.787 E17.1484
G1 X105.57 Y83.119 E17.17444
G1 X107.327 Y83.12 E17.2621
G1 X107.297 Y82.602 E17.28799
G1 X107.297 Y81.825 E17.32675
G1 F1470.6 X107.289 Y81.158 E17.3607
G1 F1503.8 X107.306 Y80.49 E17.39395
G1 F1474.2 X107.282 Y79.728 E17.43265
G1 F1418.4 X107.289 Y79.207 E17.46014
G1 F1474.2 X107.297 Y78.686 E17.48659
G1 F1500 X107.297 Y78.003 E17.52067
G1 X107.326 Y77.881 E17.52692
G1 X106.784 Y77.88 E17.55397
G1 X105.906 Y77.881 E17.59777
G1 X105.547 Y77.881 E17.61568
G1 X105.823 Y78.072 E17.63242
G1 X106.285 Y78.569 E17.66628
G1 X106.482 Y78.871 E17.68427
G1 X106.716 Y79.361 E17.71136
G1 F1445.8 X106.852 Y79.756 E17.73298
G1 F1470.6 X106.922 Y80.465 E17.76924
G1 F1500 X106.874 Y81.137 E17.80285
G1 F1470.6 X106.682 Y81.73 E17.83457
G0 F4500 X106.367 Y82.609
G1 F1500 X106.676 Y82.917 E17.85633
G0 F4500 X107.096 Y82.772
G1 F1500 X106.601 Y82.276 E17.89129
G0 F4500 X106.808 Y81.918
G1 F1500 X107.096 Y82.206 E17.91161
G0 F4500 X107.091 Y81.635
G1 F1500 X106.965 Y81.509 E17.9205
G0 F4500 X107.091 Y79.372
G1 F1500 X106.779 Y79.06 E17.94252
G0 F4500 X107.096 Y78.812
G1 F1500 X106.365 Y78.081 E17.99409
G0 F4500 X106.93 Y78.08
G1 F1500 X107.096 Y78.246 E18.00581
G0 F4500 X105.962 Y81.566
G0 X104.995 Y82.64
G0 X103.754 Y83.001
G0 X101.074 Y82.368
G1 F1500 X100.875 Y82.056 E18.02427
G1 X100.609 Y81.407 E18.05926
G1 X100.496 Y80.838 E18.0882
G1 X100.478 Y80.427 E18.10873
G1 X100.537 Y79.877 E18.13632
G1 X100.643 Y79.48 E18.15682
G1 X100.86 Y78.977 E18.18415
G1 X101.072 Y78.634 E18.20427
G1 X101.417 Y78.226 E18.23093
G1 X101.845 Y77.881 E18.25836
G1 X99.557 Y77.881 E18.3725
G1 X99.557 Y83.12 E18.63388
G1 X101.847 Y83.119 E18.74813
G1 X101.45 Y82.807 E18.77332
G1 X101.074 Y82.368 E18.80216
G0 F4500 X99.89 Y82.919
G1 F1500 X99.756 Y82.785 E18.81161
G0 F4500 X99.756 Y82.22
G1 F1500 X100.455 Y82.919 E18.86093
G0 F4500 X101.02 Y82.918
G1 F1500 X99.756 Y81.654 E18.95011
G0 F4500 X99.756 Y81.088
G1 F1500 X100.617 Y81.949 E19.01086
G1 X100.687 Y82.019
G0 F4500 X100.344 Y81.111
G1 F1500 X99.756 Y80.523 E19.05234
G0 F4500 X100.278 Y80.479
G1 F1500 X99.756 Y79.957 E19.08917
G0 F4500 X99.756 Y79.391
G1 F1500 X100.327 Y79.962 E19.12946
G0 F4500 X100.428 Y79.498
G1 F1500 X99.756 Y78.826 E19.17688
G0 F4500 X99.756 Y78.26
G1 F1500 X100.592 Y79.096 E19.23586
G0 F4500 X100.783 Y78.722
G1 F1500 X100.143 Y78.081 E19.28105
G0 F4500 X100.708 Y78.081
G1 F1500 X101.017 Y78.389 E19.30282
G1 F2700 E14.30282
;MESH:01.stl
G0 F4500 X101.526 Y81.25
G0 X101.949 Y81.991
G0 X102.614 Y82.528
G0 X107.075 Y84.089
G0 X107.075 Y86.402
G0 X107.075 Y89.746
G1 F2700 E19.30282
G0 F4500 X107.581 Y89.677
;TYPE:WALL-OUTER
G1 F1500 X107.596 Y89.054 E19.33391
G1 X107.784 Y88.433 E19.36628
G1 X108.139 Y87.876 E19.39923
G1 X108.613 Y87.449 E19.43106
G1 X109.174 Y87.165 E19.46243
G1 X109.83 Y87.036 E19.49578
G1 X110.103 Y87.036 E19.5094
G1 X110.678 Y87.139 E19.53855
G1 X111.254 Y87.407 E19.57024
G1 X111.742 Y87.815 E19.60198
G1 X112.115 Y88.36 E19.63493
G1 X112.322 Y88.977 E19.66739
G1 X112.356 Y89.622 E19.69962
G1 X112.228 Y90.231 E19.73067
G1 X111.93 Y90.809 E19.76311
G1 X111.602 Y91.184 E19.78796
G1 X111.135 Y91.527 E19.81687
G1 X110.541 Y91.759 E19.84869
G1 F1595.7 X110.05 Y91.804 E19.87181
G1 F1608.6 X109.468 Y91.774 E19.89892
G1 F1511.3 X108.868 Y91.564 E19.9304
G1 F1500 X108.329 Y91.183 E19.96333
G1 X107.926 Y90.693 E19.99498
G1 X107.708 Y90.231 E20.02047
G1 X107.581 Y89.677 E20.04882
G0 F4500 X107.585 Y89.477
G0 X107.06 Y89.496
G0 X107.075 Y94.83
G0 X107.581 Y94.761
G1 F1500 X107.596 Y94.138 E20.07991
G1 X107.784 Y93.517 E20.11229
G1 X108.139 Y92.959 E20.14528
G1 X108.614 Y92.534 E20.17708
G1 X109.174 Y92.25 E20.20841
G1 F1583.1 X109.834 Y92.141 E20.24003
G1 F1591.5 X110.465 Y92.17 E20.26973
G1 F1507.5 X110.935 Y92.321 E20.29423
G1 F1500 X111.434 Y92.616 E20.32315
G1 X111.883 Y93.07 E20.35501
G1 X112.139 Y93.494 E20.37972
G1 X112.328 Y94.085 E20.41068
G1 X112.356 Y94.706 E20.44169
G1 X112.228 Y95.315 E20.47274
G1 X111.93 Y95.893 E20.50518
G1 X111.604 Y96.267 E20.52993
G1 X111.135 Y96.611 E20.55895
G1 F1503.8 X110.541 Y96.844 E20.5907
G1 X110.048 Y96.912 E20.61547
G1 F1500 X109.469 Y96.862 E20.64446
G1 X108.867 Y96.648 E20.67634
G1 X108.328 Y96.267 E20.70927
G1 X107.926 Y95.777 E20.74089
G1 X107.707 Y95.316 E20.76635
