;FLAVOR:Marlin
;TIME:1504
;Filament used: 0.823604m
;Layer height: 0.15
;MINX:91.47
;MINY:71.596
;MINZ:0.3
;MAXX:128.516
;MAXY:148.402
;MAXZ:2.55
;Generated with Cura_SteamEngine 5.0.0
M140 S60
M105
M190 S60
M104 S200
M105
M109 S200
M82 ;absolute extrusion mode
G28 ;Home
G1 Z15.0 F6000 ;Move the platform down 15mm
;Prime the extruder
G92 E0
G1 F200 E3
G92 E0
G92 E0
G92 E0
G1 F2700 E-5
;LAYER_COUNT:16
;LAYER:0
M106 S255
G0 F1800 X92.562 Y89.611 Z0.3
G0 X91.47 Y92.474
;TYPE:SKIRT
G1 F2700 E0
G1 F600 X91.507 Y91.939 E0.02676
G1 X91.622 Y91.415 E0.05352
G1 X91.955 Y90.577 E0.09851
G1 X92.202 Y90.101 E0.12526
G1 X92.562 Y89.611 E0.1556
G1 X93.461 Y88.72 E0.21874
G1 X95.448 Y86.769 E0.35767
G1 X97.338 Y84.804 E0.4937
G1 X99.169 Y82.791 E0.62945
G1 X100.954 Y80.712 E0.76616
G1 X102.662 Y78.605 E0.90148
G1 X104.312 Y76.449 E1.03693
G1 X106.531 Y73.346 E1.22725
G1 X106.874 Y72.934 E1.25399
G1 X107.275 Y72.578 E1.28075
G1 X107.928 Y72.154 E1.31959
G1 X108.404 Y71.907 E1.34634
G1 X108.911 Y71.734 E1.37307
G1 X109.419 Y71.639 E1.39885
G1 X110.169 Y71.596 E1.43633
G1 X110.733 Y71.662 E1.46466
G1 X111.457 Y71.846 E1.50193
G1 X112.104 Y72.153 E1.53766
G1 X112.756 Y72.594 E1.57693
G1 X113.18 Y73.003 E1.60632
G1 X113.514 Y73.403 E1.63232
G1 X113.943 Y74.002 E1.66908
G1 X114.8 Y75.23 E1.74379
G1 X116.427 Y77.425 E1.8801
G1 X118.109 Y79.566 E2.01594
G1 X119.84 Y81.645 E2.1509
G1 X121.671 Y83.721 E2.289
G1 X123.516 Y85.698 E2.42392
G1 X125.419 Y87.626 E2.55907
G1 X126.135 Y88.311 E2.6085
G1 X126.218 Y88.403 E2.61469
G1 X127.209 Y89.365 E2.68359
G1 X127.564 Y89.766 E2.71031
G1 X127.922 Y90.341 E2.7441
G1 X128.34 Y91.268 E2.79483
G1 X128.467 Y91.789 E2.82159
G1 X128.516 Y92.41 E2.85267
G1 X128.467 Y93.413 E2.90277
G1 X128.195 Y94.542 E2.9607
G1 X127.867 Y95.762 E3.02373
G1 X127.236 Y98.413 E3.15969
G1 X126.677 Y101.096 E3.29642
G1 X126.203 Y103.739 E3.43038
G1 X125.795 Y106.448 E3.56706
G1 X125.467 Y109.155 E3.7031
G1 X125.215 Y111.868 E3.83903
G1 X125.039 Y114.6 E3.97561
G1 X124.941 Y117.327 E4.11175
G1 X124.919 Y120.058 E4.24801
G1 X124.975 Y122.752 E4.38244
G1 X125.11 Y125.517 E4.52055
G1 X125.317 Y128.201 E4.65485
G1 X125.605 Y130.92 E4.79126
G1 X125.968 Y133.621 E4.92723
G1 X126.374 Y136.125 E5.05379
G1 X127.49 Y142.485 E5.37593
G1 X127.58 Y143.04 E5.40399
G1 X127.647 Y143.655 E5.43485
G1 X127.659 Y144.191 E5.4616
G1 X127.557 Y144.904 E5.49753
G1 X127.417 Y145.422 E5.5243
G1 X127.189 Y145.935 E5.55231
G1 X126.766 Y146.633 E5.59303
G1 X126.391 Y147.057 E5.62127
G1 X125.799 Y147.574 E5.66048
G1 X125.135 Y147.948 E5.6985
G1 X124.293 Y148.269 E5.74346
G1 X123.659 Y148.377 E5.77554
G1 X122.724 Y148.383 E5.82219
G1 X119.514 Y148.014 E5.98339
G1 X116.785 Y147.783 E6.12003
G1 X114.089 Y147.63 E6.25475
G1 X111.327 Y147.553 E6.3926
G1 X108.632 Y147.553 E6.52706
G1 X105.865 Y147.632 E6.66516
G1 X103.173 Y147.785 E6.79968
G1 X100.462 Y148.016 E6.93542
G1 X98.342 Y148.267 E7.04193
G1 X97.255 Y148.385 E7.09648
G1 X96.698 Y148.402 E7.12428
G1 X95.952 Y148.327 E7.16168
G1 X95.418 Y148.184 E7.18926
G1 X94.917 Y147.992 E7.21603
G1 X94.458 Y147.733 E7.24233
G1 X93.781 Y147.235 E7.28426
G1 X93.411 Y146.846 E7.31104
G1 X92.926 Y146.126 E7.35435
G1 X92.676 Y145.651 E7.38113
G1 X92.499 Y145.145 E7.40787
G1 X92.396 Y144.652 E7.433
G1 X92.339 Y144.119 E7.45974
G1 X92.365 Y143.478 E7.49175
G1 X92.507 Y142.501 E7.54101
G1 X93.633 Y136.081 E7.86619
G1 X94.064 Y133.402 E8.00156
G1 X94.422 Y130.689 E8.13809
G1 X94.703 Y127.971 E8.27441
G1 X94.907 Y125.249 E8.4106
G1 X95.033 Y122.521 E8.54684
G1 X95.082 Y119.818 E8.68172
G1 X95.053 Y117.057 E8.81947
G1 X94.951 Y114.369 E8.95367
G1 X94.768 Y111.642 E9.09003
G1 X94.508 Y108.921 E9.2264
G1 X94.171 Y106.207 E9.36284
G1 X93.76 Y103.513 E9.4988
G1 X93.274 Y100.843 E9.6342
G1 X92.716 Y98.193 E9.7693
G1 X92.066 Y95.496 E9.90771
G1 X91.715 Y94.19 E9.97518
G1 X91.575 Y93.617 E10.00461
G1 X91.487 Y93.088 E10.03136
G1 X91.47 Y92.474 E10.06201
G0 F1800 X91.872 Y92.784
G1 F600 X91.907 Y91.967 E10.1028
G1 X92.022 Y91.475 E10.12801
G1 X92.323 Y90.734 E10.16791
G1 X92.558 Y90.286 E10.19315
G1 X92.87 Y89.866 E10.21926
G1 X93.778 Y88.97 E10.2829
G1 X95.716 Y87.066 E10.41844
G1 X97.639 Y85.067 E10.55682
G1 X99.468 Y83.057 E10.69241
G1 X101.252 Y80.979 E10.82904
G1 X102.974 Y78.855 E10.96546
G1 X104.631 Y76.689 E11.10152
G1 X106.856 Y73.578 E11.29234
G1 X107.182 Y73.192 E11.31754
G1 X107.564 Y72.861 E11.34276
G1 X108.138 Y72.495 E11.37672
G1 X108.588 Y72.264 E11.40196
G1 X109.069 Y72.106 E11.42722
G1 X109.677 Y72.013 E11.4579
G1 X110.183 Y71.996 E11.48316
G1 X110.863 Y72.095 E11.51745
G1 X111.349 Y72.232 E11.54264
G1 X111.897 Y72.496 E11.57298
G1 X112.522 Y72.921 E11.61069
G1 X112.892 Y73.281 E11.63645
G1 X113.592 Y74.198 E11.694
G1 X114.483 Y75.475 E11.77169
G1 X116.106 Y77.665 E11.90768
G1 X117.802 Y79.824 E12.04465
G1 X119.531 Y81.9 E12.17944
G1 X121.362 Y83.975 E12.3175
G1 X123.239 Y85.988 E12.45482
G1 X125.14 Y87.913 E12.58979
G1 X125.858 Y88.6 E12.63937
G1 X125.935 Y88.686 E12.64513
G1 X126.93 Y89.652 E12.71432
G1 X127.264 Y90.032 E12.73956
G1 X127.564 Y90.52 E12.76814
G1 X127.969 Y91.419 E12.81733
G1 X128.082 Y91.912 E12.84256
G1 X128.112 Y92.875 E12.89063
G1 X128.068 Y93.379 E12.91587
G1 X127.807 Y94.442 E12.97048
G1 X127.486 Y95.638 E13.03226
G1 X126.851 Y98.303 E13.16894
G1 X126.285 Y101.022 E13.3075
G1 X125.802 Y103.714 E13.44395
G1 X125.402 Y106.373 E13.5781
G1 X125.065 Y109.141 E13.71721
G1 X124.815 Y111.841 E13.85249
G1 X124.64 Y114.56 E13.98843
G1 X124.541 Y117.309 E14.12566
G1 X124.519 Y120.063 E14.26307
G1 X124.575 Y122.781 E14.3987
G1 X124.709 Y125.529 E14.53596
G1 X124.919 Y128.24 E14.67161
G1 X125.209 Y130.978 E14.80898
G1 X125.57 Y133.666 E14.94429
G1 X125.973 Y136.153 E15.06998
G1 X127.095 Y142.549 E15.39395
G1 X127.211 Y143.305 E15.43211
G1 X127.258 Y144.199 E15.47677
G1 X127.164 Y144.828 E15.5085
G1 X127.03 Y145.316 E15.53375
G1 X126.704 Y145.991 E15.57115
G1 X126.429 Y146.415 E15.59636
G1 X125.933 Y146.944 E15.63254
G1 X125.543 Y147.265 E15.65774
G1 X124.977 Y147.581 E15.69008
G1 X124.162 Y147.889 E15.73355
G1 X123.628 Y147.978 E15.76056
G1 X122.77 Y147.986 E15.80337
G1 X119.561 Y147.617 E15.96452
G1 X116.806 Y147.384 E16.10246
G1 X114.088 Y147.23 E16.23828
G1 X111.339 Y147.153 E16.37548
G1 X108.621 Y147.153 E16.51108
G1 X105.865 Y147.232 E16.64863
G1 X103.117 Y147.388 E16.78595
G1 X100.442 Y147.615 E16.91989
G1 X98.298 Y147.869 E17.0276
G1 X97.211 Y147.987 E17.08215
G1 X96.503 Y147.993 E17.11747
G1 X96.001 Y147.929 E17.14272
G1 X95.532 Y147.801 E17.16697
G1 X95.061 Y147.618 E17.19218
G1 X94.425 Y147.231 E17.22933
G1 X94.028 Y146.919 E17.25452
G1 X93.685 Y146.548 E17.27973
G1 X93.265 Y145.913 E17.31771
G1 X93.031 Y145.465 E17.34292
G1 X92.829 Y144.792 E17.37798
G1 X92.738 Y144.077 E17.41394
G1 X92.764 Y143.505 E17.44251
G1 X92.902 Y142.565 E17.48991
G1 X94.027 Y136.15 E17.81484
G1 X94.462 Y133.446 E17.95147
G1 X94.818 Y130.746 E18.08734
G1 X95.101 Y128.008 E18.22467
G1 X95.304 Y125.295 E18.3604
G1 X95.434 Y122.499 E18.50004
G1 X95.482 Y119.818 E18.63382
G1 X95.454 Y117.074 E18.77073
G1 X95.349 Y114.326 E18.90793
G1 X95.165 Y111.591 E19.04468
G1 X94.905 Y108.871 E19.181
G1 X94.566 Y106.134 E19.3186
G1 X94.156 Y103.453 E19.45391
G1 X93.666 Y100.761 E19.59042
G1 X93.109 Y98.114 E19.72537
G1 X92.457 Y95.413 E19.86399
G1 X92.103 Y94.096 E19.93203
G1 X91.963 Y93.523 E19.96146
G1 X91.872 Y92.784 E19.99861
G1 F2700 E14.99861
;MESH:Katokutai.stl
G0 F1800 X94.394 Y92.762
G0 X95.479 Y92.63
G0 X104.265 Y91.962
G0 X105.383 Y91.668
G1 F2700 E19.99861
G0 F1800 X105.068 Y91.266
;TYPE:WALL-OUTER
G1 F600 X104.654 Y91.549 E20.02363
G1 X104.183 Y91.725 E20.04871
G1 X103.704 Y91.785 E20.07279
G1 X96.072 Y91.786 E20.45356
G1 X95.682 Y91.884 E20.47362
G1 X95.477 Y92.039 E20.48644
G1 X95.328 Y92.258 E20.49966
G1 X95.256 Y92.509 E20.51268
G1 X95.268 Y92.767 E20.52557
G1 X95.364 Y93.013 E20.53874
G1 X95.584 Y93.261 E20.55528
G1 X102.74 Y99.482 E21.02834
G1 X102.926 Y99.668 E21.04147
G1 X103.24 Y100.093 E21.06783
G1 X103.449 Y100.572 E21.0939
G1 X103.551 Y101.116 E21.12152
G1 X103.528 Y101.667 E21.14903
G1 X100.705 Y117.768 E21.96457
G1 X100.07 Y121.387 E22.14788
G1 X96.135 Y143.812 E23.28376
G1 X96.165 Y144.142 E23.30029
G1 X96.267 Y144.341 E23.31145
G1 X96.518 Y144.554 E23.32787
G1 X96.837 Y144.607 E23.344
G1 X97.151 Y144.513 E23.36035
G1 X97.372 Y144.305 E23.3755
G1 X109.253 Y129.195 E24.33447
G1 X109.503 Y128.976 E24.35105
G1 X109.788 Y128.859 E24.36642
G1 X110.099 Y128.841 E24.38196
G1 X110.412 Y128.933 E24.39824
G1 X110.74 Y129.186 E24.4189
G1 X122.66 Y144.347 E25.38107
G1 X122.931 Y144.548 E25.39791
G1 X123.251 Y144.614 E25.41421
G1 X123.564 Y144.499 E25.43085
G1 X123.792 Y144.266 E25.44711
G1 X123.864 Y143.947 E25.46342
G1 X123.854 Y143.753 E25.47312
G1 X116.475 Y101.699 E27.60325
G1 X116.447 Y101.437 E27.6164
G1 X116.473 Y100.91 E27.64272
G1 X116.615 Y100.401 E27.66909
G1 X116.876 Y99.916 E27.69656
G1 X117.238 Y99.505 E27.72389
G1 X117.846 Y98.973 E27.76419
G1 X124.465 Y93.22 E28.20172
G1 X124.695 Y92.892 E28.2217
G1 X124.748 Y92.638 E28.23465
G1 X124.733 Y92.508 E28.24118
G1 X124.662 Y92.26 E28.25405
G1 X124.519 Y92.051 E28.26668
G1 X124.303 Y91.889 E28.28015
G1 X124.017 Y91.801 E28.29508
G1 X123.87 Y91.788 E28.30244
G1 X116.3 Y91.786 E28.68011
G1 X116.059 Y91.768 E28.69217
G1 X115.568 Y91.648 E28.71739
G1 X115.12 Y91.414 E28.7426
G1 X114.742 Y91.081 E28.76773
G1 X114.453 Y90.668 E28.79288
G1 X114.272 Y90.207 E28.81759
G1 X110.512 Y75.793 E29.56077
G1 X110.379 Y75.561 E29.57411
G1 X110.169 Y75.415 E29.58687
G1 X109.913 Y75.4 E29.59967
G1 X109.68 Y75.495 E29.61222
G1 X109.51 Y75.741 E29.62714
G1 X109.477 Y75.837 E29.6322
G1 X105.726 Y90.217 E30.37363
G1 X105.648 Y90.45 E30.38589
G1 X105.409 Y90.893 E30.411
G1 X105.068 Y91.266 E30.43622
G0 F1800 X104.903 Y91.378
G0 X104.925 Y91.854
;TYPE:WALL-INNER
G1 F600 X104.374 Y92.086 E30.46604
G1 X103.781 Y92.181 E30.49601
G1 X103.704 Y92.185 E30.49985
G1 X96.088 Y92.186 E30.87982
G1 X95.87 Y92.244 E30.89107
G1 X95.695 Y92.43 E30.90381
G1 X95.665 Y92.683 E30.91652
G1 X95.82 Y92.937 E30.93137
G1 X103.02 Y99.196 E31.40733
G1 X103.248 Y99.43 E31.42363
G1 X103.557 Y99.848 E31.44956
G1 X103.816 Y100.414 E31.48062
G1 X103.945 Y101.046 E31.5128
G1 X103.928 Y101.687 E31.54479
G1 X103.916 Y101.778 E31.54937
G1 X96.535 Y143.85 E33.6804
G1 X96.56 Y144.065 E33.6912
G1 X96.688 Y144.185 E33.69996
G1 X96.85 Y144.205 E33.7081
G1 X97.057 Y144.057 E33.7208
G1 X108.939 Y128.948 E34.67976
G1 X109.284 Y128.639 E34.70286
G1 X109.689 Y128.47 E34.72476
G1 X110.143 Y128.442 E34.74745
G1 X110.597 Y128.576 E34.77107
G1 X111 Y128.878 E34.79619
G1 X111.054 Y128.939 E34.80026
G1 X122.954 Y144.073 E35.76075
G1 X123.136 Y144.202 E35.77188
G1 X123.307 Y144.188 E35.78044
G1 X123.436 Y144.072 E35.7891
G1 X123.46 Y143.821 E35.80168
G1 X116.078 Y101.746 E37.93287
G1 X116.047 Y101.418 E37.94931
G1 X116.073 Y100.881 E37.97613
G1 X116.23 Y100.292 E38.00654
G1 X116.526 Y99.723 E38.03854
G1 X116.94 Y99.238 E38.07035
G1 X117.584 Y98.671 E38.11316
G1 X124.191 Y92.928 E38.54991
G1 X124.317 Y92.744 E38.56103
G1 X124.335 Y92.554 E38.57055
G1 X124.272 Y92.372 E38.58016
G1 X124.056 Y92.212 E38.59357
G1 X123.87 Y92.188 E38.60293
G1 X116.275 Y92.185 E38.98184
G1 X115.968 Y92.158 E38.99722
G1 X115.445 Y92.03 E39.02408
G1 X114.979 Y91.798 E39.05005
G1 X114.513 Y91.419 E39.08002
G1 X114.151 Y90.943 E39.10986
G1 X113.913 Y90.398 E39.13953
G1 X113.885 Y90.308 E39.14423
G1 X110.133 Y75.927 E39.88572
G1 X110.038 Y75.799 E39.89367
G1 X109.93 Y75.815 E39.89912
G1 X109.864 Y75.939 E39.90612
G1 X106.107 Y90.339 E40.64859
G1 X106.002 Y90.636 E40.66431
G1 X105.759 Y91.092 E40.69009
G1 X105.401 Y91.502 E40.71724
G1 X104.925 Y91.854 E40.74678
G0 F1800 X105.154 Y92.182
G1 F600 X104.642 Y92.411 E40.77476
G1 X104.286 Y92.518 E40.79331
G1 X103.704 Y92.585 E40.82253
G1 X96.109 Y92.585 E41.20145
G1 X96.063 Y92.602 E41.2039
G1 X96.109 Y92.658 E41.20751
G1 X103.281 Y98.892 E41.6816
G1 X103.569 Y99.192 E41.70235
G1 X103.882 Y99.615 E41.7286
G1 X104.184 Y100.255 E41.76391
G1 X104.339 Y100.976 E41.8007
G1 X104.327 Y101.708 E41.83722
G1 X104.31 Y101.847 E41.84421
G1 X97.008 Y143.472 E43.9526
G1 X108.624 Y128.7 E44.89014
G1 X108.996 Y128.351 E44.91559
G1 X109.504 Y128.105 E44.94375
G1 X110.046 Y128.036 E44.97101
G1 X110.527 Y128.121 E44.99538
G1 X110.89 Y128.291 E45.01538
G1 X111.369 Y128.691 E45.04651
G1 X122.994 Y143.477 E45.98488
G1 X115.68 Y101.793 E48.09627
G1 X115.648 Y101.399 E48.11599
G1 X115.675 Y100.843 E48.14377
G1 X115.845 Y100.183 E48.17777
G1 X116.175 Y99.53 E48.21427
G1 X116.642 Y98.971 E48.25061
G1 X117.322 Y98.369 E48.29592
G1 X123.917 Y92.634 E48.73195
G1 X123.938 Y92.6 E48.73394
G1 X123.87 Y92.588 E48.73739
G1 X116.25 Y92.585 E49.11755
G1 X115.877 Y92.547 E49.13626
G1 X115.364 Y92.425 E49.16257
G1 X114.798 Y92.154 E49.19387
G1 X114.369 Y91.822 E49.22094
G1 X114.092 Y91.547 E49.24041
G1 X113.798 Y91.135 E49.26566
G1 X113.542 Y90.547 E49.29766
G1 X113.498 Y90.409 E49.30488
G1 X110 Y77 E49.99625
G1 X106.488 Y90.462 E50.69035
G1 X106.356 Y90.822 E50.70948
G1 X106.119 Y91.271 E50.73481
G1 X105.7 Y91.768 E50.76724
G1 X105.154 Y92.182 E50.80143
G0 F1800 X104.953 Y92.696
;TYPE:SKIN
G1 F600 X104.382 Y92.887 E50.83147
G1 X103.724 Y92.964 E50.86452
G1 X97.043 Y92.965 E51.19783
G1 X103.518 Y98.594 E51.62588
G1 X103.872 Y98.961 E51.65132
G1 X104.318 Y99.617 E51.69089
G1 X104.614 Y100.371 E51.7313
G1 X104.726 Y101.083 E51.76726
G1 X104.712 Y101.613 E51.79371
G1 X104.68 Y101.914 E51.80881
G1 X97.644 Y142.049 E53.84169
G1 X108.324 Y128.468 E54.70366
G1 X108.751 Y128.06 E54.73313
G1 X109.227 Y127.806 E54.76005
G1 X109.689 Y127.684 E54.78388
G1 X110.23 Y127.665 E54.81089
G1 X110.839 Y127.828 E54.84234
G1 X111.399 Y128.197 E54.8758
G1 X111.669 Y128.456 E54.89447
G1 X122.357 Y142.05 E55.75719
G1 X119.06 Y123.263 E56.70881
G1 X118.788 Y121.706 E56.78766
G1 X118.389 Y119.438 E56.90255
G1 X115.311 Y101.897 E57.79104
G1 X115.268 Y101.384 E57.81673
G1 X115.319 Y100.667 E57.85259
G1 X115.478 Y100.081 E57.88288
G1 X115.716 Y99.581 E57.91051
G1 X115.982 Y99.142 E57.93612
G1 X116.405 Y98.667 E57.96785
G1 X117.942 Y97.328 E58.06955
G1 X122.956 Y92.969 E58.40101
G1 X116.295 Y92.966 E58.73333
G1 X115.772 Y92.915 E58.75955
G1 X115.098 Y92.732 E58.79439
G1 X114.623 Y92.492 E58.82094
G1 X114.226 Y92.201 E58.8455
G1 X113.793 Y91.783 E58.87553
G1 X113.4 Y91.196 E58.91077
G1 X113.158 Y90.605 E58.94263
G1 X110 Y78.513 E59.56614
G1 X106.861 Y90.538 E60.18617
G1 X106.721 Y90.945 E60.20764
G1 X106.468 Y91.427 E60.2348
G1 X106.288 Y91.682 E60.25037
G1 X105.857 Y92.147 E60.28201
G1 X105.362 Y92.502 E60.3124
G1 X104.953 Y92.696 E60.33498
G0 F1800 X105.964 Y90.804
G0 X109.967 Y79.42
G1 F600 X110.051 Y79.504 E60.34091
G0 F1800 X109.851 Y79.869
G1 F600 X110.251 Y80.27 E60.36916
G0 F1800 X109.733 Y80.318
G1 F600 X110.451 Y81.035 E60.41979
G0 F1800 X110.651 Y81.801
G1 F600 X109.617 Y80.767 E60.49274
G0 F1800 X109.499 Y81.215
G1 F600 X110.851 Y82.567 E60.58813
G0 F1800 X111.051 Y83.333
G1 F600 X109.383 Y81.664 E60.70585
G0 F1800 X109.265 Y82.112
G1 F600 X111.251 Y84.099 E60.84601
G0 F1800 X111.452 Y84.864
G1 F600 X109.148 Y82.561 E61.00854
G0 F1800 X109.031 Y83.01
G1 F600 X111.652 Y85.63 E61.19343
G0 F1800 X111.851 Y86.395
G1 F600 X108.914 Y83.458 E61.40065
G0 F1800 X108.797 Y83.907
G1 F600 X112.051 Y87.161 E61.63024
G0 F1800 X112.251 Y87.927
G1 F600 X108.68 Y84.355 E61.88222
G0 F1800 X108.562 Y84.804
G1 F600 X112.451 Y88.693 E62.15661
G0 F1800 X112.652 Y89.458
G1 F600 X108.446 Y85.253 E62.45334
G0 F1800 X108.328 Y85.701
G1 F600 X112.852 Y90.224 E62.77249
G1 X112.922 Y90.294
G0 F1800 X113.125 Y91.064
G1 F600 X108.212 Y86.15 E63.11917
G0 F1800 X108.094 Y86.598
G1 F600 X118.273 Y96.777 E63.83735
G0 F1800 X117.97 Y97.04
G1 F600 X107.977 Y87.046 E64.54245
G0 F1800 X107.86 Y87.495
G1 F600 X117.668 Y97.303 E65.23445
G0 F1800 X117.365 Y97.566
G1 F600 X107.743 Y87.944 E65.91334
G0 F1800 X107.626 Y88.393
G1 F600 X117.063 Y97.83 E66.57917
G0 F1800 X116.761 Y98.093
G1 F600 X107.509 Y88.841 E67.23195
G0 F1800 X107.391 Y89.289
G1 F600 X116.458 Y98.356 E67.87167
