;FLAVOR:Marlin
;TIME:3047
;Filament used: 1.16862m
;Layer height: 0.1
;MINX:60.985
;MINY:70.575
;MINZ:0.3
;MAXX:128.12
;MAXY:148.894
;MAXZ:2
;Generated with Cura_SteamEngine 5.0.0
M140 S60
M105
M190 S60
M104 S200
M105
M109 S200
M82 ;absolute extrusion mode
G28 ;Home
G1 Z15.0 F6000 ;Move the platform down 15mm
;Prime the extruder
G92 E0
G1 F200 E3
G92 E0
G92 E0
G92 E0
G1 F2700 E-5
;LAYER_COUNT:18
;LAYER:0
M106 S255
G0 F1800 X75.991 Y71.85 Z0.3
G0 X74.12 Y74.658
;TYPE:SKIRT
G1 F2700 E0
G1 F600 X75.294 Y72.743 E0.11206
G1 X75.658 Y72.231 E0.14341
G1 X75.991 Y71.85 E0.16865
G1 X76.46 Y71.458 E0.19915
G1 X76.967 Y71.132 E0.22922
G1 X77.63 Y70.832 E0.26552
G1 X78.367 Y70.629 E0.30366
G1 X79.131 Y70.575 E0.34187
G1 X80.469 Y70.688 E0.40886
G1 X83.167 Y70.946 E0.54408
G1 X85.919 Y71.131 E0.68169
G1 X88.67 Y71.239 E0.81904
G1 X91.423 Y71.267 E0.9564
G1 X94.117 Y71.219 E1.09082
G1 X96.633 Y71.108 E1.21647
G1 X97.454 Y71.152 E1.25749
G1 X99.82 Y71.435 E1.37637
G1 X102.552 Y71.685 E1.51324
G1 X105.302 Y71.858 E1.65071
G1 X108.019 Y71.952 E1.78634
G1 X110.772 Y71.97 E1.92369
G1 X113.488 Y71.91 E2.05923
G1 X116.239 Y71.772 E2.19665
G1 X118.954 Y71.558 E2.33252
G1 X122.824 Y71.125 E2.5268
G1 X123.329 Y71.108 E2.55201
G1 X123.836 Y71.163 E2.57745
G1 X124.331 Y71.266 E2.60268
G1 X125.025 Y71.548 E2.64005
G1 X125.466 Y71.794 E2.66524
G1 X125.893 Y72.134 E2.69247
G1 X126.422 Y72.691 E2.7308
G1 X126.733 Y73.167 E2.75916
G1 X126.958 Y73.62 E2.7844
G1 X127.118 Y74.104 E2.80983
G1 X127.227 Y74.597 E2.83502
G1 X127.254 Y75.178 E2.86404
G1 X127.199 Y75.933 E2.90181
G1 X127.102 Y76.527 E2.93183
G1 X125.973 Y82.964 E3.25788
G1 X125.538 Y85.664 E3.39432
G1 X125.181 Y88.368 E3.53039
G1 X124.898 Y91.106 E3.66772
G1 X124.695 Y93.818 E3.8034
G1 X124.565 Y96.615 E3.94309
G1 X124.517 Y99.286 E4.07637
G1 X124.545 Y102.04 E4.21378
G1 X124.65 Y104.788 E4.35098
G1 X124.833 Y107.505 E4.48683
G1 X125.093 Y110.24 E4.6239
G1 X125.432 Y112.979 E4.76159
G1 X125.843 Y115.665 E4.89716
G1 X126.329 Y118.339 E5.03275
G1 X126.894 Y121.015 E5.1692
G1 X127.539 Y123.692 E5.30658
G1 X127.84 Y124.813 E5.36448
G1 X128.033 Y125.582 E5.40404
G1 X128.117 Y126.081 E5.42928
G1 X128.12 Y126.775 E5.46391
G1 X128.068 Y127.278 E5.48914
G1 X127.93 Y127.788 E5.5155
G1 X127.611 Y128.552 E5.5568
G1 X127.285 Y129.046 E5.58633
G1 X127.02 Y129.372 E5.60729
G1 X125.118 Y131.419 E5.74669
G1 X123.322 Y133.465 E5.88252
G1 X121.565 Y135.584 E6.01985
G1 X119.89 Y137.726 E6.15551
G1 X118.26 Y139.935 E6.29247
G1 X116.705 Y142.172 E6.42839
G1 X115.195 Y144.482 E6.56608
G1 X113.727 Y146.863 E6.70563
G1 X113.375 Y147.331 E6.73484
G1 X112.844 Y147.858 E6.77217
G1 X112.05 Y148.369 E6.81927
G1 X111.598 Y148.595 E6.84449
G1 X110.976 Y148.775 E6.87679
G1 X110.101 Y148.894 E6.92085
G1 X109.204 Y148.833 E6.9657
G1 X106.418 Y148.553 E7.1054
G1 X103.666 Y148.353 E7.24306
G1 X100.956 Y148.236 E7.37838
G1 X98.198 Y148.193 E7.516
G1 X95.443 Y148.228 E7.65346
G1 X92.74 Y148.337 E7.78842
G1 X91.82 Y148.327 E7.83432
G1 X88.661 Y147.963 E7.99297
G1 X85.91 Y147.73 E8.13071
G1 X83.195 Y147.577 E8.26637
G1 X80.444 Y147.5 E8.40368
G1 X77.726 Y147.5 E8.53928
G1 X74.974 Y147.579 E8.67663
G1 X72.224 Y147.736 E8.81405
G1 X69.549 Y147.963 E8.94799
G1 X67.423 Y148.215 E9.0548
G1 X66.322 Y148.334 E9.11005
G1 X65.615 Y148.332 E9.14532
G1 X64.821 Y148.202 E9.18546
G1 X64.206 Y147.971 E9.21824
G1 X63.758 Y147.738 E9.24343
G1 X63.194 Y147.305 E9.2789
G1 X62.836 Y146.948 E9.30413
G1 X62.445 Y146.4 E9.33771
G1 X62.203 Y145.957 E9.3629
G1 X62.029 Y145.464 E9.38898
G1 X61.881 Y144.746 E9.42555
G1 X61.86 Y144.184 E9.45361
G1 X61.9 Y143.625 E9.48157
G1 X62.013 Y142.92 E9.51719
G1 X63.138 Y136.506 E9.84207
G1 X63.573 Y133.803 E9.97866
G1 X63.93 Y131.1 E10.11469
G1 X64.211 Y128.368 E10.2517
G1 X64.414 Y125.653 E10.38753
G1 X64.544 Y122.856 E10.52723
G1 X64.592 Y120.176 E10.66096
G1 X64.564 Y117.433 E10.79781
G1 X64.457 Y114.679 E10.93531
G1 X64.275 Y111.936 E11.07246
G1 X64.021 Y109.278 E11.20567
G1 X63.676 Y106.492 E11.34573
G1 X63.266 Y103.811 E11.48104
G1 X62.777 Y101.124 E11.6173
G1 X62.209 Y98.434 E11.75446
G1 X61.446 Y95.3 E11.91538
G1 X61.098 Y93.961 E11.98441
G1 X61.005 Y93.411 E12.01224
G1 X60.985 Y92.655 E12.04997
G1 X61.081 Y92.042 E12.08092
G1 X61.212 Y91.553 E12.10618
G1 X61.438 Y91.04 E12.13415
G1 X61.732 Y90.543 E12.16295
G1 X62.104 Y90.078 E12.19266
G1 X64.262 Y87.746 E12.35118
G1 X66.033 Y85.711 E12.48577
G1 X67.78 Y83.585 E12.62305
G1 X69.461 Y81.42 E12.7598
G1 X71.085 Y79.199 E12.89707
G1 X72.632 Y76.953 E13.03313
G1 X74.12 Y74.658 E13.16959
G1 F2700 E8.16959
;MESH:Katokutai2.stl
G0 F1800 X77.681 Y76.26
G0 X78.832 Y76.141
G1 F2700 E13.16959
G0 F1800 X78.529 Y75.809
;TYPE:WALL-OUTER
G1 F490.8 X78.261 Y75.515 E13.19385
G1 F492.8 X78.133 Y75.159 E13.21683
G1 F490.8 X78.139 Y74.81 E13.23812
G1 F484.8 X78.277 Y74.465 E13.26106
G1 F481 X78.485 Y74.231 E13.28055
G1 F485.8 X78.792 Y74.065 E13.30205
G1 F489.8 X79.132 Y74.011 E13.32309
G1 F491.8 X79.467 Y74.078 E13.34388
G1 F494.8 X79.763 Y74.256 E13.36478
G1 F492.8 X79.978 Y74.52 E13.38546
G1 F489.8 X80.093 Y74.848 E13.4067
G1 F485.8 X80.084 Y75.221 E13.42969
G1 F482.9 X79.965 Y75.519 E13.44958
G1 X79.74 Y75.779 E13.47089
G1 F474.3 X79.646 Y75.844 E13.47811
G0 F1800 X79.2 Y76.435
G0 X75.19 Y90.94
G0 X74.495 Y92.017
G0 X74.181 Y91.614
G1 F600 X73.767 Y91.897 E13.50313
G1 X73.295 Y92.073 E13.52826
G1 X72.817 Y92.132 E13.55229
G1 X65.194 Y92.133 E13.9326
G1 X64.91 Y92.184 E13.94699
G1 X64.668 Y92.319 E13.96082
G1 X64.482 Y92.529 E13.97481
G1 X64.38 Y92.792 E13.98889
G1 X64.374 Y93.066 E14.00256
G1 X64.462 Y93.333 E14.01659
G1 X64.711 Y93.623 E14.03566
G1 X71.852 Y99.829 E14.50766
G1 X72.039 Y100.016 E14.52086
G1 X72.353 Y100.44 E14.54718
G1 X72.561 Y100.92 E14.57328
G1 X72.663 Y101.465 E14.60094
G1 X72.64 Y102.015 E14.6284
G1 X72.635 Y102.057 E14.63051
G1 X65.248 Y144.16 E16.76313
G1 X65.277 Y144.488 E16.77955
G1 X65.446 Y144.775 E16.79617
G1 X65.739 Y144.931 E16.81273
G1 X66.052 Y144.947 E16.82837
G1 X66.266 Y144.861 E16.83987
G1 X66.485 Y144.653 E16.85494
G1 X78.366 Y129.544 E17.81387
G1 X78.75 Y129.254 E17.83788
G1 X79.059 Y129.184 E17.85369
G1 X79.367 Y129.218 E17.86915
G1 X79.645 Y129.348 E17.88446
G1 X79.853 Y129.536 E17.89844
G1 X91.773 Y144.697 E18.86062
G1 X92.044 Y144.896 E18.87739
G1 X92.364 Y144.961 E18.89368
G1 X92.675 Y144.847 E18.91021
G1 X92.904 Y144.613 E18.92654
G1 X92.977 Y144.292 E18.94297
G1 X92.967 Y144.103 E18.95241
G1 X85.588 Y102.048 E21.08259
G1 X85.559 Y101.785 E21.09579
G1 X85.585 Y101.258 E21.12212
G1 X85.727 Y100.75 E21.14843
G1 X85.989 Y100.264 E21.17598
G1 X86.353 Y99.851 E21.20344
G1 X86.954 Y99.326 E21.24326
G1 X93.571 Y93.574 E21.68067
G1 X93.752 Y93.354 E21.69489
G1 X93.849 Y93.088 E21.70901
G1 X93.849 Y92.95 E21.7159
G1 X93.8 Y92.679 E21.72964
G1 X93.661 Y92.437 E21.74356
G1 X93.456 Y92.262 E21.75701
G1 X93.195 Y92.164 E21.77092
G1 X92.962 Y92.135 E21.78263
G1 X85.414 Y92.133 E22.1592
G1 X85.172 Y92.116 E22.1713
G1 X84.68 Y91.995 E22.19658
G1 X84.235 Y91.762 E22.22164
G1 X83.855 Y91.428 E22.24688
G1 X83.566 Y91.016 E22.27199
G1 X83.384 Y90.556 E22.29667
G1 X79.613 Y76.096 E23.04221
G1 F553 X79.585 Y75.967 E23.04936
G1 F490.8 X79.634 Y75.845 E23.05738
G1 F508.5 X79.428 Y75.915 E23.07018
G1 F575.5 X79.099 Y75.952 E23.0874
G1 F578.3 X78.771 Y75.905 E23.10455
G1 F520.6 X78.529 Y75.809 E23.11952
G1 X78.632 Y76.005 E23.13225
G1 F578.3 X78.534 Y76.401 E23.15337
G1 F600 X74.838 Y90.564 E23.88363
G1 X74.761 Y90.798 E23.89592
G1 X74.521 Y91.24 E23.92101
G1 X74.181 Y91.614 E23.94623
G0 F1800 X74.016 Y91.726
G0 X74.038 Y92.202
;TYPE:WALL-INNER
G1 F600 X73.486 Y92.434 E23.9761
G1 X72.893 Y92.528 E24.00606
G1 X72.817 Y92.532 E24.00985
G1 X65.229 Y92.533 E24.38842
G1 X64.982 Y92.601 E24.4012
G1 X64.83 Y92.74 E24.41148
G1 X64.776 Y93.006 E24.42502
G1 X64.911 Y93.257 E24.43924
G1 X64.973 Y93.321 E24.44368
G1 X72.132 Y99.543 E24.91689
G1 X72.36 Y99.777 E24.93319
G1 X72.67 Y100.195 E24.95915
G1 X72.929 Y100.762 E24.99025
G1 X73.057 Y101.395 E25.02247
G1 X73.04 Y102.035 E25.05441
G1 X73.029 Y102.126 E25.05899
G1 X65.648 Y144.198 E27.19002
G1 X65.673 Y144.411 E27.20072
G1 X65.802 Y144.534 E27.20961
G1 X65.963 Y144.552 E27.2177
G1 X66.17 Y144.406 E27.23033
G1 X78.052 Y129.297 E28.1893
G1 X78.483 Y128.939 E28.21725
G1 X78.945 Y128.792 E28.24144
G1 X79.394 Y128.811 E28.26386
G1 X79.858 Y129.007 E28.28899
G1 X80.167 Y129.289 E28.30986
G1 X92.067 Y144.423 E29.27036
G1 X92.247 Y144.549 E29.28132
G1 X92.419 Y144.536 E29.28992
G1 X92.548 Y144.419 E29.29861
G1 X92.573 Y144.171 E29.31105
G1 X85.191 Y102.097 E31.44219
G1 X85.159 Y101.766 E31.45878
G1 X85.185 Y101.229 E31.4856
G1 X85.342 Y100.64 E31.51602
G1 X85.639 Y100.071 E31.54804
G1 X86.055 Y99.584 E31.57999
G1 X86.692 Y99.024 E31.62231
G1 X93.283 Y93.294 E32.05802
G1 X93.425 Y93.082 E32.07075
G1 X93.449 Y92.95 E32.07745
G1 X93.399 Y92.748 E32.08783
G1 X93.193 Y92.571 E32.10138
G1 X92.962 Y92.535 E32.11304
G1 X85.391 Y92.533 E32.49076
G1 X85.08 Y92.506 E32.50633
G1 X84.558 Y92.378 E32.53315
G1 X84.093 Y92.145 E32.5591
G1 X83.626 Y91.767 E32.58907
G1 X83.264 Y91.29 E32.61895
G1 X83.025 Y90.745 E32.64864
G1 X82.997 Y90.657 E32.65324
G1 X79.263 Y76.339 E33.39146
G1 X78.965 Y76.337 E33.40633
G1 X78.92 Y76.503 E33.41491
G1 X75.219 Y90.686 E34.1462
G1 X75.115 Y90.984 E34.16195
G1 X74.871 Y91.44 E34.18775
G1 X74.515 Y91.849 E34.2148
G1 X74.038 Y92.202 E34.24441
G0 F1800 X74.267 Y92.53
G1 F600 X73.757 Y92.758 E34.27228
G1 X73.397 Y92.867 E34.29104
G1 X72.817 Y92.932 E34.32016
G1 X65.26 Y92.933 E34.69718
G1 X65.182 Y92.95 E34.70116
G1 X65.236 Y93.019 E34.70553
G1 X70.933 Y97.971 E35.08212
G1 X72.392 Y99.239 E35.17856
G1 X72.681 Y99.539 E35.19934
G1 X72.995 Y99.962 E35.22563
G1 X73.296 Y100.604 E35.261
G1 X73.451 Y101.325 E35.29779
G1 X73.439 Y102.056 E35.33427
G1 X73.423 Y102.195 E35.34125
G1 X66.119 Y143.825 E37.4499
G1 X77.737 Y129.049 E38.38766
G1 X78.181 Y128.663 E38.41702
G1 X78.455 Y128.509 E38.4327
G1 X78.968 Y128.386 E38.45902
G1 X79.464 Y128.417 E38.48381
G1 X79.998 Y128.623 E38.51236
G1 X80.358 Y128.911 E38.53537
G1 X80.482 Y129.041 E38.54433
G1 X92.107 Y143.827 E39.4827
G1 X84.794 Y102.145 E41.59398
G1 X84.76 Y101.747 E41.61391
G1 X84.787 Y101.191 E41.64168
G1 X84.958 Y100.531 E41.6757
G1 X85.289 Y99.877 E41.71227
G1 X85.757 Y99.317 E41.74868
G1 X86.43 Y98.722 E41.7935
G1 X92.998 Y93.011 E42.22772
G1 X93.045 Y92.951 E42.23153
G1 X92.962 Y92.935 E42.23574
G1 X85.425 Y92.934 E42.61177
G1 X84.989 Y92.895 E42.6336
G1 X84.477 Y92.773 E42.65986
G1 X83.912 Y92.502 E42.69113
G1 X83.476 Y92.165 E42.71862
G1 X83.205 Y91.894 E42.73774
G1 X82.911 Y91.482 E42.76299
G1 X82.654 Y90.896 E42.79491
G1 X82.61 Y90.758 E42.80214
G1 X79.112 Y77.346 E43.49365
G1 X75.614 Y90.759 E44.18521
G1 X75.469 Y91.17 E44.20695
G1 X75.231 Y91.619 E44.23231
G1 X74.814 Y92.115 E44.26464
G1 X74.267 Y92.53 E44.29889
G0 F1800 X73.443 Y99.983
;TYPE:SKIN
G1 F600 X73.729 Y100.728 E44.3387
G1 X73.839 Y101.435 E44.3744
G1 X73.824 Y101.976 E44.4014
G1 X73.793 Y102.261 E44.4157
G1 X66.756 Y142.401 E46.44884
G1 X77.438 Y128.816 E47.31103
G1 X77.674 Y128.578 E47.32775
G1 X78.171 Y128.222 E47.35825
G1 X78.673 Y128.053 E47.38467
G1 X79.157 Y128.008 E47.40893
G1 X79.653 Y128.073 E47.43388
G1 X80.278 Y128.352 E47.46803
G1 X80.761 Y128.785 E47.50039
G1 X80.783 Y128.808 E47.50198
G1 X91.47 Y142.4 E48.3646
G1 X84.424 Y102.245 E50.39855
G1 X84.38 Y101.74 E50.42384
G1 X84.428 Y101.043 E50.45869
G1 X84.591 Y100.427 E50.49048
G1 X84.832 Y99.923 E50.51835
G1 X85.095 Y99.489 E50.54367
G1 X85.52 Y99.012 E50.57554
G1 X87.056 Y97.675 E50.67714
G1 X92.071 Y93.316 E51.00864
G1 X85.409 Y93.314 E51.34101
G1 X84.886 Y93.263 E51.36723
G1 X84.22 Y93.082 E51.40166
G1 X83.739 Y92.841 E51.4285
G1 X83.332 Y92.544 E51.45364
G1 X82.908 Y92.132 E51.48313
G1 X82.517 Y91.553 E51.51799
G1 X82.268 Y90.949 E51.55058
G1 X79.112 Y78.853 E52.17426
G1 X75.978 Y90.867 E52.79369
G1 X75.81 Y91.338 E52.81864
G1 X75.426 Y91.994 E52.85657
G1 X74.942 Y92.515 E52.89204
G1 X74.485 Y92.842 E52.92008
G1 X74.08 Y93.038 E52.94253
G1 X73.492 Y93.234 E52.97345
G1 X72.838 Y93.311 E53.0063
G1 X66.151 Y93.312 E53.33992
G1 X72.617 Y98.928 E53.7672
G1 X72.984 Y99.309 E53.79359
G1 X73.443 Y99.983 E53.83427
G0 F1800 X78.987 Y80.118
G1 F600 X79.323 Y80.454 E53.85798
G0 F1800 X78.87 Y80.567
G1 F600 X79.523 Y81.22 E53.90405
G0 F1800 X79.723 Y81.986
G1 F600 X78.753 Y81.016 E53.97249
G0 F1800 X78.636 Y81.465
G1 F600 X79.923 Y82.751 E54.06326
G0 F1800 X80.122 Y83.517
G1 F600 X78.519 Y81.913 E54.1764
G0 F1800 X78.402 Y82.362
G1 F600 X80.323 Y84.282 E54.3119
G0 F1800 X80.523 Y85.048
G1 F600 X78.285 Y82.81 E54.4698
G0 F1800 X78.167 Y83.258
G1 F600 X80.723 Y85.814 E54.65014
G0 F1800 X80.922 Y86.579
G1 F600 X78.051 Y83.708 E54.8527
G0 F1800 X77.933 Y84.156
G1 F600 X81.122 Y87.345 E55.07771
G0 F1800 X81.322 Y88.111
G1 F600 X77.817 Y84.605 E55.32504
G0 F1800 X77.699 Y85.053
G1 F600 X81.522 Y88.876 E55.59477
G0 F1800 X81.722 Y89.642
G1 F600 X77.583 Y85.502 E55.88683
G0 F1800 X77.465 Y85.95
G1 F600 X81.922 Y90.407 E56.2013
G1 X81.992 Y90.477
G0 F1800 X82.159 Y91.21
G1 F600 X77.348 Y86.399 E56.54074
G0 F1800 X77.231 Y86.848
G1 F600 X87.451 Y97.068 E57.26182
G0 F1800 X87.148 Y97.331
G1 F600 X77.114 Y87.296 E57.96981
G0 F1800 X76.997 Y87.745
G1 F600 X86.846 Y97.594 E58.66471
G0 F1800 X86.543 Y97.857
G1 F600 X76.88 Y88.193 E59.34652
G0 F1800 X76.763 Y88.642
G1 F600 X86.241 Y98.12 E60.01524
G0 F1800 X85.938 Y98.384
G1 F600 X76.646 Y89.091 E60.67088
G0 F1800 X76.529 Y89.54
G1 F600 X85.636 Y98.647 E61.31343
G0 F1800 X85.338 Y98.915
G1 F600 X76.412 Y89.988 E61.94324
G0 F1800 X76.294 Y90.436
G1 F600 X85.073 Y99.215 E62.56265
G0 F1800 X84.832 Y99.54
G1 F600 X76.178 Y90.885 E63.17327
G0 F1800 X76.029 Y91.303
G1 F600 X84.619 Y99.892 E63.7793
G0 F1800 X84.439 Y100.279
G1 F600 X75.84 Y91.679 E64.38604
G0 F1800 X75.628 Y92.033
G1 F600 X84.304 Y100.709 E64.99818
G0 F1800 X84.22 Y101.191
G1 F600 X75.374 Y92.345 E65.62232
G0 F1800 X75.1 Y92.636
G1 F600 X84.181 Y101.718 E66.26306
G0 F1800 X84.238 Y102.34
G1 F600 X74.776 Y92.878 E66.93066
G0 F1800 X74.423 Y93.091
G1 F600 X84.358 Y103.026 E67.63163
G0 F1800 X84.478 Y103.712
G1 F600 X74.03 Y93.263 E68.36883
G0 F1800 X73.602 Y93.401
G1 F600 X84.598 Y104.397 E69.14465
G0 F1800 X84.719 Y105.083
G1 F600 X73.116 Y93.48 E69.96331
G0 F1800 X72.579 Y93.509
G1 F600 X84.84 Y105.77 E70.82839
G0 F1800 X84.96 Y106.456
G1 F600 X72.013 Y93.509 E71.74187
G0 F1800 X71.448 Y93.509
G1 F600 X85.08 Y107.142 E72.70371
G0 F1800 X85.2 Y107.828
G1 F600 X70.882 Y93.509 E73.71396
G0 F1800 X70.317 Y93.51
G1 F600 X85.321 Y108.514 E74.77258
G0 F1800 X85.441 Y109.2
G1 F600 X69.751 Y93.51 E75.87959
G0 F1800 X69.186 Y93.51
G1 F600 X85.562 Y109.886 E77.035
G0 F1800 X85.682 Y110.572
G1 F600 X68.621 Y93.511 E78.23875
G0 F1800 X68.055 Y93.511
G1 F600 X85.802 Y111.258 E79.4909
G0 F1800 X85.923 Y111.944
G1 F600 X67.489 Y93.511 E80.79148
G0 F1800 X66.924 Y93.511
G1 F600 X68.494 Y95.081 E80.90225
G1 X68.564 Y95.151
G0 F1800 X73.815 Y100.402
G1 F600 X86.043 Y112.63 E81.765
G0 F1800 X86.163 Y113.316
G1 F600 X73.995 Y101.148 E82.62352
G0 F1800 X74.033 Y101.751
G1 F600 X86.283 Y114.002 E83.48786
G0 F1800 X86.404 Y114.689
G1 F600 X73.99 Y102.274 E84.36377
G0 F1800 X73.906 Y102.756
G1 F600 X86.525 Y115.375 E85.25411
G0 F1800 X86.645 Y116.06
G1 F600 X73.821 Y103.237 E86.15888
G0 F1800 X73.737 Y103.719
G1 F600 X86.765 Y116.746 E87.07804
G0 F1800 X86.886 Y117.433
G1 F600 X73.652 Y104.199 E88.01177
G0 F1800 X73.568 Y104.681
G1 F600 X87.006 Y118.119 E88.95989
G0 F1800 X87.126 Y118.805
G1 F600 X73.484 Y105.163 E89.92241
G0 F1800 X73.399 Y105.643
G1 F600 X87.247 Y119.491 E90.89946
G0 F1800 X87.367 Y120.177
G1 F600 X73.315 Y106.125 E91.8909
G0 F1800 X73.231 Y106.606
G1 F600 X87.488 Y120.863 E92.89681
G0 F1800 X87.608 Y121.549
G1 F600 X73.147 Y107.088 E93.91711
G0 F1800 X73.062 Y107.569
G1 F600 X87.728 Y122.235 E94.95188
G0 F1800 X87.848 Y122.921
G1 F600 X72.978 Y108.05 E96.00107
G0 F1800 X72.894 Y108.532
G1 F600 X87.969 Y123.607 E97.0647
G0 F1800 X88.089 Y124.293
G1 F600 X72.809 Y109.013 E98.14278
G0 F1800 X72.725 Y109.494
