;FLAVOR:Marlin
;TIME:3907
;Filament used: 3.09112m
;Layer height: 0.2
;MINX:70.22
;MINY:88.379
;MINZ:0.3
;MAXX:150.689
;MAXY:130.832
;MAXZ:8.1
;Generated with Cura_SteamEngine 5.0.0
M140 S60
M105
M190 S60
M104 S200
M105
M109 S200
M82 ;absolute extrusion mode
G28 ;Home
G1 Z15.0 F6000 ;Move the platform down 15mm
;Prime the extruder
G92 E0
G1 F200 E3
G92 E0
G92 E0
G92 E0
G1 F2700 E-5
;LAYER_COUNT:40
;LAYER:0
M107
;MESH:FSwitch003.stl
G0 X70.22 Y100.215 Z0.3
;TYPE:WALL-OUTER
G1 F2700 E0
G1 F900 X70.222 Y113.048 E0.64024
G1 X70.248 Y113.603 E0.66796
G1 X70.315 Y114.106 E0.69328
G1 X70.452 Y114.768 E0.727
G1 X70.599 Y115.249 E0.7521
G1 X70.785 Y115.724 E0.77755
G1 X71.011 Y116.192 E0.80348
G1 X71.302 Y116.689 E0.83221
G1 X71.596 Y117.112 E0.85791
G1 X71.926 Y117.511 E0.88374
G1 X72.304 Y117.903 E0.91091
G1 X72.714 Y118.274 E0.9385
G1 X73.121 Y118.582 E0.96396
G1 X73.555 Y118.862 E0.98973
G1 X74.061 Y119.137 E1.01846
G1 X74.551 Y119.351 E1.04513
G1 X75.086 Y119.529 E1.07326
G1 X75.589 Y119.655 E1.09913
G1 X76.253 Y119.771 E1.13276
G1 X76.756 Y119.81 E1.15793
G1 X77.262 Y119.81 E1.18318
G1 X77.77 Y119.773 E1.20859
G1 X78.282 Y119.696 E1.23442
G1 X78.781 Y119.581 E1.25997
G1 X79.259 Y119.434 E1.28492
G1 X79.73 Y119.251 E1.31013
G1 X80.198 Y119.025 E1.33606
G1 X80.696 Y118.733 E1.36486
G1 X81.119 Y118.439 E1.39056
G1 X81.673 Y117.969 E1.4268
G1 X82.045 Y117.582 E1.45358
G1 X82.395 Y117.177 E1.48029
G1 X82.773 Y116.631 E1.51342
G1 X83.093 Y116.069 E1.54569
G1 X83.324 Y115.56 E1.57357
G1 X83.493 Y115.086 E1.59868
G1 X83.646 Y114.537 E1.62711
G1 X83.759 Y113.879 E1.66042
G1 X83.809 Y113.357 E1.68658
G1 X83.816 Y112.388 E1.73493
G1 X83.82 Y101.961 E2.25513
G1 X83.82 Y100.215 E2.34224
G1 X70.22 Y100.215 E3.02075
G0 F2700 X70.22 Y100.415
G0 X70.701 Y100.695
G0 X72.486 Y104.329
G0 X72.992 Y104.265
G1 F900 X72.982 Y103.851 E3.04141
G1 X73.098 Y103.405 E3.0644
G1 X73.34 Y103.016 E3.08726
G1 X73.721 Y102.689 E3.1123
G1 X74.115 Y102.519 E3.13371
G1 X74.619 Y102.47 E3.15898
G1 X75.127 Y102.591 E3.18503
G1 X75.57 Y102.877 E3.21134
G1 X75.888 Y103.288 E3.23726
G1 X76.049 Y103.773 E3.26276
G1 F902.3 X76.042 Y104.304 E3.28919
G1 X75.916 Y104.685 E3.30916
G1 F900 X75.616 Y105.109 E3.33507
G1 X75.209 Y105.404 E3.36015
G1 X74.723 Y105.552 E3.38549
G1 X74.211 Y105.534 E3.41105
G1 X73.797 Y105.383 E3.43304
G1 X73.393 Y105.078 E3.45829
G1 X73.152 Y104.739 E3.47904
G1 X72.992 Y104.265 E3.504
G0 F2700 X72.988 Y104.065
G0 X72.466 Y104.065
G0 X72.697 Y103.191
G0 X73.449 Y102.326
G0 X74.605 Y102.015
G0 X75.593 Y102.358
G0 X77.48 Y103.767
G0 X77.982 Y103.851
G1 F900 X78.122 Y103.35 E3.52996
G1 X78.34 Y103.016 E3.54985
G1 X78.721 Y102.689 E3.5749
G1 X79.115 Y102.519 E3.59631
G1 X79.619 Y102.47 E3.62157
G1 X80.127 Y102.591 E3.64763
G1 X80.57 Y102.877 E3.67393
G1 X80.888 Y103.288 E3.69986
G1 X81.049 Y103.773 E3.72536
G1 X81.049 Y104.28 E3.75065
G1 X80.916 Y104.685 E3.77192
G1 X80.616 Y105.109 E3.79783
G1 X80.186 Y105.413 E3.8241
G1 X79.706 Y105.554 E3.84906
G1 X79.204 Y105.533 E3.87413
G1 X78.797 Y105.383 E3.89577
G1 X78.393 Y105.078 E3.92102
G1 X78.152 Y104.739 E3.94177
G1 X77.992 Y104.265 E3.96673
G1 X77.982 Y103.851 E3.98739
G0 F2700 X78.035 Y103.659
G0 X77.512 Y103.571
G0 X73.972 Y112.223
G0 X73.896 Y113.024
G0 X74.375 Y113.552
G1 F900 X74.326 Y112.872 E4.02141
G1 X74.4 Y112.363 E4.04707
G1 X74.643 Y111.739 E4.08048
G1 X75.034 Y111.186 E4.11427
G1 X75.544 Y110.756 E4.14755
G1 X75.998 Y110.517 E4.17314
G1 X76.482 Y110.369 E4.19839
G1 X77.001 Y110.315 E4.22443
G1 X77.382 Y110.341 E4.24348
G1 X77.999 Y110.498 E4.27524
G1 X78.587 Y110.817 E4.30862
G1 X79.074 Y111.264 E4.3416
G1 X79.447 Y111.832 E4.3755
G1 X79.665 Y112.471 E4.40918
G1 X79.716 Y113.158 E4.44355
G1 X79.618 Y113.718 E4.47191
G1 X79.408 Y114.272 E4.50147
G1 X79.076 Y114.748 E4.53043
G1 X78.795 Y115.027 E4.55018
G1 X78.36 Y115.346 E4.57709
G1 X77.863 Y115.58 E4.6045
G1 X77.21 Y115.708 E4.6377
G1 X76.631 Y115.678 E4.66662
G1 X75.926 Y115.479 E4.70317
G1 X75.449 Y115.193 E4.73092
G1 X75.279 Y115.077 E4.74119
G1 X74.842 Y114.609 E4.77313
G1 X74.524 Y114.041 E4.80561
G1 X74.375 Y113.552 E4.83111
G0 F2700 X74.361 Y113.353
G0 X73.927 Y112.898
;TYPE:WALL-INNER
G1 F900 X74.005 Y112.302 E4.8611
G1 X74.271 Y111.591 E4.89897
G1 X74.71 Y110.952 E4.93765
G1 X75.288 Y110.448 E4.97591
G1 X75.815 Y110.161 E5.00585
G1 X76.368 Y109.985 E5.0348
G1 X76.963 Y109.917 E5.06468
G1 X77.473 Y109.951 E5.09018
G1 X78.079 Y110.105 E5.12137
G1 X78.779 Y110.466 E5.16067
G1 X79.347 Y110.972 E5.19862
G1 X79.783 Y111.615 E5.23738
G1 X80.045 Y112.345 E5.27607
G1 X80.115 Y113.132 E5.31549
G1 X80.011 Y113.792 E5.34883
G1 X79.924 Y114.087 E5.36417
G1 X79.7 Y114.57 E5.39073
G1 X79.33 Y115.079 E5.42213
G1 X78.784 Y115.555 E5.45826
G1 X78.2 Y115.865 E5.49125
G1 X77.919 Y115.977 E5.50634
G1 X77.275 Y116.103 E5.53908
G1 X76.607 Y116.077 E5.57243
G1 X76.377 Y116.045 E5.58402
G1 X75.772 Y115.85 E5.61573
G1 X75.234 Y115.531 E5.64694
G1 X74.987 Y115.351 E5.66218
G1 X74.56 Y114.895 E5.69335
G1 X74.283 Y114.432 E5.72027
G1 X74.122 Y114.107 E5.73836
G1 X73.979 Y113.618 E5.76378
G1 X73.927 Y112.898 E5.7998
G0 F2700 X73.816 Y112.898
G0 X70.733 Y113.031
G0 X70.622 Y113.034
G1 F900 X70.646 Y113.558 E5.82597
G1 X70.76 Y114.287 E5.86278
G1 X70.959 Y115.058 E5.9025
G1 X71.152 Y115.564 E5.92952
G1 X71.394 Y116.057 E5.95692
G1 X71.661 Y116.504 E5.9829
G1 X72.061 Y117.053 E6.01679
G1 X72.592 Y117.625 E6.05572
G1 X72.975 Y117.971 E6.08147
G1 X73.409 Y118.297 E6.10855
G1 X73.873 Y118.584 E6.13577
G1 X74.401 Y118.85 E6.16527
G1 X75.08 Y119.109 E6.20153
G1 X75.585 Y119.249 E6.22767
G1 X76.303 Y119.373 E6.26402
G1 X76.835 Y119.41 E6.29063
G1 X77.459 Y119.395 E6.32177
G1 X78.145 Y119.312 E6.35624
G1 X78.677 Y119.194 E6.38343
G1 X79.184 Y119.034 E6.40995
G1 X79.958 Y118.697 E6.45207
G1 X80.418 Y118.438 E6.47841
G1 X80.87 Y118.126 E6.50581
G1 X81.402 Y117.675 E6.5406
G1 X81.898 Y117.146 E6.57678
G1 X82.266 Y116.678 E6.60648
G1 X82.564 Y116.213 E6.63404
G1 X82.809 Y115.743 E6.66048
G1 X83.005 Y115.277 E6.6857
G1 X83.166 Y114.782 E6.71167
G1 X83.355 Y113.867 E6.75829
G1 X83.41 Y113.327 E6.78537
G1 X83.416 Y112.388 E6.83221
G1 X83.42 Y101.961 E7.35242
G1 X83.42 Y100.615 E7.41957
G1 X70.62 Y100.615 E8.05817
G1 X70.622 Y113.034 E8.67775
G0 F2700 X70.733 Y113.031
G0 X72.491 Y104.372
G0 X72.601 Y104.359
G1 F900 X72.595 Y103.75 E8.70814
G1 X72.711 Y103.304 E8.73113
G1 X72.963 Y102.848 E8.75712
G1 X73.406 Y102.422 E8.78778
G1 F902.3 X73.889 Y102.173 E8.81483
G1 X74.505 Y102.07 E8.84591
G1 F900 X74.703 Y102.079 E8.8558
G1 X75.337 Y102.25 E8.88856
G1 X75.881 Y102.625 E8.92152
G1 X76.232 Y103.078 E8.95011
G1 X76.415 Y103.57 E8.9763
G1 X76.452 Y104.242 E9.00988
G1 X76.324 Y104.75 E9.03601
G1 X75.995 Y105.284 E9.0673
G1 X75.829 Y105.451 E9.07905
G1 X75.373 Y105.769 E9.10679
G1 X74.864 Y105.929 E9.13341
G1 X74.421 Y105.944 E9.15552
G1 X74.033 Y105.901 E9.175
G1 X73.561 Y105.707 E9.20046
G1 X73.072 Y105.316 E9.23169
G1 X72.776 Y104.874 E9.25823
G1 X72.601 Y104.359 E9.28537
G0 F2700 X72.491 Y104.372
G0 X72.881 Y105.16
G0 X73.801 Y105.881
G0 X75.106 Y105.929
G0 X77.466 Y103.93
G0 X77.576 Y103.93
G1 F900 X77.711 Y103.304 E9.31732
G1 X77.963 Y102.848 E9.34331
G1 X78.406 Y102.422 E9.37397
G1 F902.3 X78.889 Y102.173 E9.40102
G1 X79.505 Y102.07 E9.4321
G1 F900 X79.703 Y102.079 E9.44199
G1 X80.337 Y102.25 E9.47475
G1 X80.881 Y102.625 E9.50771
G1 X81.264 Y103.153 E9.54025
G1 X81.449 Y103.771 E9.57244
G1 X81.444 Y104.349 E9.60127
G1 X81.248 Y104.909 E9.63087
G1 X80.854 Y105.431 E9.6635
G1 X80.302 Y105.796 E9.69652
G1 X79.805 Y105.943 E9.72238
G1 X79.21 Y105.935 E9.75206
G1 X78.713 Y105.787 E9.77793
G1 X78.561 Y105.706 E9.78653
G1 X78.137 Y105.391 E9.81288
G1 X77.819 Y104.969 E9.83924
G1 X77.627 Y104.458 E9.86648
G1 X77.576 Y103.93 E9.89294
G0 F2700 X77.208 Y104.337
G1 F970.4 X77.198 Y103.789 E9.9183
G1 F939.9 X77.323 Y103.204 E9.94688
G1 F900 X77.443 Y102.926 E9.96198
G1 X77.709 Y102.52 E9.9862
G1 X78.14 Y102.123 E10.01543
G1 F882.4 X78.718 Y101.801 E10.0491
G1 F740.7 X79.011 Y101.647 E10.06917
G1 F665.4 X79.576 Y101.603 E10.10741
G1 F675.4 X79.802 Y101.619 E10.12247
G1 F766 X80.546 Y101.909 E10.16928
G1 F900 X80.938 Y102.15 E10.19224
G1 X81.338 Y102.555 E10.22064
G1 X81.641 Y103.017 E10.2482
G1 X81.791 Y103.435 E10.27036
G1 X81.849 Y103.769 E10.28727
G1 X81.839 Y104.418 E10.31965
G1 X81.707 Y104.868 E10.34305
G1 X81.58 Y105.133 E10.35771
G1 X81.327 Y105.508 E10.38028
G1 X81.091 Y105.753 E10.39725
G1 X80.722 Y106.026 E10.42015
G1 X80.418 Y106.179 E10.43713
G1 X79.881 Y106.336 E10.46504
G1 X79.376 Y106.343 E10.49024
G1 X78.899 Y106.278 E10.51426
G1 X78.422 Y106.092 E10.5398
G1 X78.325 Y106.03 E10.54554
G1 X77.86 Y105.679 E10.57461
G1 X77.537 Y105.267 E10.60073
G1 X77.344 Y104.853 E10.62352
G1 F930.2 X77.208 Y104.337 E10.64927
G0 F2700 X76.079 Y102.759
G0 X73.979 Y101.093
G1 F753.1 X73.182 Y101.016 E10.69701
G1 F900 X71.02 Y101.015 E10.80487
G1 X71.021 Y103.498 E10.92875
G1 X71.021 Y112.975 E11.40156
G1 X71.044 Y113.513 E11.42843
G1 X71.152 Y114.205 E11.46337
G1 X71.342 Y114.941 E11.50129
G1 X71.54 Y115.446 E11.52835
G1 X71.913 Y116.159 E11.5685
G1 X72.193 Y116.577 E11.5936
G1 X72.88 Y117.348 E11.64512
G1 X73.272 Y117.699 E11.67137
G1 X73.982 Y118.185 E11.7143
G1 X74.453 Y118.436 E11.74092
G1 X75.21 Y118.731 E11.78146
G1 X75.726 Y118.867 E11.80808
G1 X76.353 Y118.976 E11.83983
G1 X77.042 Y119.01 E11.87424
G1 X77.634 Y118.981 E11.90381
G1 X78.133 Y118.909 E11.92897
G1 X78.83 Y118.729 E11.96488
G1 X79.365 Y118.534 E11.99329
G1 X79.825 Y118.317 E12.01867
G1 X80.337 Y118.01 E12.04845
G1 X80.891 Y117.597 E12.08292
G1 X81.292 Y117.224 E12.11025
G1 X81.717 Y116.747 E12.14212
G1 X82.096 Y116.205 E12.17512
G1 X82.386 Y115.693 E12.20447
G1 X82.611 Y115.194 E12.23178
G1 X82.779 Y114.679 E12.25881
G1 X82.961 Y113.798 E12.30369
G1 X83.012 Y113.296 E12.32886
G1 X83.016 Y112.388 E12.37416
G1 X83.02 Y101.961 E12.89437
G1 X83.02 Y101.015 E12.94156
G1 X80.314 Y101.015 E13.07657
G1 F766 X79.858 Y101.086 E13.10362
G1 F656.9 X78.979 Y101.093 E13.1637
G1 F753.1 X78.182 Y101.016 E13.21144
G1 F900 X75.314 Y101.015 E13.35452
G1 F766 X74.858 Y101.086 E13.38158
G1 F656.9 X73.979 Y101.093 E13.44166
G0 F2700 X72.826 Y102.981
G0 X72.207 Y104.428
G1 F900 X72.176 Y103.903 E13.4679
G1 X72.323 Y103.203 E13.50358
G1 X72.624 Y102.636 E13.53561
G1 X72.808 Y102.418 E13.54984
G1 X73.14 Y102.123 E13.572
G1 F882.4 X73.718 Y101.801 E13.60567
G1 F740.7 X74.011 Y101.647 E13.62573
G1 F665.4 X74.576 Y101.603 E13.66397
G1 F675.4 X74.802 Y101.619 E13.67903
G1 F766 X75.546 Y101.909 E13.72584
G1 F900 X75.938 Y102.15 E13.7488
G1 X76.298 Y102.504 E13.77399
G1 X76.586 Y102.893 E13.79814
G1 X76.792 Y103.435 E13.82707
G1 F942.4 X76.831 Y103.955 E13.85191
G1 F954.9 X76.802 Y104.538 E13.87936
G1 F911.4 X76.665 Y104.981 E13.9022
G1 F900 X76.327 Y105.508 E13.93344
G1 X76.066 Y105.773 E13.95199
G1 X75.537 Y106.134 E13.98395
G1 X74.98 Y106.311 E14.0131
G1 X74.647 Y106.354 E14.02986
G1 X74.118 Y106.329 E14.05628
G1 X73.579 Y106.164 E14.0844
G1 X72.964 Y105.767 E14.12092
G1 X72.538 Y105.268 E14.15365
G1 X72.399 Y105.009 E14.16832
G1 X72.207 Y104.428 E14.19885
G0 F2700 X73.587 Y113.7
G1 F900 X73.527 Y112.924 E14.23768
G1 X73.609 Y112.241 E14.272
G1 X73.899 Y111.443 E14.31436
G1 X74.386 Y110.718 E14.35793
G1 X74.819 Y110.316 E14.38741
G1 X75.214 Y110.02 E14.41203
G1 X75.715 Y109.767 E14.44003
G1 X76.254 Y109.602 E14.46816
G1 X76.925 Y109.519 E14.50189
G1 X77.481 Y109.545 E14.52966
G1 X78.127 Y109.705 E14.56286
G1 X78.412 Y109.809 E14.57799
G1 X78.971 Y110.115 E14.60979
G1 X79.621 Y110.68 E14.65276
G1 X80.119 Y111.398 E14.69635
G1 X80.425 Y112.22 E14.74011
G1 X80.515 Y113.106 E14.78454
G1 X80.404 Y113.866 E14.82286
G1 X80.291 Y114.245 E14.84259
G1 X80.069 Y114.737 E14.86952
G1 X79.724 Y115.217 E14.89901
G1 X79.483 Y115.496 E14.9174
G1 X79.008 Y115.89 E14.94819
G1 X78.371 Y116.227 E14.98415
G1 X77.995 Y116.37 E15.00421
G1 X77.34 Y116.497 E15.0375
G1 X76.583 Y116.477 E15.07528
G1 X76.255 Y116.426 E15.09184
G1 X75.65 Y116.231 E15.12355
G1 X75.02 Y115.868 E15.15983
G1 X74.695 Y115.624 E15.18011
G1 X74.268 Y115.168 E15.21127
G1 X73.933 Y114.626 E15.24306
G1 X73.738 Y114.22 E15.26553
G1 X73.587 Y113.7 E15.29255
G0 F2700 X73.159 Y112.678
;TYPE:SKIN
G1 F900 X73.304 Y111.92 E15.33105
G1 X73.543 Y111.306 E15.36392
G1 X73.711 Y111.003 E15.3812
G1 X74.076 Y110.496 E15.41237
G1 X74.559 Y110.044 E15.44537
G1 X74.958 Y109.726 E15.47083
G1 X75.45 Y109.47 E15.4985
G1 X75.975 Y109.291 E15.52617
G1 X76.411 Y109.186 E15.54855
G1 X77.019 Y109.135 E15.57899
G1 X77.514 Y109.174 E15.60376
G1 X78.207 Y109.339 E15.6393
G1 X78.524 Y109.439 E15.65588
G1 X79.154 Y109.783 E15.69169
G1 X79.44 Y109.99 E15.70931
G1 X80.071 Y110.628 E15.75408
G1 X80.573 Y111.467 E15.80285
G1 X80.786 Y112.096 E15.83599
G1 X80.853 Y112.448 E15.85386
G1 X80.895 Y113.094 E15.88616
G1 X80.874 Y113.427 E15.90281
G1 X80.716 Y114.211 E15.94271
G1 X80.501 Y114.722 E15.97036
G1 X80.232 Y115.167 E15.99631
G1 X79.788 Y115.732 E16.03216
G1 X79.296 Y116.145 E16.0642
G1 X78.871 Y116.412 E16.08924
G1 X78.222 Y116.706 E16.12479
G1 X77.427 Y116.868 E16.16527
G1 X76.902 Y116.876 E16.19146
G1 X76.478 Y116.835 E16.21272
G1 X76.174 Y116.799 E16.22799
G1 X75.546 Y116.596 E16.26092
G1 X75.114 Y116.381 E16.28499
G1 X74.553 Y115.988 E16.31916
G1 X74.066 Y115.51 E16.35321
G1 X73.767 Y115.11 E16.37812
G1 X73.423 Y114.468 E16.41446
G1 X73.242 Y113.889 E16.44473
G1 X73.173 Y113.327 E16.47297
G1 X73.159 Y112.678 E16.50536
G0 F2700 X71.824 Y104.498
G1 F882.4 X71.797 Y103.907 E16.53547
G1 F902.3 X71.951 Y103.121 E16.57533
G1 F900 X72.121 Y102.723 E16.59692
G1 X72.396 Y102.303 E16.62196
G1 X72.881 Y101.842 E16.65535
G1 X73.519 Y101.467 E16.69227
G1 X73.563 Y101.432 E16.69507
G1 X73.175 Y101.397 E16.71451
G1 X71.4 Y101.396 E16.80306
G1 F897.8 X71.401 Y103.826 E16.9246
G1 F882.4 X71.408 Y104.487 E16.95824
G1 F884.5 X71.402 Y105.325 E17.00078
G1 F900 X71.402 Y108.839 E17.17609
G1 X71.403 Y112.466 E17.35705
G1 X71.403 Y113.033 E17.38533
G1 X71.464 Y113.831 E17.42526
G1 X71.609 Y114.514 E17.4601
G1 X71.856 Y115.216 E17.49722
G1 X72.073 Y115.671 E17.52237
G1 X72.479 Y116.321 E17.56061
G1 X72.819 Y116.733 E17.58726
G1 X73.483 Y117.377 E17.63341
G1 X73.923 Y117.695 E17.66049
G1 X74.575 Y118.074 E17.69812
G1 X75.061 Y118.276 E17.72437
G1 X75.757 Y118.486 E17.76064
G1 X76.27 Y118.576 E17.78663
G1 X76.803 Y118.629 E17.81335
G1 X77.4 Y118.616 E17.84314
G1 X78.023 Y118.541 E17.87445
G1 X78.537 Y118.421 E17.90078
G1 X79.081 Y118.236 E17.92945
G1 X79.972 Y117.793 E17.97909
G1 X80.387 Y117.513 E18.00407
G1 X80.984 Y116.999 E18.04337
G1 X81.448 Y116.472 E18.0784
G1 X81.869 Y115.851 E18.11583
G1 X82.112 Y115.38 E18.14227
G1 X82.376 Y114.706 E18.17839
G1 X82.505 Y114.187 E18.20507
G1 X82.632 Y113.269 E18.2513
G1 X82.637 Y105.442 E18.64179
G1 F873.8 X82.626 Y104.755 E18.6771
G1 F871.7 X82.636 Y104.243 E18.70348
G1 F891.1 X82.635 Y103.703 E18.73069
G1 F893.3 X82.638 Y102.774 E18.77739
G1 F900 X82.639 Y101.96 E18.818
G1 X82.639 Y101.395 E18.84619
G1 X80.343 Y101.396 E18.96073
G1 X81.134 Y101.823 E19.00558
G1 X81.621 Y102.3 E19.03959
G1 X81.977 Y102.845 E19.07207
G1 F855.1 X82.178 Y103.331 E19.09968
G1 F851.1 X82.232 Y103.772 E19.12312
G1 F891.1 X82.232 Y104.272 E19.14832
G1 F869.6 X82.178 Y104.671 E19.16911
G1 F873.8 X81.917 Y105.306 E19.20439
G1 F900 X81.623 Y105.747 E19.23083
G1 X81.319 Y106.057 E19.25249
G1 X80.923 Y106.346 E19.27695
G1 X80.524 Y106.544 E19.29917
G1 X79.937 Y106.694 E19.3294
G1 X79.629 Y106.734 E19.34489
G1 X79.045 Y106.704 E19.37407
G1 X78.489 Y106.536 E19.40305
G1 X77.98 Y106.245 E19.4323
G1 X77.575 Y105.931 E19.45786
G1 X77.155 Y105.377 E19.49255
G1 X77.019 Y105.116 E19.50723
G1 X76.646 Y105.715 E19.54244
G1 X76.286 Y106.084 E19.56815
G1 X75.727 Y106.463 E19.60185
G1 X75.093 Y106.656 E19.63491
G1 X74.724 Y106.734 E19.65373
G1 X74.151 Y106.713 E19.68234
G1 X73.757 Y106.63 E19.70242
G1 X73.137 Y106.358 E19.7362
G1 X72.717 Y106.053 E19.7621
G1 X72.446 Y105.782 E19.78122
G1 X72.216 Y105.469 E19.8006
G1 X72.039 Y105.131 E19.81963
G1 F880.2 X71.824 Y104.498 E19.85373
G0 F2700 X72.972 Y102.749
G0 X73.937 Y102.1
