;FLAVOR:Marlin
;TIME:2524
;Filament used: 2.15678m
;Layer height: 0.2
;MINX:89.2
;MINY:75.983
;MINZ:0.3
;MAXX:130.8
;MAXY:144
;MAXZ:8.1
;Generated with Cura_SteamEngine 5.0.0
M140 S60
M105
M190 S60
M104 S200
M105
M109 S200
M82 ;absolute extrusion mode
G28 ;Home
G1 Z15.0 F6000 ;Move the platform down 15mm
;Prime the extruder
G92 E0
G1 F200 E3
G92 E0
G92 E0
G92 E0
G1 F2700 E-5
;LAYER_COUNT:40
;LAYER:0
M107
;MESH:FSwitch001.stl
G0 F4500 X95.163 Y78.867 Z0.3
;TYPE:WALL-OUTER
G1 F2700 E0
G1 F1500 X95.164 Y92.699 E0.69008
G1 X103.047 Y100.583 E1.2463
G1 X124.763 Y100.583 E2.32972
G1 X124.763 Y84.57 E3.12861
G1 X124.763 Y75.983 E3.55702
G1 X98.047 Y75.983 E4.88989
G1 X95.163 Y78.867 E5.09337
G0 F4500 X95.163 Y79.067
G0 X95.673 Y79.067
G0 X104.715 Y80.307
G0 X105.209 Y80.18
G1 F1500 X105.171 Y79.645 E5.12013
G1 X105.291 Y79.122 E5.1469
G1 X105.561 Y78.657 E5.17372
G1 X105.954 Y78.294 E5.20041
G1 F1503.8 X106.438 Y78.064 E5.22708
G1 X106.966 Y77.984 E5.25366
G1 F1500 X107.498 Y78.067 E5.28052
G1 X107.981 Y78.301 E5.3073
G1 X108.372 Y78.665 E5.33395
G1 X108.639 Y79.129 E5.36066
G1 X108.756 Y79.651 E5.38735
G1 X108.716 Y80.19 E5.41431
G1 X108.517 Y80.687 E5.44102
G1 X108.184 Y81.105 E5.46768
G1 X107.743 Y81.402 E5.49421
G1 X107.226 Y81.562 E5.52121
G1 X106.702 Y81.561 E5.54735
G1 X106.178 Y81.402 E5.57467
G1 X105.734 Y81.096 E5.60157
G1 X105.402 Y80.676 E5.62828
G1 X105.209 Y80.18 E5.65484
G0 F4500 X105.195 Y79.981
G0 X104.67 Y80.062
G0 X104.715 Y92.307
G0 X105.209 Y92.18
G1 F1500 X105.171 Y91.645 E5.68159
G1 X105.291 Y91.122 E5.70836
G1 X105.561 Y90.657 E5.73519
G1 X105.954 Y90.294 E5.76188
G1 X106.438 Y90.063 E5.78864
G1 X106.966 Y89.984 E5.81527
G1 X107.498 Y90.067 E5.84214
G1 X107.98 Y90.301 E5.86887
G1 X108.372 Y90.665 E5.89555
G1 X108.639 Y91.129 E5.92226
G1 X108.756 Y91.651 E5.94895
G1 X108.761 Y91.692 E5.95101
G1 X108.716 Y92.19 E5.97596
G1 X108.517 Y92.687 E6.00267
G1 X108.184 Y93.105 E6.02933
G1 X107.743 Y93.402 E6.05586
G1 X107.226 Y93.562 E6.08286
G1 X106.702 Y93.561 E6.109
G1 X106.178 Y93.402 E6.13632
G1 X105.734 Y93.096 E6.16322
G1 X105.402 Y92.676 E6.18993
G1 X105.209 Y92.18 E6.21648
G0 F4500 X105.195 Y91.981
G0 X104.834 Y92.32
;TYPE:WALL-INNER
G1 F1500 X104.771 Y91.667 E6.24921
G1 X104.903 Y91.026 E6.28186
G1 X105.219 Y90.451 E6.3146
G1 X105.688 Y89.996 E6.3472
G1 X106.271 Y89.699 E6.37984
G1 X106.914 Y89.588 E6.41239
G1 X107.567 Y89.673 E6.44525
G1 X108.16 Y89.943 E6.47775
G1 X108.65 Y90.377 E6.51041
G1 X108.989 Y90.935 E6.54298
G1 X109.148 Y91.569 E6.57559
G1 X109.161 Y91.692 E6.58177
G1 X109.114 Y92.226 E6.60851
G1 X108.886 Y92.842 E6.64128
G1 X108.493 Y93.359 E6.67368
G1 X107.961 Y93.738 E6.70627
G1 X107.338 Y93.946 E6.73904
G1 X106.694 Y93.961 E6.77117
G1 X106.056 Y93.783 E6.80422
G1 X105.502 Y93.422 E6.83721
G1 X105.084 Y92.918 E6.86988
G1 X104.834 Y92.32 E6.90221
G0 F4500 X104.726 Y92.348
G0 X95.665 Y92.493
G0 X95.564 Y92.533
G1 F1500 X103.213 Y100.183 E7.44193
G1 X124.363 Y100.183 E8.4971
G1 X124.363 Y84.57 E9.27604
G1 X124.363 Y76.383 E9.68449
G1 X98.213 Y76.383 E10.98912
G1 X95.563 Y79.033 E11.17609
G1 X95.564 Y92.533 E11.84961
G0 F4500 X95.665 Y92.493
G0 X104.726 Y80.348
G0 X104.834 Y80.32
G1 F1500 X104.771 Y79.667 E11.88234
G1 X104.903 Y79.026 E11.91499
G1 X105.218 Y78.451 E11.9477
G1 X105.688 Y77.996 E11.98033
G1 F1503.8 X106.271 Y77.7 E12.01287
G1 X106.914 Y77.587 E12.04536
G1 F1500 X107.567 Y77.673 E12.07822
G1 X108.161 Y77.944 E12.1108
G1 X108.65 Y78.377 E12.14338
G1 X108.989 Y78.935 E12.17595
G1 X109.148 Y79.569 E12.20856
G1 X109.114 Y80.226 E12.24139
G1 X108.886 Y80.842 E12.27416
G1 X108.493 Y81.359 E12.30656
G1 X107.961 Y81.738 E12.33914
G1 X107.338 Y81.946 E12.37191
G1 X106.694 Y81.961 E12.40405
G1 X106.056 Y81.783 E12.4371
G1 X105.502 Y81.422 E12.47008
G1 X105.084 Y80.918 E12.50275
G1 X104.834 Y80.32 E12.53509
G0 F4500 X104.372 Y79.689
G1 F1500 X104.4 Y79.392 E12.54997
G1 X104.515 Y78.929 E12.57377
G1 X104.629 Y78.654 E12.58862
G1 X104.876 Y78.244 E12.6125
G1 X105.066 Y78.014 E12.62739
G1 X105.421 Y77.697 E12.65113
G1 X105.67 Y77.534 E12.66598
G1 F1428.6 X106.345 Y77.239 E12.70457
G1 F1421.8 X106.862 Y77.189 E12.73191
G1 F1405.2 X107.64 Y77.254 E12.77349
G1 F1411.8 X108.341 Y77.586 E12.8146
G1 F1500 X108.584 Y77.758 E12.82946
G1 X108.927 Y78.089 E12.85324
G1 X109.109 Y78.325 E12.86811
G1 X109.339 Y78.741 E12.89182
G1 X109.443 Y79.022 E12.90677
G1 X109.54 Y79.488 E12.93052
G1 X109.556 Y79.784 E12.94531
G1 X109.483 Y80.428 E12.97764
G1 X109.255 Y80.997 E13.00822
G1 X109.105 Y81.244 E13.02264
G1 X108.779 Y81.641 E13.04827
G1 X108.573 Y81.818 E13.06182
G1 X108.133 Y82.102 E13.08795
G1 X107.45 Y82.33 E13.12387
G1 X107.145 Y82.37 E13.13922
G1 X106.64 Y82.359 E13.16442
G1 X105.933 Y82.163 E13.20102
G1 X105.658 Y82.025 E13.21637
G1 X105.222 Y81.712 E13.24315
G1 X104.766 Y81.161 E13.27883
G1 X104.624 Y80.903 E13.29352
G1 X104.412 Y80.288 E13.32598
G1 X104.372 Y79.689 E13.35593
G0 F4500 X104.858 Y78.929
G0 X106.361 Y76.801
G1 F1435.4 X105.507 Y76.784 E13.40046
G1 F1500 X98.379 Y76.783 E13.75608
G1 X95.963 Y79.199 E13.92654
G1 X95.964 Y92.367 E14.58349
G1 X103.379 Y99.783 E15.1067
G1 X123.963 Y99.783 E16.13364
G1 X123.963 Y84.57 E16.89262
G1 X123.963 Y76.783 E17.28111
G1 X119.985 Y76.783 E17.47957
G1 X116.007 Y76.783 E17.67804
G1 F1496.3 X112.029 Y76.783 E17.877
G1 X108.051 Y76.784 E18.07596
G1 F1481.5 X107.201 Y76.787 E18.11889
G1 F1421.8 X106.361 Y76.801 E18.16311
G0 F4500 X104.98 Y78.72
G0 X104.748 Y79.54
G0 X104.876 Y90.244
G1 F1500 X105.174 Y89.918 E18.18515
G1 X105.597 Y89.572 E18.21241
G1 X106.105 Y89.335 E18.24038
G1 X106.391 Y89.253 E18.25522
G1 X106.908 Y89.186 E18.28123
G1 X107.165 Y89.197 E18.29406
G1 X107.68 Y89.288 E18.32015
G1 X108.34 Y89.586 E18.35628
G1 X108.584 Y89.759 E18.37121
G1 X108.955 Y90.117 E18.39693
G1 X109.109 Y90.326 E18.40988
G1 X109.382 Y90.83 E18.43848
G1 X109.54 Y91.488 E18.47224
G1 X109.561 Y91.692 E18.48247
G1 X109.512 Y92.263 E18.51106
G1 X109.439 Y92.559 E18.52627
G1 X109.192 Y93.121 E18.5569
G1 X108.802 Y93.613 E18.58822
G1 X108.573 Y93.818 E18.60355
G1 X108.178 Y94.074 E18.62704
G1 X107.915 Y94.195 E18.64148
G1 X107.342 Y94.356 E18.67117
G1 X106.686 Y94.361 E18.7039
G1 X106.399 Y94.314 E18.71841
G1 X105.827 Y94.123 E18.7485
G1 X105.269 Y93.747 E18.78207
G1 X105.055 Y93.54 E18.79692
G1 X104.766 Y93.161 E18.8207
G1 X104.624 Y92.903 E18.83539
G1 X104.417 Y92.311 E18.86668
G1 X104.372 Y91.689 E18.89779
G1 X104.4 Y91.392 E18.91268
G1 X104.562 Y90.786 E18.94397
G1 X104.876 Y90.244 E18.97522
G0 F4500 X104.031 Y91.295
;TYPE:SKIN
G1 F1500 X104.203 Y90.667 E19.00771
G1 X104.547 Y90.054 E19.04278
G1 X104.905 Y89.649 E19.06974
G1 X105.382 Y89.259 E19.10048
G1 X105.945 Y88.99 E19.13161
G1 X106.495 Y88.862 E19.15979
G1 X107.097 Y88.808 E19.18994
G1 X107.7 Y88.904 E19.2204
G1 X108.091 Y89.036 E19.24099
G1 X108.748 Y89.4 E19.27846
G1 X109.188 Y89.81 E19.30847
G1 X109.445 Y90.147 E19.32961
G1 X109.777 Y90.792 E19.3658
G1 X109.925 Y91.464 E19.40013
G1 X109.927 Y91.499 E19.40188
G1 X109.924 Y91.939 E19.42384
G1 X109.845 Y92.538 E19.45398
G1 X109.607 Y93.141 E19.48632
G1 X109.399 Y93.488 E19.5065
G1 X108.975 Y93.984 E19.53906
G1 X108.39 Y94.391 E19.57461
G1 X108.018 Y94.562 E19.59504
G1 X107.412 Y94.731 E19.62643
G1 X106.69 Y94.741 E19.66245
G1 X106.276 Y94.675 E19.68337
G1 X105.789 Y94.513 E19.70897
G1 X105.433 Y94.331 E19.72892
G1 X104.893 Y93.927 E19.76257
G1 X104.467 Y93.395 E19.79657
G1 X104.267 Y93.031 E19.81729
G1 X104.052 Y92.417 E19.84974
G1 X103.992 Y91.716 E19.88485
G1 X104.031 Y91.295 E19.90594
G0 F4500 X107.545 Y82.7
G1 F1500 X107.001 Y82.743 E19.93316
G1 X106.395 Y82.705 E19.96346
G1 X105.817 Y82.525 E19.99366
G1 X105.434 Y82.334 E20.01501
G1 X104.935 Y81.968 E20.04589
G1 X104.466 Y81.395 E20.08283
G1 X104.267 Y81.032 E20.10348
G1 X104.045 Y80.388 E20.13747
G1 X103.992 Y79.718 E20.171
G1 X104.031 Y79.295 E20.19219
G1 X104.153 Y78.815 E20.2169
G1 X104.301 Y78.458 E20.23618
G1 X104.563 Y78.028 E20.2613
G1 X104.811 Y77.73 E20.28064
G1 X105.19 Y77.395 E20.30588
G1 X105.502 Y77.165 E20.32522
G1 X98.538 Y77.164 E20.67265
G1 X96.344 Y79.358 E20.82745
G1 X96.344 Y92.208 E21.46854
G1 X102.78 Y98.644 E21.92263
G1 X103.538 Y99.403 E21.97615
G1 X123.583 Y99.403 E22.9762
G1 X123.583 Y84.58 E23.71572
G1 X123.583 Y77.164 E24.08571
G1 X108.345 Y77.165 E24.84593
G1 X108.828 Y77.466 E24.87433
G1 X109.191 Y77.814 E24.89942
G1 X109.441 Y78.14 E24.91991
G1 X109.683 Y78.583 E24.9451
G1 X109.814 Y78.942 E24.96416
G1 X109.915 Y79.441 E24.98956
G1 X109.935 Y79.818 E25.0084
G1 X109.887 Y80.326 E25.03385
G1 X109.787 Y80.711 E25.0537
G1 X109.478 Y81.378 E25.09037
G1 X109.098 Y81.852 E25.12068
G1 X108.772 Y82.142 E25.14245
G1 X108.126 Y82.525 E25.17992
G1 X107.545 Y82.7 E25.21019
G0 F4500 X104.756 Y91.351
G0 X103.729 Y99.203
G1 F1500 X96.543 Y92.017 E25.7172
G0 F4500 X96.543 Y91.452
G1 F1500 X104.294 Y99.203 E26.26408
G0 F4500 X104.86 Y99.203
G1 F1500 X96.543 Y90.886 E26.85089
G0 F4500 X96.543 Y90.32
G1 F1500 X105.426 Y99.203 E27.47763
G0 F4500 X105.991 Y99.203
G1 F1500 X96.543 Y89.755 E28.14424
G0 F4500 X96.543 Y89.189
G1 F1500 X106.557 Y99.203 E28.85078
G0 F4500 X107.123 Y99.203
G1 F1500 X96.543 Y88.623 E29.59725
G0 F4500 X96.543 Y88.058
G1 F1500 X107.688 Y99.203 E30.38359
G0 F4500 X108.254 Y99.203
G1 F1500 X96.543 Y87.492 E31.20987
G0 F4500 X96.543 Y86.926
G1 F1500 X108.82 Y99.203 E32.07608
G0 F4500 X109.385 Y99.203
G1 F1500 X96.543 Y86.361 E32.98215
G0 F4500 X96.543 Y85.795
G1 F1500 X104.474 Y93.726 E33.54173
G0 F4500 X105.008 Y94.26
G1 F1500 X109.951 Y99.203 E33.89048
G0 F4500 X110.517 Y99.203
G1 F1500 X106.155 Y94.842 E34.19821
G0 F4500 X106.818 Y94.938
G1 F1500 X111.082 Y99.203 E34.49909
G0 F4500 X111.648 Y99.203
G1 F1500 X107.374 Y94.929 E34.80065
G0 F4500 X107.832 Y94.821
G1 F1500 X112.214 Y99.203 E35.10982
G0 F4500 X112.779 Y99.203
G1 F1500 X108.249 Y94.673 E35.42943
G0 F4500 X108.619 Y94.477
G1 F1500 X113.345 Y99.203 E35.76288
G0 F4500 X113.911 Y99.203
G1 F1500 X108.955 Y94.248 E36.11252
G0 F4500 X109.24 Y93.966
G1 F1500 X114.477 Y99.203 E36.48202
G0 F4500 X115.042 Y99.203
G1 F1500 X109.506 Y93.666 E36.87265
G0 F4500 X109.727 Y93.322
G1 F1500 X115.608 Y99.203 E37.28758
G0 F4500 X116.174 Y99.203
G1 F1500 X109.904 Y92.933 E37.72996
G0 F4500 X110.046 Y92.51
G1 F1500 X116.739 Y99.203 E38.20219
G0 F4500 X117.305 Y99.203
G1 F1500 X110.114 Y92.012 E38.70956
G0 F4500 X110.121 Y91.453
G1 F1500 X117.871 Y99.203 E39.25636
G0 F4500 X118.436 Y99.203
G1 F1500 X109.965 Y90.732 E39.85403
G1 X109.895 Y90.662
G0 F4500 X108.045 Y88.812
G1 F1500 X97.609 Y78.375 E40.59039
G0 F4500 X97.891 Y78.092
G1 F1500 X119.002 Y99.203 E42.07988
G0 F4500 X119.568 Y99.203
G1 F1500 X98.174 Y77.81 E43.58931
G0 F4500 X98.457 Y77.527
G1 F1500 X120.133 Y99.203 E45.11867
G0 F4500 X120.699 Y99.203
G1 F1500 X98.86 Y77.364 E46.65953
G0 F4500 X99.426 Y77.364
G1 F1500 X121.265 Y99.203 E48.20039
G0 F4500 X121.83 Y99.203
G1 F1500 X99.991 Y77.364 E49.74125
G0 F4500 X100.557 Y77.364
G1 F1500 X103.97 Y80.777 E49.98205
G0 F4500 X103.816 Y80.057
G1 F1500 X101.123 Y77.364 E50.17206
G0 F4500 X101.689 Y77.364
G1 F1500 X103.811 Y79.487 E50.32181
G0 F4500 X103.898 Y79.007
G1 F1500 X102.254 Y77.364 E50.43777
G0 F4500 X102.82 Y77.364
G1 F1500 X104.034 Y78.578 E50.52342
G0 F4500 X104.224 Y78.203
G1 F1500 X103.386 Y77.364 E50.58258
G0 F4500 X103.951 Y77.364
G1 F1500 X104.446 Y77.859 E50.61751
G0 F4500 X104.709 Y77.556
G1 F1500 X104.517 Y77.364 E50.63105
G0 F4500 X109.044 Y77.365
G1 F1500 X123.382 Y91.703 E51.64268
G0 F4500 X123.382 Y91.138
G1 F1500 X109.61 Y77.365 E52.6144
G0 F4500 X110.175 Y77.365
G1 F1500 X123.382 Y90.572 E53.54623
G0 F4500 X123.382 Y90.006
G1 F1500 X110.741 Y77.365 E54.43812
G0 F4500 X111.307 Y77.365
G1 F1500 X123.382 Y89.441 E55.29011
G0 F4500 X123.382 Y88.875
G1 F1500 X111.872 Y77.365 E56.1022
G0 F4500 X112.438 Y77.365
G1 F1500 X123.382 Y88.309 E56.87436
G0 F4500 X123.382 Y87.744
G1 F1500 X113.004 Y77.365 E57.60662
G0 F4500 X113.569 Y77.365
G1 F1500 X123.382 Y87.178 E58.29898
G0 F4500 X123.382 Y86.612
G1 F1500 X114.134 Y77.365 E58.95144
G0 F4500 X114.7 Y77.365
G1 F1500 X123.382 Y86.047 E59.564
G0 F4500 X123.382 Y85.481
G1 F1500 X115.266 Y77.365 E60.13663
G0 F4500 X115.831 Y77.365
G1 F1500 X123.382 Y84.915 E60.66936
G0 F4500 X123.382 Y84.35
G1 F1500 X116.397 Y77.365 E61.16219
G0 F4500 X116.963 Y77.365
G1 F1500 X123.382 Y83.784 E61.61508
G0 F4500 X123.382 Y83.218
G1 F1500 X117.528 Y77.365 E62.02808
G0 F4500 X118.094 Y77.365
G1 F1500 X123.382 Y82.653 E62.40118
G0 F4500 X123.382 Y82.087
G1 F1500 X118.659 Y77.364 E62.73441
G0 F4500 X119.225 Y77.364
G1 F1500 X123.382 Y81.521 E63.02771
G0 F4500 X123.382 Y80.955
G1 F1500 X119.79 Y77.364 E63.28111
G0 F4500 X120.356 Y77.364
G1 F1500 X123.382 Y80.39 E63.49461
G0 F4500 X123.382 Y79.824
G1 F1500 X120.922 Y77.364 E63.66818
G0 F4500 X121.488 Y77.364
G1 F1500 X123.382 Y79.258 E63.80181
G0 F4500 X123.382 Y78.693
G1 F1500 X122.053 Y77.364 E63.89558
G0 F4500 X122.619 Y77.364
G1 F1500 X123.382 Y78.127 E63.94941
G0 F4500 X123.382 Y77.561
G1 F1500 X123.185 Y77.364 E63.96331
G0 F4500 X110.119 Y79.572
G1 F1500 X123.382 Y92.835 E64.89909
G0 F4500 X123.382 Y93.401
G1 F1500 X110.105 Y80.124 E65.83585
G0 F4500 X110.016 Y80.6
G1 F1500 X123.382 Y93.966 E66.77889
G0 F4500 X123.382 Y94.532
G1 F1500 X109.865 Y81.015 E67.73259
G0 F4500 X109.685 Y81.401
G1 F1500 X123.382 Y95.098 E68.69899
G0 F4500 X123.382 Y95.663
G1 F1500 X109.449 Y81.73 E69.68204
G0 F4500 X109.189 Y82.036
G1 F1500 X123.382 Y96.229 E70.68343
G0 F4500 X123.382 Y96.795
G1 F1500 X108.889 Y82.302 E71.70599
G0 F4500 X108.534 Y82.512
G1 F1500 X123.382 Y97.36 E72.75359
G0 F4500 X123.382 Y97.926
G1 F1500 X108.173 Y82.718 E73.82664
G0 F4500 X107.74 Y82.85
G1 F1500 X123.382 Y98.492 E74.93026
G0 F4500 X123.382 Y99.057
G1 F1500 X107.257 Y82.933 E76.06793
G0 F4500 X106.679 Y82.92
G1 F1500 X122.962 Y99.203 E77.21679
G0 F4500 X122.396 Y99.203
G1 F1500 X105.979 Y82.786 E78.3751
G1 X105.909 Y82.716
G0 F4500 X108.1 Y81.725
G0 X108.833 Y80.989
G0 X110.002 Y78.889
G1 F1500 X123.382 Y92.269 E79.31913
G1 X123.452 Y92.339
G0 F4500 X107.304 Y88.636
G1 F1500 X97.326 Y78.658 E80.02313
G0 F4500 X97.043 Y78.941
G1 F1500 X106.742 Y88.64 E80.70745
G0 F4500 X106.233 Y88.697
G1 F1500 X96.76 Y79.224 E81.37582
G0 F4500 X96.543 Y79.572
G1 F1500 X105.805 Y88.834 E82.0293
G0 F4500 X105.419 Y89.014
G1 F1500 X96.543 Y80.138 E82.65555
G0 F4500 X96.543 Y80.704
G1 F1500 X105.083 Y89.244 E83.25809
G0 F4500 X104.772 Y89.499
G1 F1500 X96.543 Y81.269 E83.83873
G0 F4500 X96.543 Y81.835
G1 F1500 X104.504 Y89.796 E84.40042
G0 F4500 X104.276 Y90.134
G1 F1500 X96.543 Y82.401 E84.94603
G0 F4500 X96.543 Y82.966
G1 F1500 X104.067 Y90.49 E85.47689
G0 F4500 X103.931 Y90.921
G1 F1500 X96.543 Y83.532 E85.99818
G0 F4500 X96.543 Y84.098
G1 F1500 X103.825 Y91.38 E86.51197
G0 F4500 X103.807 Y91.928
G1 F1500 X96.543 Y84.664 E87.02448
G0 F4500 X96.543 Y85.229
G1 F1500 X103.913 Y92.599 E87.54448
G1 X103.983 Y92.669
G1 F2700 E82.54448
;MESH:FSwitch002.stl
G0 F4500 X103.14 Y100.355
G0 X103.14 Y102.63
G0 X101.831 Y103.146
G0 X101.059 Y104.123
G0 X100.739 Y105.186
G1 F2700 E87.54448
G0 F4500 X101.238 Y105.083
;TYPE:WALL-OUTER
G1 F1500 X101.191 Y104.683 E87.56457
G1 X101.248 Y104.283 E87.58473
G1 X101.403 Y103.918 E87.60451
G1 X101.656 Y103.593 E87.62506
G1 X101.978 Y103.35 E87.64519
G1 X102.353 Y103.2 E87.66534
G1 X102.758 Y103.151 E87.68569
G1 X103.159 Y103.209 E87.7059
G1 X103.531 Y103.367 E87.72607
G1 X103.846 Y103.615 E87.74607
G1 X104.09 Y103.938 E87.76626
G1 X104.24 Y104.312 E87.78637
G1 X104.289 Y104.663 E87.80405
G1 X104.232 Y105.115 E87.82678
G1 X104.076 Y105.483 E87.84672
G1 X103.824 Y105.806 E87.86716
G1 X103.502 Y106.05 E87.88731
G1 X103.127 Y106.2 E87.90746
G1 X102.721 Y106.249 E87.92787
G1 X102.32 Y106.191 E87.94808
G1 X101.957 Y106.036 E87.96777
G1 X101.631 Y105.782 E87.98839
G1 X101.39 Y105.462 E88.00838
G1 X101.238 Y105.083 E88.02875
G0 F4500 X101.215 Y104.884
G0 X100.692 Y104.917
G0 X101.013 Y105.711
G0 X102.236 Y106.635
G0 X116.022 Y104.648
G0 X116.531 Y104.684
G1 F1500 X116.588 Y104.283 E88.04896
G1 X116.744 Y103.917 E88.0688
G1 X116.996 Y103.593 E88.08928
