;FLAVOR:Marlin
;TIME:831
;Filament used: 0.451215m
;Layer height: 0.2
;MINX:97.618
;MINY:97.618
;MINZ:0.3
;MAXX:122.39
;MAXY:122.381
;MAXZ:7.1
;Generated with Cura_SteamEngine 5.0.0
M140 S40
M105
M190 S40
M104 S200
M105
M109 S200
M82 ;absolute extrusion mode
G28 ;Home
G1 Z15.0 F6000 ;Move the platform down 15mm
;Prime the extruder
G92 E0
G1 F200 E3
G92 E0
G92 E0
G92 E0
;LAYER_COUNT:35
;LAYER:0
M107
G0 F3600 X101.242 Y101.24 Z0.3
G0 X97.618 Y110.009
;TYPE:SKIRT
G1 F600 X97.65 Y109.026 E0.04907
G1 X97.722 Y108.346 E0.08318
G1 X97.919 Y107.251 E0.13869
G1 X98.177 Y106.295 E0.18809
G1 X98.477 Y105.455 E0.23259
G1 X98.789 Y104.735 E0.27174
G1 X99.201 Y103.937 E0.31655
G1 X99.647 Y103.202 E0.35944
G1 X100.161 Y102.476 E0.40382
G1 X100.69 Y101.828 E0.44555
G1 X101.242 Y101.24 E0.48579
G1 X101.91 Y100.62 E0.53126
G1 X102.739 Y99.957 E0.58422
G1 X103.447 Y99.478 E0.62686
G1 X104.42 Y98.939 E0.68236
G1 X105.281 Y98.541 E0.72968
G1 X105.819 Y98.33 E0.75851
G1 X106.681 Y98.064 E0.80352
G1 X107.806 Y97.803 E0.86113
G1 X108.613 Y97.68 E0.90186
G1 X109.142 Y97.633 E0.92836
G1 X110.382 Y97.618 E0.99022
G1 X111.153 Y97.658 E1.02874
G1 X111.762 Y97.731 E1.05934
G1 X112.482 Y97.861 E1.09584
G1 X113.363 Y98.075 E1.14107
G1 X114.395 Y98.41 E1.19521
G1 X115.17 Y98.733 E1.23709
G1 X116.054 Y99.191 E1.28677
G1 X116.804 Y99.648 E1.33058
G1 X117.487 Y100.129 E1.37226
G1 X118.261 Y100.762 E1.42214
G1 X118.738 Y101.209 E1.45476
G1 X119.31 Y101.828 E1.49681
G1 X119.884 Y102.538 E1.54236
G1 X120.392 Y103.262 E1.58648
G1 X120.807 Y103.949 E1.62652
G1 X121.21 Y104.736 E1.67064
G1 X121.539 Y105.5 E1.71214
G1 X121.813 Y106.282 E1.75348
G1 X122.042 Y107.116 E1.79662
G1 X122.226 Y108.039 E1.84358
G1 X122.353 Y109.064 E1.89511
G1 X122.39 Y109.885 E1.93611
G1 X122.345 Y110.945 E1.98904
G1 X122.251 Y111.793 E2.03161
G1 X122.108 Y112.589 E2.07195
G1 X121.876 Y113.499 E2.11881
G1 X121.656 Y114.176 E2.15432
G1 X121.293 Y115.067 E2.20232
G1 X120.847 Y115.974 E2.25275
G1 X120.499 Y116.57 E2.28718
G1 X119.919 Y117.412 E2.33819
G1 X119.47 Y117.976 E2.37415
G1 X118.896 Y118.609 E2.41678
G1 X118.335 Y119.158 E2.45594
G1 X117.854 Y119.569 E2.48751
G1 X117.345 Y119.96 E2.51953
G1 X116.645 Y120.44 E2.56188
G1 X115.904 Y120.875 E2.60474
G1 X115.085 Y121.281 E2.65035
G1 X114.084 Y121.687 E2.70424
G1 X113.274 Y121.94 E2.74658
G1 X112.292 Y122.16 E2.79678
G1 X111.206 Y122.32 E2.85155
G1 X110.45 Y122.374 E2.88936
G1 X109.786 Y122.381 E2.92249
G1 X109.15 Y122.354 E2.95425
G1 X108.52 Y122.295 E2.98582
G1 X107.746 Y122.175 E3.02489
G1 X106.824 Y121.961 E3.07212
G1 X105.882 Y121.675 E3.12123
G1 X105.276 Y121.444 E3.15359
G1 X104.415 Y121.044 E3.20095
G1 X103.685 Y120.644 E3.24248
G1 X102.995 Y120.203 E3.28333
G1 X102.321 Y119.705 E3.32514
G1 X101.613 Y119.101 E3.37157
G1 X101.025 Y118.523 E3.41271
G1 X100.33 Y117.732 E3.46524
G1 X99.976 Y117.271 E3.49424
G1 X99.472 Y116.509 E3.53982
G1 X99.049 Y115.772 E3.58221
G1 X98.603 Y114.841 E3.63372
G1 X98.393 Y114.325 E3.66151
G1 X98.099 Y113.409 E3.7095
G1 X97.882 Y112.53 E3.75467
G1 X97.746 Y111.768 E3.79329
G1 X97.651 Y110.882 E3.83775
G1 X97.618 Y110.009 E3.88133
G0 F3600 X98.017 Y109.998
G1 F600 X98.05 Y109.044 E3.92896
G1 X98.119 Y108.396 E3.96147
G1 X98.312 Y107.325 E4.01576
G1 X98.561 Y106.409 E4.06312
G1 X98.853 Y105.593 E4.10636
G1 X99.154 Y104.898 E4.14414
G1 X99.554 Y104.125 E4.18757
G1 X99.986 Y103.414 E4.22907
G1 X100.484 Y102.711 E4.27205
G1 X100.997 Y102.085 E4.31243
G1 X101.53 Y101.517 E4.35129
G1 X102.179 Y100.916 E4.39542
G1 X102.985 Y100.272 E4.44689
G1 X103.664 Y99.814 E4.48775
G1 X104.609 Y99.291 E4.54164
G1 X105.444 Y98.906 E4.58751
G1 X105.959 Y98.705 E4.61509
G1 X106.795 Y98.447 E4.65874
G1 X107.893 Y98.193 E4.71497
G1 X108.664 Y98.077 E4.75387
G1 X109.175 Y98.031 E4.77946
G1 X110.382 Y98.018 E4.83969
G1 X111.129 Y98.057 E4.877
G1 X111.691 Y98.125 E4.90525
G1 X112.411 Y98.255 E4.94175
G1 X113.263 Y98.463 E4.9855
G1 X114.268 Y98.789 E5.03822
G1 X115.009 Y99.099 E5.07829
G1 X115.866 Y99.544 E5.12646
G1 X116.592 Y99.987 E5.1689
G1 X117.252 Y100.453 E5.2092
G1 X118.004 Y101.069 E5.2577
G1 X118.458 Y101.496 E5.2888
G1 X119.015 Y102.097 E5.32968
G1 X119.571 Y102.785 E5.37381
G1 X120.062 Y103.487 E5.41655
G1 X120.462 Y104.152 E5.45526
G1 X120.852 Y104.915 E5.49802
G1 X121.169 Y105.653 E5.53809
G1 X121.434 Y106.409 E5.57805
G1 X121.655 Y107.217 E5.61985
G1 X121.833 Y108.113 E5.66542
G1 X121.955 Y109.108 E5.71543
G1 X121.99 Y109.895 E5.75474
G1 X121.946 Y110.923 E5.80607
G1 X121.854 Y111.744 E5.84729
G1 X121.715 Y112.514 E5.88632
G1 X121.49 Y113.395 E5.93169
G1 X121.277 Y114.047 E5.96591
G1 X120.924 Y114.912 E6.01252
G1 X120.49 Y115.794 E6.06156
G1 X120.159 Y116.359 E6.09423
G1 X119.591 Y117.182 E6.14412
G1 X119.174 Y117.707 E6.17757
G1 X118.6 Y118.34 E6.2202
G1 X118.06 Y118.868 E6.25788
G1 X117.611 Y119.252 E6.28735
G1 X117.102 Y119.643 E6.31937
G1 X116.423 Y120.107 E6.3604
G1 X115.705 Y120.528 E6.40193
G1 X114.912 Y120.92 E6.44606
G1 X113.938 Y121.314 E6.49848
G1 X113.163 Y121.556 E6.53899
G1 X112.209 Y121.769 E6.58775
G1 X111.152 Y121.924 E6.64105
G1 X110.429 Y121.975 E6.67721
G1 X109.785 Y121.981 E6.70934
G1 X109.172 Y121.954 E6.73995
G1 X108.56 Y121.897 E6.77062
G1 X107.812 Y121.78 E6.80839
G1 X106.919 Y121.572 E6.85413
G1 X106.002 Y121.293 E6.90195
G1 X105.427 Y121.074 E6.93265
G1 X104.586 Y120.682 E6.97894
G1 X103.881 Y120.296 E7.01904
G1 X103.215 Y119.868 E7.05854
G1 X102.562 Y119.386 E7.09903
G1 X101.877 Y118.8 E7.14401
G1 X101.309 Y118.242 E7.18373
G1 X100.634 Y117.471 E7.23485
G1 X100.298 Y117.034 E7.26235
G1 X99.807 Y116.291 E7.30679
G1 X99.399 Y115.577 E7.34781
G1 X98.966 Y114.672 E7.39787
G1 X98.766 Y114.181 E7.42432
G1 X98.481 Y113.291 E7.47094
G1 X98.271 Y112.438 E7.51477
G1 X98.141 Y111.703 E7.552
G1 X98.049 Y110.844 E7.59511
G1 X98.017 Y109.998 E7.63734
G0 F3600 X98.417 Y109.988
G1 F600 X98.45 Y109.062 E7.68357
G1 X98.516 Y108.447 E7.71443
G1 X98.705 Y107.398 E7.76761
G1 X98.944 Y106.522 E7.81291
G1 X99.228 Y105.732 E7.85479
G1 X99.519 Y105.061 E7.89128
G1 X99.907 Y104.313 E7.93332
G1 X100.326 Y103.625 E7.97351
G1 X100.808 Y102.946 E8.01505
G1 X101.303 Y102.342 E8.05401
G1 X101.818 Y101.795 E8.09149
G1 X102.448 Y101.212 E8.13432
G1 X103.232 Y100.587 E8.18434
G1 X103.881 Y100.151 E8.22335
G1 X104.799 Y99.643 E8.27569
G1 X105.607 Y99.271 E8.32007
G1 X106.099 Y99.08 E8.3464
G1 X106.908 Y98.831 E8.38863
G1 X107.98 Y98.583 E8.44352
G1 X108.715 Y98.474 E8.48059
G1 X109.501 Y98.418 E8.51991
G1 X110.382 Y98.418 E8.56386
G1 X111.104 Y98.456 E8.59993
G1 X111.62 Y98.518 E8.62586
G1 X112.34 Y98.648 E8.66236
G1 X113.164 Y98.85 E8.70469
G1 X114.14 Y99.169 E8.75592
G1 X114.847 Y99.465 E8.79415
G1 X115.678 Y99.897 E8.84088
G1 X116.38 Y100.326 E8.88193
G1 X117.017 Y100.777 E8.92086
G1 X117.748 Y101.376 E8.96801
G1 X118.178 Y101.782 E8.99752
G1 X118.719 Y102.366 E9.03724
G1 X119.257 Y103.033 E9.07999
G1 X119.731 Y103.713 E9.12134
G1 X120.117 Y104.354 E9.15867
G1 X120.494 Y105.093 E9.20006
G1 X120.8 Y105.807 E9.23882
G1 X121.055 Y106.537 E9.27739
G1 X121.268 Y107.318 E9.31778
G1 X121.44 Y108.187 E9.36198
G1 X121.558 Y109.152 E9.41048
G1 X121.59 Y109.905 E9.44808
G1 X121.547 Y110.901 E9.49782
G1 X121.457 Y111.695 E9.53768
G1 X121.323 Y112.439 E9.5754
G1 X121.103 Y113.291 E9.6193
G1 X120.898 Y113.919 E9.65226
G1 X120.556 Y114.756 E9.69737
G1 X120.133 Y115.614 E9.74509
G1 X119.818 Y116.149 E9.77607
G1 X119.263 Y116.953 E9.82481
G1 X118.878 Y117.438 E9.8557
G1 X118.304 Y118.071 E9.89833
G1 X117.784 Y118.578 E9.93457
G1 X117.367 Y118.935 E9.96195
G1 X116.858 Y119.326 E9.99397
G1 X116.201 Y119.774 E10.03365
G1 X115.507 Y120.18 E10.07376
G1 X114.739 Y120.56 E10.11651
G1 X113.792 Y120.942 E10.16746
G1 X113.053 Y121.171 E10.20605
G1 X112.126 Y121.377 E10.25343
G1 X111.098 Y121.527 E10.30526
G1 X110.409 Y121.575 E10.33972
G1 X109.784 Y121.581 E10.3709
G1 X109.193 Y121.555 E10.40041
G1 X108.6 Y121.499 E10.43013
G1 X107.878 Y121.386 E10.46659
G1 X107.015 Y121.184 E10.51081
G1 X106.121 Y120.911 E10.55744
G1 X105.578 Y120.704 E10.58644
G1 X104.758 Y120.321 E10.63159
G1 X104.078 Y119.947 E10.67031
G1 X103.435 Y119.534 E10.70843
G1 X102.803 Y119.067 E10.74764
G1 X102.14 Y118.499 E10.79119
G1 X101.593 Y117.96 E10.82951
G1 X100.937 Y117.211 E10.87918
G1 X100.62 Y116.797 E10.90519
G1 X100.142 Y116.073 E10.94848
G1 X99.748 Y115.383 E10.98812
G1 X99.328 Y114.503 E11.03677
G1 X99.139 Y114.037 E11.06185
G1 X98.863 Y113.173 E11.1071
G1 X98.661 Y112.347 E11.14953
G1 X98.535 Y111.638 E11.18546
G1 X98.447 Y110.806 E11.2272
G1 X98.417 Y109.988 E11.26803
G0 F3600 X98.817 Y109.977
G1 F600 X98.849 Y109.08 E11.31281
G1 X98.912 Y108.497 E11.34207
G1 X99.098 Y107.471 E11.39409
G1 X99.328 Y106.636 E11.4373
G1 X99.603 Y105.871 E11.47786
G1 X99.884 Y105.224 E11.51305
G1 X100.26 Y104.501 E11.55371
G1 X100.666 Y103.837 E11.59253
G1 X101.132 Y103.182 E11.63264
G1 X101.61 Y102.599 E11.67025
G1 X102.106 Y102.072 E11.70636
G1 X102.717 Y101.508 E11.74784
G1 X103.478 Y100.902 E11.79638
G1 X104.098 Y100.487 E11.8336
G1 X104.989 Y99.996 E11.88435
G1 X105.771 Y99.636 E11.9273
G1 X106.239 Y99.454 E11.95235
G1 X107.022 Y99.215 E11.9932
G1 X108.067 Y98.974 E12.0467
G1 X108.765 Y98.871 E12.0819
G1 X109.501 Y98.818 E12.11872
G1 X110.382 Y98.818 E12.16267
G1 X111.079 Y98.855 E12.19749
G1 X112.269 Y99.042 E12.25759
G1 X113.064 Y99.237 E12.29843
G1 X114.012 Y99.548 E12.3482
G1 X114.685 Y99.831 E12.38463
G1 X115.49 Y100.25 E12.4299
G1 X116.168 Y100.665 E12.46956
G1 X116.783 Y101.101 E12.50717
G1 X117.491 Y101.683 E12.5529
G1 X117.899 Y102.068 E12.58088
G1 X118.423 Y102.635 E12.6194
G1 X118.943 Y103.281 E12.66078
G1 X119.401 Y103.939 E12.70077
G1 X119.772 Y104.556 E12.73669
G1 X120.136 Y105.271 E12.77672
G1 X120.43 Y105.96 E12.81409
G1 X120.676 Y106.665 E12.85134
G1 X120.881 Y107.42 E12.89038
G1 X121.047 Y108.26 E12.93309
G1 X121.16 Y109.197 E12.98018
G1 X121.19 Y109.915 E13.01603
G1 X121.147 Y110.879 E13.06417
G1 X121.06 Y111.646 E13.10269
G1 X120.93 Y112.363 E13.13904
G1 X120.717 Y113.187 E13.1815
G1 X120.52 Y113.791 E13.2132
G1 X120.187 Y114.601 E13.25689
G1 X119.776 Y115.434 E13.30323
G1 X119.478 Y115.939 E13.33249
G1 X118.935 Y116.724 E13.38011
G1 X118.582 Y117.17 E13.40848
G1 X118.008 Y117.803 E13.45111
G1 X117.509 Y118.288 E13.48583
G1 X117.123 Y118.618 E13.51117
G1 X116.443 Y119.132 E13.55369
G1 X115.979 Y119.442 E13.58153
G1 X115.309 Y119.833 E13.62024
G1 X114.565 Y120.199 E13.6616
G1 X113.645 Y120.57 E13.71109
G1 X112.942 Y120.787 E13.7478
G1 X112.043 Y120.986 E13.79374
G1 X111.044 Y121.131 E13.8441
G1 X110.388 Y121.176 E13.8769
G1 X109.783 Y121.181 E13.90709
G1 X109.215 Y121.155 E13.93545
G1 X108.641 Y121.101 E13.96422
G1 X107.944 Y120.991 E13.99942
G1 X107.11 Y120.795 E14.04216
G1 X106.241 Y120.53 E14.08749
G1 X105.729 Y120.333 E14.11486
G1 X104.929 Y119.959 E14.15892
G1 X104.275 Y119.599 E14.19616
G1 X103.654 Y119.2 E14.23299
G1 X103.044 Y118.747 E14.27089
G1 X102.404 Y118.198 E14.31296
G1 X101.877 Y117.678 E14.3499
G1 X101.241 Y116.95 E14.39813
G1 X100.839 Y116.41 E14.43171
G1 X100.478 Y115.855 E14.46474
G1 X100.098 Y115.188 E14.50304
G1 X99.691 Y114.334 E14.55024
G1 X99.441 Y113.686 E14.58489
G1 X99.246 Y113.055 E14.61784
G1 X99.05 Y112.255 E14.65893
G1 X98.93 Y111.573 E14.69348
G1 X98.845 Y110.768 E14.73387
G1 X98.817 Y109.977 E14.77335
;MESH:DD.stl
G0 F3600 X101.34 Y109.963
G0 X102.415 Y109.957
G0 X108.498 Y110.691
G0 X108.968 Y110.498
;TYPE:WALL-OUTER
G1 F600 X108.865 Y110.157 E14.79113
G1 X108.89 Y109.702 E14.81386
G1 X109.087 Y109.297 E14.83633
G1 X109.297 Y109.099 E14.85073
G1 X109.299 Y102.233 E15.19328
G1 X108.714 Y102.3 E15.22265
G1 X108.189 Y102.407 E15.24938
G1 X107.673 Y102.549 E15.27608
G1 X107.156 Y102.73 E15.30341
G1 X106.675 Y102.939 E15.32958
G1 X106.196 Y103.184 E15.35642
G1 X105.512 Y103.613 E15.3967
G1 X105.087 Y103.935 E15.4233
G1 X104.68 Y104.288 E15.45018
G1 X104.302 Y104.666 E15.47685
G1 X103.949 Y105.071 E15.50365
G1 X103.625 Y105.498 E15.53039
G1 X103.324 Y105.959 E15.55786
G1 X103.064 Y106.426 E15.58453
G1 X102.838 Y106.906 E15.611
G1 X102.644 Y107.397 E15.63734
G1 X102.414 Y108.185 E15.67829
G1 X102.309 Y108.698 E15.70441
G1 X102.236 Y109.242 E15.7318
G1 X102.204 Y109.766 E15.75799
G1 X102.206 Y110.299 E15.78458
G1 X102.246 Y110.833 E15.8113
G1 X102.323 Y111.366 E15.83816
G1 X102.437 Y111.892 E15.86502
G1 X102.583 Y112.405 E15.89163
G1 X102.767 Y112.909 E15.91839
G1 X102.986 Y113.401 E15.94526
G1 X103.236 Y113.875 E15.972
G1 X103.52 Y114.331 E15.9988
G1 X103.832 Y114.764 E16.02543
G1 X104.176 Y115.178 E16.05228
G1 X104.545 Y115.565 E16.07896
G1 X104.951 Y115.936 E16.1064
G1 X105.373 Y116.271 E16.13328
G1 X105.815 Y116.575 E16.16004
G1 X106.263 Y116.839 E16.18598
G1 X106.745 Y117.081 E16.21289
G1 X107.266 Y117.299 E16.24107
G1 X107.748 Y117.459 E16.2664
G1 X108.267 Y117.595 E16.29317
G1 X109.073 Y117.737 E16.334
G1 X109.862 Y117.79 E16.37345
G1 X110.523 Y117.769 E16.40645
G1 X111.094 Y117.712 E16.43508
G1 X111.711 Y117.603 E16.46634
G1 X112.506 Y117.379 E16.50754
G1 X113 Y117.19 E16.53393
G1 X113.49 Y116.967 E16.56079
G1 X113.961 Y116.712 E16.58751
G1 X114.414 Y116.423 E16.61432
G1 X114.844 Y116.106 E16.64097
G1 X115.459 Y115.562 E16.68194
G1 X115.819 Y115.183 E16.70801
G1 X116.162 Y114.774 E16.73464
G1 X116.477 Y114.336 E16.76156
G1 X116.76 Y113.883 E16.78821
G1 X117.017 Y113.396 E16.81568
G1 X117.235 Y112.907 E16.84239
G1 X117.419 Y112.4 E16.8693
G1 X117.562 Y111.899 E16.89529
G1 X117.679 Y111.361 E16.92276
G1 X117.754 Y110.843 E16.94887
G1 X117.793 Y110.308 E16.97564
G1 X117.783 Y109.49 E17.01645
G1 X117.731 Y108.971 E17.04247
G1 X117.645 Y108.453 E17.06867
G1 X117.52 Y107.918 E17.09608
G1 X117.354 Y107.389 E17.12374
G1 X117.163 Y106.908 E17.14956
G1 X116.934 Y106.421 E17.17641
G1 X116.672 Y105.954 E17.20312
G1 X116.379 Y105.504 E17.22991
G1 X116.048 Y105.067 E17.25726
G1 X115.694 Y104.662 E17.2841
G1 X115.325 Y104.292 E17.31017
G1 X114.919 Y103.939 E17.33701
G1 X114.492 Y103.616 E17.36372
G1 X114.033 Y103.317 E17.39105
G1 X113.575 Y103.06 E17.41725
G1 X112.892 Y102.752 E17.45463
G1 X112.377 Y102.565 E17.48197
G1 X111.847 Y102.416 E17.50944
G1 X111.281 Y102.299 E17.53827
G1 X110.701 Y102.233 E17.56739
G1 X110.7 Y109.09 E17.90949
G1 X110.878 Y109.251 E17.92146
G1 X111.059 Y109.549 E17.93886
G1 X111.147 Y110.003 E17.96193
G1 X111.052 Y110.449 E17.98468
G1 X110.792 Y110.824 E18.00745
G1 X110.428 Y111.058 E18.02904
G1 X110.08 Y111.137 E18.04684
G1 X109.624 Y111.077 E18.06979
G1 X109.244 Y110.855 E18.09174
G1 X108.968 Y110.498 E18.11425
G0 F3600 X108.911 Y110.307
G0 X108.398 Y110.425
G0 X109.237 Y111.401
G0 X110.458 Y111.526
G0 X111.252 Y111.077
G0 X111.167 Y111.009
;TYPE:WALL-INNER
G1 F600 X110.874 Y111.251 E18.13321
G1 X110.53 Y111.445 E18.15292
G1 X110.059 Y111.536 E18.17685
G1 X109.544 Y111.475 E18.20272
G1 X109.094 Y111.246 E18.22791
G1 X108.934 Y111.108 E18.23845
G1 X108.616 Y110.692 E18.26458
G1 X108.466 Y110.208 E18.28986
G1 X108.478 Y109.704 E18.31501
G1 X108.676 Y109.198 E18.34212
G1 X108.897 Y108.927 E18.35956
G1 X108.899 Y102.682 E18.67113
G1 X108.299 Y102.793 E18.70157
G1 X108.282 Y102.797 E18.70244
G1 X107.792 Y102.931 E18.72779
G1 X107.302 Y103.103 E18.75369
G1 X106.806 Y103.321 E18.78072
G1 X106.333 Y103.57 E18.80739
G1 X105.74 Y103.943 E18.84234
G1 X105.339 Y104.246 E18.86742
G1 X104.953 Y104.581 E18.89292
G1 X104.594 Y104.939 E18.91821
G1 X104.259 Y105.323 E18.94363
G1 X103.952 Y105.728 E18.96899
G1 X103.666 Y106.166 E18.99509
G1 X103.42 Y106.609 E19.02037
G1 X103.206 Y107.064 E19.04545
G1 X102.985 Y107.656 E19.07698
G1 X102.803 Y108.281 E19.10946
G1 X102.691 Y108.863 E19.13902
G1 X102.628 Y109.388 E19.1654
G1 X102.605 Y110.102 E19.20104
G1 X102.633 Y110.645 E19.22817
G1 X102.703 Y111.197 E19.25593
G1 X102.804 Y111.7 E19.28153
G1 X102.964 Y112.281 E19.31159
G1 X103.138 Y112.759 E19.33697
G1 X103.346 Y113.226 E19.36248
G1 X103.583 Y113.676 E19.38785
G1 X103.852 Y114.108 E19.41324
G1 X104.148 Y114.519 E19.43851
G1 X104.475 Y114.912 E19.46401
G1 X104.825 Y115.279 E19.48932
G1 X105.211 Y115.631 E19.51538
G1 X105.611 Y115.949 E19.54087
G1 X106.031 Y116.238 E19.56631
G1 X106.542 Y116.531 E19.59569
