;FLAVOR:Marlin
;TIME:3342
;Filament used: 1.85329m
;Layer height: 0.18
;MINX:78.653
;MINY:94.191
;MINZ:0.216
;MAXX:125.643
;MAXY:125.809
;MAXZ:10.716
;Generated with Cura_SteamEngine 5.0.0
M140 S100
M105
M190 S100
M104 S250
M105
M109 S250
M82 ;absolute extrusion mode
G28 ;Home
G1 Z15.0 F6000 ;Move the platform down 15mm
;Prime the extruder
G92 E0
G1 F200 E3
G92 E0
G92 E0
G92 E0
G1 F2700 E-5
;LAYER_COUNT:54
;LAYER:-6
M107
G0 F9000 X79.834 Y99.322 Z0.216
;TYPE:SUPPORT-INTERFACE
G1 F2700 E0
G1 F900 X79.483 Y99.769 E0.04083
G1 X79.175 Y100.282 E0.08382
G1 X78.942 Y100.821 E0.126
G1 X78.79 Y101.337 E0.16465
G1 X78.692 Y101.952 E0.20939
G1 X78.657 Y102.541 E0.25178
G1 X78.653 Y118.496 E1.39802
G1 X78.691 Y119.019 E1.43569
G1 X78.765 Y119.521 E1.47214
G1 X78.935 Y120.149 E1.51888
G1 X79.145 Y120.647 E1.55771
G1 X79.439 Y121.156 E1.59994
G1 X79.798 Y121.627 E1.64249
G1 X80.201 Y122.035 E1.68369
G1 X80.664 Y122.397 E1.72591
G1 X81.156 Y122.692 E1.76712
G1 X81.683 Y122.921 E1.8084
G1 X82.237 Y123.084 E1.84989
G1 X82.807 Y123.175 E1.89136
G1 X83.43 Y123.213 E1.9362
G1 X92.274 Y123.216 E2.57157
G1 X92.923 Y123.258 E2.61829
G1 X93.6 Y123.387 E2.6678
G1 X94.246 Y123.599 E2.71665
G1 X94.862 Y123.89 E2.76559
G1 X95.421 Y124.247 E2.81324
G1 X95.901 Y124.639 E2.85777
G1 X96.364 Y124.987 E2.89938
G1 X96.867 Y125.288 E2.94149
G1 X97.406 Y125.521 E2.98368
G1 X97.922 Y125.673 E3.02232
G1 X98.537 Y125.771 E3.06706
G1 X99.141 Y125.806 E3.11053
G1 X120.85 Y125.809 E4.67014
G1 X121.454 Y125.76 E4.71368
G1 X122.046 Y125.688 E4.75652
G1 X122.56 Y125.544 E4.79487
G1 X123.348 Y125.18 E4.85723
G1 X123.837 Y124.853 E4.89949
G1 X124.275 Y124.472 E4.9412
G1 X124.655 Y124.046 E4.98221
G1 X124.991 Y123.555 E5.02495
G1 X125.256 Y123.041 E5.0665
G1 X125.451 Y122.494 E5.10822
G1 X125.577 Y121.936 E5.14931
G1 X125.64 Y121.25 E5.1988
G1 X125.643 Y98.911 E6.80368
G1 X125.606 Y98.386 E6.84149
G1 X125.533 Y97.885 E6.87786
G1 X125.367 Y97.269 E6.9237
G1 X125.148 Y96.752 E6.96403
G1 X124.862 Y96.259 E7.00498
G1 X124.498 Y95.779 E7.04826
G1 X124.095 Y95.371 E7.08946
G1 X123.643 Y95.017 E7.1307
G1 X123.143 Y94.717 E7.1726
G1 X122.591 Y94.477 E7.21584
G1 X122.059 Y94.323 E7.25563
G1 X121.474 Y94.23 E7.29818
G1 X120.876 Y94.194 E7.34122
G1 X119.194 Y94.191 E7.46206
G1 X118.899 Y94.208 E7.48329
G1 X117.527 Y94.33 E7.58224
G1 X102.525 Y94.331 E8.66002
G1 X101.801 Y94.278 E8.71217
G1 X100.94 Y94.194 E8.77432
G1 X99.075 Y94.191 E8.9083
G1 X98.358 Y94.261 E8.96006
G1 X97.965 Y94.307 E8.98849
G1 X97.429 Y94.459 E9.02851
G1 X96.895 Y94.688 E9.07025
G1 X96.398 Y94.979 E9.11163
G1 X95.945 Y95.327 E9.15267
G1 X95.394 Y95.892 E9.20937
G1 X95.037 Y96.272 E9.24682
G1 X94.517 Y96.71 E9.29567
G1 X93.963 Y97.068 E9.34305
G1 X93.326 Y97.376 E9.39389
G1 X92.682 Y97.592 E9.44269
G1 X92.006 Y97.724 E9.49217
G1 X91.446 Y97.763 E9.5325
G1 X91.301 Y97.771 E9.54293
G1 X83.373 Y97.771 E10.11249
G1 X82.856 Y97.809 E10.14974
G1 X82.361 Y97.881 E10.18567
G1 X81.72 Y98.053 E10.23335
G1 X81.229 Y98.26 E10.27163
G1 X80.714 Y98.558 E10.31438
G1 X80.249 Y98.913 E10.35641
G1 X79.834 Y99.322 E10.39827
G0 F9000 X79.738 Y100.102
G1 F900 X105.041 Y125.406 E12.9691
G0 F9000 X107.304 Y125.406
G1 F900 X80.848 Y98.95 E15.65702
G0 F9000 X82.434 Y98.273
G1 F900 X109.566 Y125.406 E18.41368
G0 F9000 X111.83 Y125.406
G1 F900 X84.597 Y98.173 E21.18054
G0 F9000 X86.858 Y98.172
G1 F900 X114.093 Y125.406 E23.94756
G0 F9000 X116.356 Y125.407
G1 F900 X89.12 Y98.171 E26.71473
G0 F9000 X91.38 Y98.168
G1 F900 X118.619 Y125.407 E29.48221
G0 F9000 X120.879 Y125.405
G1 F900 X93.285 Y97.811 E32.28576
G0 F9000 X94.762 Y97.025
G1 F900 X122.75 Y125.013 E35.12933
G0 F9000 X124.084 Y124.084
G1 F900 X95.923 Y95.923 E37.99048
G0 F9000 X97.239 Y94.976
G1 F900 X124.954 Y122.692 E40.80637
G0 F9000 X125.239 Y120.714
G1 F900 X99.12 Y94.595 E43.46005
G0 F9000 X101.429 Y94.641
G1 F900 X125.239 Y118.451 E45.87914
G0 F9000 X125.239 Y116.188
G1 F900 X103.782 Y94.731 E48.05917
G0 F9000 X106.044 Y94.73
G1 F900 X125.239 Y113.926 E50.00943
G0 F9000 X125.239 Y111.663
G1 F900 X108.306 Y94.73 E51.72982
G0 F9000 X110.568 Y94.729
G1 F900 X125.239 Y109.4 E53.22039
G0 F9000 X125.239 Y107.137
G1 F900 X112.83 Y94.728 E54.48114
G0 F9000 X115.092 Y94.728
G1 F900 X125.239 Y104.875 E55.51207
G0 F9000 X125.239 Y102.612
G1 F900 X117.355 Y94.728 E56.31309
G0 F9000 X119.485 Y94.595
G1 F900 X125.239 Y100.349 E56.89769
G0 F9000 X125.145 Y97.992
G1 F900 X121.834 Y94.681 E57.23409
G0 F9000 X102.777 Y125.405
G1 F900 X79.111 Y101.739 E59.63855
G0 F9000 X79.055 Y103.946
G1 F900 X100.515 Y125.405 E61.81883
G0 F9000 X98.164 Y125.316
G1 F900 X79.055 Y106.208 E63.76025
G0 F9000 X79.055 Y108.47
G1 F900 X93.553 Y122.969 E65.23329
G0 F9000 X91.136 Y122.814
G1 F900 X79.055 Y110.733 E66.46072
G0 F9000 X79.055 Y112.996
G1 F900 X88.872 Y122.813 E67.45812
G0 F9000 X86.609 Y122.813
G1 F900 X79.054 Y115.258 E68.22571
G0 F9000 X79.054 Y117.521
G1 F900 X84.345 Y122.812 E68.76328
G0 F9000 X81.812 Y122.542
G1 F900 X79.326 Y120.055 E69.0159
G0 F600 X79.326 Y120.055 Z0.486
G0 F9000 X82.655 Y98.227
;TIME_ELAPSED:69.142196
;LAYER:-5
;TYPE:SUPPORT
G1 F900 X82.136 Y98.33 E69.06342
G1 X81.611 Y98.514 E69.11338
G1 X81.144 Y98.746 E69.16021
G1 X80.702 Y99.043 E69.20803
G1 X80.312 Y99.383 E69.25449
G1 X79.958 Y99.776 E69.30199
G1 X79.661 Y100.206 E69.34892
G1 X79.41 Y100.693 E69.39812
G1 X79.235 Y101.171 E69.44383
G1 X79.113 Y101.712 E69.49364
G1 X79.094 Y101.925 E69.51284
G1 X82.805 Y98.213 E69.9842
G1 X83.4 Y98.17 E70.03777
G1 X84.263 Y98.17 E70.11527
G1 X79.056 Y103.376 E70.77649
G1 X79.056 Y104.791 E70.90356
G1 X85.677 Y98.17 E71.74443
G1 X87.091 Y98.17 E71.87141
G1 X79.055 Y106.206 E72.89198
G1 X79.055 Y107.62 E73.01896
G1 X88.505 Y98.17 E74.21911
G1 X89.919 Y98.17 E74.34609
G1 X79.055 Y109.035 E75.72588
G1 X79.054 Y110.45 E75.85295
G1 X91.334 Y98.169 E77.41257
G1 X92.034 Y98.126 E77.47555
G1 X92.754 Y97.987 E77.5414
G1 X93.018 Y97.9 E77.56636
G1 X79.054 Y111.864 E79.33979
G1 X79.053 Y113.279 E79.46686
G1 X97.447 Y94.885 E81.80289
G1 X98.046 Y94.699 E81.85921
G1 X98.88 Y94.599 E81.93465
G1 X99.157 Y94.589 E81.95954
G1 X79.053 Y114.693 E84.51274
G1 X79.053 Y116.108 E84.63981
G1 X100.568 Y94.592 E87.37227
G1 X101.278 Y94.615 E87.43607
G1 X101.884 Y94.691 E87.49091
G1 X79.053 Y117.522 E90.39044
G1 X79.052 Y118.469 E90.47549
G1 X79.082 Y118.907 E90.51491
G1 X103.26 Y94.729 E93.58551
G1 X104.674 Y94.729 E93.71249
G1 X79.33 Y120.073 E96.93117
G1 X79.623 Y120.713 E96.99438
G1 X79.816 Y121.002 E97.02559
G1 X106.088 Y94.729 E100.36219
G1 X107.502 Y94.729 E100.48917
G1 X80.482 Y121.75 E103.92077
G1 X81.124 Y122.228 E103.99264
G1 X81.318 Y122.328 E104.01224
G1 X108.917 Y94.729 E107.51731
G1 X110.33 Y94.73 E107.6442
G1 X82.358 Y122.702 E111.19664
G1 X83.214 Y122.812 E111.27414
G1 X83.662 Y122.813 E111.31437
G1 X111.744 Y94.73 E114.88084
G1 X113.159 Y94.73 E115.00791
G1 X85.076 Y122.813 E118.57444
G1 X86.489 Y122.813 E118.70134
G1 X114.573 Y94.73 E122.26793
G1 X115.987 Y94.73 E122.39491
G1 X87.903 Y122.814 E125.96157
G1 X89.317 Y122.814 E126.08855
G1 X117.401 Y94.73 E129.65521
G1 X117.526 Y94.731 E129.66644
G1 X118.941 Y94.605 E129.79401
G1 X90.73 Y122.815 E133.37674
G1 X92.145 Y122.815 E133.50381
G1 X120.367 Y94.592 E137.08806
G1 X121.083 Y94.593 E137.15236
G1 X121.72 Y94.654 E137.20982
G1 X93.427 Y122.946 E140.80296
G1 X93.698 Y122.998 E140.82774
G1 X94.394 Y123.226 E140.89351
G1 X94.508 Y123.28 E140.90484
G1 X122.8 Y94.988 E144.49792
G1 X123.185 Y95.187 E144.53684
G1 X123.674 Y95.528 E144.59037
G1 X95.439 Y123.763 E148.17621
G1 X96.227 Y124.389 E148.26659
G1 X124.373 Y96.244 E151.84106
G1 X124.664 Y96.677 E151.88791
G1 X124.893 Y97.138 E151.93413
G1 X97.08 Y124.95 E155.46631
G1 X97.765 Y125.227 E155.53267
G1 X98.133 Y125.312 E155.56658
G1 X125.191 Y98.254 E159.00294
G1 X125.242 Y98.936 E159.06436
G1 X125.242 Y99.617 E159.12551
G1 X99.454 Y125.405 E162.40058
G1 X100.868 Y125.405 E162.52756
G1 X125.242 Y101.032 E165.62299
G1 X125.242 Y102.446 E165.74997
G1 X102.282 Y125.406 E168.66588
G1 X103.696 Y125.406 E168.79286
G1 X125.241 Y103.861 E171.52907
G1 X125.241 Y105.275 E171.65605
G1 X105.11 Y125.406 E174.21269
G1 X106.524 Y125.406 E174.33967
G1 X125.241 Y106.689 E176.71672
G1 X125.24 Y108.104 E176.84379
G1 X107.938 Y125.406 E179.04114
G1 X109.351 Y125.407 E179.16803
G1 X125.24 Y109.518 E181.18593
G1 X125.24 Y110.933 E181.313
G1 X110.766 Y125.407 E183.15119
G1 X112.179 Y125.408 E183.27808
G1 X125.239 Y112.347 E184.93676
G1 X125.239 Y113.762 E185.06383
G1 X113.593 Y125.408 E186.54287
G1 X115.007 Y125.408 E186.66985
G1 X125.239 Y115.176 E187.96931
G1 X125.239 Y116.59 E188.0963
G1 X116.421 Y125.408 E189.21618
G1 X117.835 Y125.409 E189.34316
G1 X125.239 Y118.005 E190.28347
G1 X125.239 Y119.419 E190.41045
G1 X119.249 Y125.409 E191.17117
G1 X120.663 Y125.409 E191.29815
G1 X125.239 Y120.833 E191.87931
G1 X125.183 Y121.868 E191.97239
G1 X125.063 Y122.398 E192.02119
G1 X124.884 Y122.886 E192.06787
G1 X124.649 Y123.348 E192.11441
G1 X124.336 Y123.803 E192.16401
G1 X123.98 Y124.201 E192.21196
G1 X123.594 Y124.536 E192.25786
G1 X123.153 Y124.831 E192.30551
G1 X122.686 Y125.065 E192.35241
G1 X122.279 Y125.207 E192.39112
G1 X125.048 Y122.439 E192.74272
G0 F600 X125.048 Y122.439 Z0.666
G0 F9000 X124.536 Y96.127
;TIME_ELAPSED:161.275942
;LAYER:-4
;TYPE:SUPPORT-INTERFACE
G1 F1200 X124.169 Y95.705 E192.75946
G1 X123.755 Y95.334 E192.7761
G1 X123.322 Y95.038 E192.7918
G1 X124.785 Y96.5 E192.85372
G1 X124.847 Y96.594 E192.85709
G1 X125.094 Y97.09 E192.87367
G1 X125.244 Y97.525 E192.88745
G1 X122.301 Y94.583 E193.01201
G1 X122.281 Y94.575 E193.01266
G1 X121.592 Y94.439 E193.03368
G1 X125.391 Y98.239 E193.19453
G1 X125.44 Y98.853 E193.21296
G1 X120.981 Y94.393 E193.40175
G1 X120.414 Y94.393 E193.41872
G1 X125.443 Y99.422 E193.63162
G1 X125.443 Y99.987 E193.64853
G1 X119.847 Y94.391 E193.88542
G1 X119.281 Y94.39 E193.90237
G1 X125.443 Y100.553 E194.16325
G1 X125.443 Y101.119 E194.18019
G1 X118.746 Y94.422 E194.46369
G1 X118.226 Y94.468 E194.47932
G1 X125.443 Y101.684 E194.78482
G1 X125.443 Y102.25 E194.80176
G1 X117.707 Y94.514 E195.12925
G1 X117.158 Y94.53 E195.14569
G1 X125.442 Y102.815 E195.4964
G1 X125.442 Y103.381 E195.51334
G1 X116.592 Y94.53 E195.88802
G1 X116.027 Y94.53 E195.90493
G1 X125.442 Y103.946 E196.30352
G1 X125.442 Y104.512 E196.32046
G1 X115.461 Y94.53 E196.74301
G1 X114.895 Y94.53 E196.75995
G1 X125.442 Y105.078 E197.20646
G1 X125.442 Y105.643 E197.22337
G1 X114.329 Y94.53 E197.69382
G1 X113.764 Y94.53 E197.71074
G1 X125.442 Y106.209 E198.20512
G1 X125.442 Y106.774 E198.22204
G1 X113.198 Y94.53 E198.74037
G1 X112.632 Y94.53 E198.75731
G1 X125.442 Y107.34 E199.2996
G1 X125.442 Y107.905 E199.31651
G1 X112.067 Y94.53 E199.88272
G1 X111.501 Y94.53 E199.89966
G1 X125.442 Y108.471 E200.48983
G1 X125.442 Y109.037 E200.50677
G1 X110.935 Y94.53 E201.1209
G1 X110.37 Y94.53 E201.13781
G1 X125.442 Y109.602 E201.77586
G1 X125.441 Y110.167 E201.79277
G1 X109.804 Y94.53 E202.45474
G1 X109.238 Y94.53 E202.47168
G1 X125.441 Y110.733 E203.1576
G1 X125.441 Y111.299 E203.17455
G1 X108.673 Y94.53 E203.88441
G1 X108.107 Y94.53 E203.90135
G1 X125.441 Y111.864 E204.63516
G1 X125.441 Y112.43 E204.6521
G1 X107.541 Y94.53 E205.40987
G1 X106.976 Y94.53 E205.42678
G1 X125.441 Y112.996 E206.20848
G1 X125.441 Y113.562 E206.22543
G1 X106.41 Y94.53 E207.03109
G1 X105.844 Y94.53 E207.04803
G1 X125.44 Y114.127 E207.87762
G1 X125.44 Y114.692 E207.89453
G1 X105.279 Y94.53 E208.74803
G1 X104.713 Y94.53 E208.76497
G1 X125.44 Y115.258 E209.64244
G1 X125.44 Y115.824 E209.65938
G1 X104.147 Y94.53 E210.5608
G1 X103.581 Y94.53 E210.57775
G1 X125.44 Y116.389 E211.50311
G1 X125.44 Y116.955 E211.52005
G1 X103.016 Y94.53 E212.46935
G1 X102.444 Y94.525 E212.48647
G1 X125.44 Y117.521 E213.45997
G1 X125.44 Y118.086 E213.47688
G1 X101.838 Y94.485 E214.47601
G1 X101.199 Y94.411 E214.49527
G1 X125.44 Y118.651 E215.52145
G1 X125.44 Y119.217 E215.53839
G1 X100.616 Y94.393 E216.58927
G1 X100.049 Y94.392 E216.60624
G1 X125.44 Y119.783 E217.68112
G1 X125.44 Y120.348 E217.69804
G1 X99.482 Y94.391 E218.7969
G1 X98.922 Y94.397 E218.81367
G1 X125.44 Y120.914 E219.93624
G1 X125.421 Y121.461 E219.95262
G1 X98.414 Y94.454 E221.09592
G1 X97.921 Y94.527 E221.11083
G1 X125.365 Y121.97 E222.27261
G1 X125.261 Y122.432 E222.28678
G1 X97.481 Y94.653 E223.46278
G1 X97.085 Y94.823 E223.47568
G1 X125.111 Y122.849 E224.66211
G1 X124.931 Y123.234 E224.67483
G1 X96.718 Y95.021 E225.86918
G1 X96.375 Y95.244 E225.88143
G1 X124.723 Y123.592 E227.08149
G1 X124.495 Y123.925 E227.09357
G1 X96.057 Y95.491 E228.29736
G1 X95.778 Y95.778 E228.30934
G1 X124.226 Y124.226 E229.51364
G1 X123.936 Y124.501 E229.5256
G1 X95.5 Y96.066 E230.72937
G1 X95.226 Y96.358 E230.74135
G1 X123.624 Y124.755 E231.94351
G1 X123.284 Y124.981 E231.95573
G1 X94.928 Y96.625 E233.15613
G1 X94.62 Y96.883 E233.16816
G1 X122.912 Y125.174 E234.36583
G1 X122.511 Y125.339 E234.37881
G1 X94.276 Y97.104 E235.57409
G1 X93.921 Y97.315 E235.58645
G1 X122.074 Y125.469 E236.77828
G1 X121.596 Y125.556 E236.79282
G1 X93.537 Y97.497 E237.98065
G1 X93.129 Y97.654 E237.99374
G1 X121.076 Y125.601 E239.17683
G1 X120.517 Y125.609 E239.19356
G1 X92.703 Y97.794 E240.37104
G1 X92.228 Y97.885 E240.38552
G1 X119.952 Y125.609 E241.55916
G1 X119.386 Y125.609 E241.5761
G1 X91.723 Y97.945 E242.74719
G1 X91.182 Y97.97 E242.7634
G1 X118.82 Y125.609 E243.93343
G1 X118.255 Y125.609 E243.95034
G1 X90.616 Y97.97 E245.12039
G1 X90.05 Y97.97 E245.13733
G1 X117.689 Y125.609 E246.30738
G1 X117.123 Y125.608 E246.32432
G1 X89.485 Y97.97 E247.49433
G1 X88.919 Y97.97 E247.51127
G1 X116.557 Y125.608 E248.68128
G1 X115.991 Y125.608 E248.69822
G1 X88.353 Y97.97 E249.86823
G1 X87.788 Y97.97 E249.88514
G1 X115.425 Y125.608 E251.05513
G1 X114.86 Y125.608 E251.07204
G1 X87.222 Y97.97 E252.24204
G1 X86.656 Y97.97 E252.25899
G1 X114.294 Y125.608 E253.42899
G1 X113.728 Y125.608 E253.44594
G1 X86.09 Y97.97 E254.61594
G1 X85.525 Y97.97 E254.63286
G1 X113.162 Y125.607 E255.80282
G1 X112.596 Y125.607 E255.81976
G1 X84.959 Y97.97 E256.98973
G1 X84.393 Y97.97 E257.00667
G1 X112.031 Y125.607 E258.17665
G1 X111.465 Y125.607 E258.1936
G1 X83.828 Y97.97 E259.36356
G1 X83.268 Y97.976 E259.38032
G1 X110.899 Y125.607 E260.55003
G1 X110.334 Y125.607 E260.56695
G1 X82.744 Y98.018 E261.7349
G1 X82.263 Y98.102 E261.74952
G1 X109.767 Y125.606 E262.91385
G1 X109.202 Y125.606 E262.93076
G1 X81.822 Y98.227 E264.08982
G1 X81.417 Y98.388 E264.10287
G1 X108.636 Y125.606 E265.25512
G1 X108.07 Y125.606 E265.27206
G1 X81.041 Y98.577 E266.41629
G1 X80.702 Y98.804 E266.4285
G1 X107.504 Y125.606 E267.56311
G1 X106.939 Y125.606 E267.58003
G1 X80.387 Y99.055 E268.70404
G1 X80.093 Y99.327 E268.71603
G1 X106.373 Y125.606 E269.82852
G1 X105.807 Y125.606 E269.84547
G1 X79.826 Y99.625 E270.94533
G1 X79.592 Y99.957 E270.95748
G1 X105.241 Y125.606 E272.04329
G1 X104.675 Y125.606 E272.06023
G1 X79.381 Y100.311 E273.13103
G1 X79.197 Y100.693 E273.14372
G1 X104.11 Y125.606 E274.19837
G1 X103.544 Y125.606 E274.21531
G1 X79.046 Y101.108 E275.25239
G1 X78.939 Y101.567 E275.2665
G1 X102.978 Y125.606 E276.28415
G1 X102.412 Y125.605 E276.30109
G1 X78.879 Y102.072 E277.29732
G1 X78.856 Y102.615 E277.31359
G1 X101.846 Y125.605 E278.28683
G1 X101.281 Y125.605 E278.30374
G1 X78.856 Y103.181 E279.25305
G1 X78.856 Y103.746 E279.26996
G1 X100.715 Y125.605 E280.19532
G1 X100.149 Y125.605 E280.21226
G1 X78.856 Y104.312 E281.11367
G1 X78.856 Y104.878 E281.13061
G1 X99.583 Y125.605 E282.00805
G1 X99.018 Y125.605 E282.02496
G1 X78.855 Y105.443 E282.87851
G1 X78.855 Y106.008 E282.89542
G1 X98.406 Y125.559 E283.72308
G1 X98.263 Y125.546 E283.72737
G1 X97.695 Y125.413 E283.74484
G1 X78.855 Y106.574 E284.54237
G1 X78.855 Y107.14 E284.55932
G1 X96.676 Y124.96 E285.31372
G1 X96.237 Y124.659 E285.32965
G1 X95.557 Y124.096 E285.35608
G1 X94.779 Y123.629 E285.38324
G1 X78.855 Y107.705 E286.05735
G1 X78.855 Y108.27 E286.07427
G1 X93.838 Y123.254 E286.70857
G1 X93.649 Y123.192 E286.71452
G1 X93.106 Y123.087 E286.73107
G1 X78.855 Y108.836 E287.33437
G1 X78.855 Y109.402 E287.35131
G1 X92.481 Y123.028 E287.92814
