;FLAVOR:Marlin
;TIME:2578
;Filament used: 1.46361m
;Layer height: 0.18
;MINX:89.602
;MINY:87.043
;MINZ:0.216
;MAXX:130.45
;MAXY:130.774
;MAXZ:10.716
;Generated with Cura_SteamEngine 5.0.0
M140 S100
M105
M190 S100
M104 S250
M105
M109 S250
M82 ;absolute extrusion mode
G28 ;Home
G1 Z15.0 F6000 ;Move the platform down 15mm
;Prime the extruder
G92 E0
G1 F200 E3
G92 E0
G92 E0
G92 E0
G1 F2700 E-5
;LAYER_COUNT:54
;LAYER:-6
M107
G0 F9000 X95.183 Y96.191 Z0.216
;TYPE:SUPPORT-INTERFACE
G1 F2700 E0
G1 F900 X94.879 Y96.696 E0.04235
G1 X94.645 Y97.237 E0.08469
G1 X94.489 Y97.775 E0.12494
G1 X94.396 Y98.36 E0.16749
G1 X94.36 Y98.962 E0.21082
G1 X94.356 Y108.067 E0.86494
G1 X94.303 Y108.793 E0.91723
G1 X94.17 Y109.443 E0.9649
G1 X93.951 Y110.089 E1.0139
G1 X93.654 Y110.698 E1.06258
G1 X93.28 Y111.274 E1.11192
G1 X92.835 Y111.795 E1.16114
G1 X92.211 Y112.34 E1.22066
G1 X91.67 Y112.85 E1.27408
G1 X91.313 Y113.289 E1.31473
G1 X91.002 Y113.794 E1.35734
G1 X90.76 Y114.322 E1.39906
G1 X90.592 Y114.869 E1.44017
G1 X90.487 Y115.385 E1.478
G1 X89.641 Y121.238 E1.90286
G1 X89.602 Y121.966 E1.95524
G1 X89.653 Y122.63 E2.00308
G1 X89.77 Y123.177 E2.04327
G1 X89.969 Y123.747 E2.08664
G1 X90.226 Y124.26 E2.12786
G1 X90.542 Y124.734 E2.16879
G1 X90.92 Y125.169 E2.21019
G1 X91.364 Y125.565 E2.25293
G1 X91.831 Y125.885 E2.2936
G1 X92.35 Y126.153 E2.33557
G1 X92.905 Y126.353 E2.37795
G1 X93.45 Y126.475 E2.41807
G1 X94.044 Y126.533 E2.46095
G1 X94.615 Y126.516 E2.50199
G1 X95.19 Y126.424 E2.54382
G1 X95.721 Y126.274 E2.58347
G1 X97.025 Y125.871 E2.68152
G1 X97.716 Y125.778 E2.73161
G1 X98.793 Y125.803 E2.809
G1 X99.86 Y125.809 E2.88566
G1 X100.918 Y125.883 E2.96186
G1 X101.74 Y126.065 E3.02234
G1 X102.373 Y126.31 E3.0711
G1 X102.973 Y126.637 E3.12019
G1 X103.529 Y127.038 E3.16944
G1 X104.025 Y127.499 E3.21809
G1 X104.463 Y128.027 E3.26738
G1 X104.77 Y128.499 E3.30783
G1 X105.075 Y128.937 E3.34617
G1 X105.486 Y129.415 E3.39146
G1 X105.921 Y129.801 E3.43324
G1 X106.402 Y130.131 E3.47515
G1 X106.901 Y130.388 E3.51547
G1 X107.477 Y130.598 E3.55952
G1 X108.023 Y130.718 E3.59968
G1 X108.604 Y130.774 E3.64161
G1 X109.182 Y130.757 E3.68316
G1 X109.75 Y130.667 E3.72447
G1 X110.283 Y130.519 E3.76421
G1 X111.143 Y130.191 E3.83034
G1 X116.063 Y128.225 E4.21097
G1 X116.753 Y127.872 E4.26666
G1 X117.354 Y127.437 E4.31996
G1 X117.759 Y127.127 E4.3566
G1 X118.339 Y126.776 E4.4053
G1 X118.96 Y126.502 E4.45406
G1 X119.612 Y126.306 E4.50298
G1 X120.288 Y126.194 E4.5522
G1 X120.967 Y126.168 E4.60102
G1 X121.652 Y126.228 E4.65042
G1 X122.315 Y126.372 E4.69916
G1 X122.962 Y126.602 E4.74849
G1 X123.598 Y126.855 E4.79767
G1 X124.161 Y126.997 E4.83938
G1 X124.735 Y127.067 E4.88092
G1 X125.318 Y127.065 E4.92281
G1 X125.89 Y126.988 E4.96427
G1 X126.444 Y126.843 E5.00541
G1 X127.249 Y126.487 E5.06865
G1 X127.729 Y126.179 E5.10962
G1 X128.169 Y125.809 E5.15092
G1 X128.566 Y125.379 E5.19297
G1 X128.907 Y124.9 E5.23521
G1 X129.176 Y124.394 E5.27638
G1 X129.388 Y123.841 E5.31893
G1 X129.542 Y123.193 E5.36678
G1 X130.416 Y117.171 E5.80394
G1 X130.45 Y116.657 E5.84095
G1 X130.436 Y116.13 E5.87882
G1 X130.35 Y115.53 E5.92237
G1 X130.187 Y114.954 E5.96537
G1 X129.973 Y114.448 E6.00484
G1 X129.669 Y113.926 E6.04824
G1 X129.321 Y113.472 E6.08934
G1 X128.915 Y113.062 E6.13079
G1 X128.455 Y112.703 E6.17271
G1 X127.644 Y112.131 E6.24401
G1 X127.143 Y111.67 E6.29292
G1 X126.705 Y111.15 E6.34176
G1 X126.332 Y110.573 E6.39112
G1 X126.038 Y109.958 E6.4401
G1 X125.822 Y109.312 E6.48903
G1 X125.691 Y108.641 E6.53815
G1 X125.644 Y107.963 E6.58697
G1 X125.644 Y98.911 E7.23729
G1 X125.606 Y98.386 E7.2751
G1 X125.533 Y97.885 E7.31147
G1 X125.367 Y97.269 E7.35731
G1 X125.148 Y96.752 E7.39764
G1 X124.862 Y96.259 E7.43859
G1 X124.498 Y95.779 E7.48187
G1 X124.095 Y95.371 E7.52307
G1 X123.643 Y95.017 E7.56431
G1 X123.143 Y94.717 E7.60621
G1 X122.591 Y94.477 E7.64945
G1 X122.059 Y94.323 E7.68924
G1 X121.474 Y94.23 E7.73179
G1 X120.888 Y94.193 E7.77398
G1 X119.677 Y94.109 E7.86119
G1 X119 Y93.948 E7.91118
G1 X118.379 Y93.709 E7.95898
G1 X117.767 Y93.384 E8.00876
G1 X117.207 Y92.989 E8.058
G1 X116.704 Y92.527 E8.10706
G1 X116.266 Y92.007 E8.15591
G1 X115.893 Y91.43 E8.20527
G1 X115.598 Y90.816 E8.25421
G1 X115.052 Y89.529 E8.35464
G1 X114.738 Y89.009 E8.39828
G1 X114.377 Y88.554 E8.44001
G1 X113.958 Y88.146 E8.48203
G1 X113.494 Y87.795 E8.52382
G1 X112.988 Y87.504 E8.56576
G1 X112.46 Y87.287 E8.60677
G1 X111.896 Y87.132 E8.64879
G1 X111.328 Y87.051 E8.69001
G1 X110.75 Y87.043 E8.73154
G1 X110.16 Y87.11 E8.7742
G1 X109.607 Y87.244 E8.81508
G1 X109.054 Y87.457 E8.85765
G1 X108.544 Y87.73 E8.89921
G1 X108.076 Y88.063 E8.94047
G1 X107.639 Y88.468 E8.98328
G1 X107.292 Y88.862 E9.021
G1 X104.701 Y92.151 E9.3218
G1 X104.2 Y92.702 E9.3753
G1 X103.674 Y93.143 E9.42461
G1 X103.114 Y93.502 E9.4724
G1 X102.5 Y93.795 E9.52128
G1 X101.856 Y94.011 E9.57007
G1 X101.183 Y94.143 E9.61935
G1 X100.503 Y94.19 E9.66831
G1 X99.077 Y94.19 E9.77076
G1 X98.554 Y94.228 E9.80843
G1 X98.058 Y94.3 E9.84444
G1 X97.433 Y94.469 E9.89095
G1 X96.926 Y94.683 E9.93049
G1 X96.42 Y94.975 E9.97246
G1 X95.945 Y95.336 E10.01532
G1 X95.536 Y95.739 E10.05657
G1 X95.183 Y96.191 E10.09777
G0 F9000 X95.914 Y95.914
G1 F900 X126.416 Y126.416 E13.19677
G0 F9000 X127.831 Y125.568
G1 F900 X97.237 Y94.975 E16.30506
G0 F9000 X99.119 Y94.593
G1 F900 X128.791 Y124.265 E19.31973
G0 F9000 X129.244 Y122.456
G1 F900 X101.309 Y94.521 E22.15792
G0 F9000 X103.034 Y93.983
G1 F900 X129.531 Y120.48 E24.85001
G0 F9000 X129.814 Y118.501
G1 F900 X104.383 Y93.07 E27.4338
G0 F9000 X105.435 Y91.859
G1 F900 X130.054 Y116.478 E29.93508
G0 F9000 X125.527 Y109.687
G1 F900 X106.434 Y90.595 E31.87487
G0 F9000 X107.43 Y89.328
G1 F900 X125.244 Y107.142 E33.68477
G0 F9000 X125.242 Y104.878
G1 F900 X108.569 Y88.205 E35.37875
G0 F9000 X110.16 Y87.532
G1 F900 X125.242 Y102.614 E36.91107
G0 F9000 X125.24 Y100.35
G1 F900 X119.329 Y94.439 E37.51163
G0 F9000 X121.834 Y94.681
G1 F900 X125.145 Y97.992 E37.84803
G0 F9000 X117.48 Y92.616
G0 X114.763 Y89.873
G1 F900 X112.714 Y87.824 E38.0562
G0 F9000 X95.043 Y97.306
G1 F900 X124.353 Y126.616 E41.03409
G0 F9000 X121.265 Y125.791
G1 F900 X94.759 Y99.284 E43.72715
G0 F9000 X94.757 Y101.546
G1 F900 X119.221 Y126.009 E46.21263
G0 F9000 X117.665 Y126.716
G1 F900 X94.757 Y103.808 E48.54008
G0 F9000 X94.755 Y106.069
G1 F900 X116.33 Y127.644 E50.7321
G0 F9000 X114.743 Y128.32
G1 F900 X94.734 Y108.311 E52.76501
G0 F9000 X94.332 Y110.172
G1 F900 X113.127 Y128.966 E54.67452
G0 F9000 X111.51 Y129.612
G1 F900 X93.514 Y111.616 E56.50291
G0 F9000 X92.376 Y112.741
G1 F900 X109.856 Y130.22 E58.27883
G0 F9000 X107.582 Y130.209
G1 F900 X91.366 Y113.994 E59.92632
G0 F9000 X90.84 Y115.73
G1 F900 X100.562 Y125.452 E60.91407
G0 F9000 X98.231 Y125.384
G1 F900 X90.554 Y117.707 E61.69405
G0 F9000 X90.269 Y119.684
G1 F900 X96.261 Y125.677 E62.30289
G0 F9000 X94.45 Y126.128
G1 F900 X90.002 Y121.681 E62.75475
G0 F600 X90.002 Y121.681 Z0.486
G0 F9000 X93.72 Y109.34
G0 X97.312 Y94.934
;TIME_ELAPSED:63.270958
;LAYER:-5
;TYPE:SUPPORT
G1 F900 X96.846 Y95.167 E62.80154
G1 X96.404 Y95.462 E62.84926
G1 X96.013 Y95.803 E62.89585
G1 X95.662 Y96.195 E62.94311
G1 X95.365 Y96.625 E62.99004
G1 X95.053 Y97.279 E63.05511
G1 X97.446 Y94.886 E63.35902
G1 X97.838 Y94.749 E63.39631
G1 X98.357 Y94.646 E63.44383
G1 X99.157 Y94.589 E63.51585
G1 X94.76 Y98.987 E64.07433
G1 X94.759 Y100.402 E64.2014
G1 X100.576 Y94.584 E64.94022
G1 X101.206 Y94.545 E64.99691
G1 X101.928 Y94.407 E65.06292
G1 X102.286 Y94.289 E65.09677
G1 X94.759 Y101.816 E66.05269
G1 X94.758 Y103.231 E66.17976
G1 X110.527 Y87.462 E68.18242
G1 X111.01 Y87.436 E68.22586
G1 X111.553 Y87.476 E68.27476
G1 X111.862 Y87.541 E68.30311
G1 X94.757 Y104.646 E70.47544
G1 X94.757 Y106.061 E70.60251
G1 X112.901 Y87.916 E72.90686
G1 X113.046 Y87.988 E72.9214
G1 X113.739 Y88.492 E72.99835
G1 X94.756 Y107.475 E75.40918
G1 X94.755 Y108.065 E75.46217
G1 X94.675 Y108.971 E75.54384
G1 X114.404 Y89.242 E78.04942
G1 X114.563 Y89.469 E78.07431
G1 X114.899 Y90.161 E78.14339
G1 X93.702 Y111.358 E80.8354
G1 X93.584 Y111.537 E80.85466
G1 X93.104 Y112.091 E80.92048
G1 X92.58 Y112.565 E80.98394
G1 X92.15 Y112.927 E81.03441
G1 X91.786 Y113.325 E81.08285
G1 X91.495 Y113.735 E81.128
G1 X91.24 Y114.204 E81.17594
G1 X91.047 Y114.71 E81.22457
G1 X90.856 Y115.619 E81.30799
G1 X115.317 Y91.158 E84.41453
G1 X115.53 Y91.604 E84.45891
G1 X115.824 Y92.065 E84.50801
G1 X90.617 Y117.271 E87.70923
G1 X90.38 Y118.923 E87.8591
G1 X116.459 Y92.843 E91.17119
G1 X116.932 Y93.282 E91.22914
G1 X117.225 Y93.492 E91.26152
G1 X90.141 Y120.575 E94.70111
G1 X90.026 Y121.371 E94.77334
G1 X90.004 Y122.127 E94.84126
G1 X118.108 Y94.023 E98.41046
G1 X118.174 Y94.059 E98.41721
G1 X118.859 Y94.323 E98.48313
G1 X119.151 Y94.395 E98.51014
G1 X90.223 Y123.322 E102.18393
G1 X90.437 Y123.831 E102.23351
G1 X90.691 Y124.269 E102.27898
G1 X120.386 Y94.574 E106.05024
G1 X120.565 Y94.59 E106.06638
G1 X121.083 Y94.593 E106.11289
G1 X121.72 Y94.654 E106.17036
G1 X91.345 Y125.029 E110.02798
G1 X91.406 Y125.092 E110.03585
G1 X91.808 Y125.406 E110.08166
G1 X92.166 Y125.622 E110.11921
G1 X122.8 Y94.988 E114.00972
G1 X123.185 Y95.187 E114.04864
G1 X123.674 Y95.528 E114.10217
G1 X93.183 Y126.019 E117.97452
G1 X93.261 Y126.041 E117.9818
G1 X93.804 Y126.127 E118.03117
G1 X94.488 Y126.128 E118.09259
G1 X124.373 Y96.244 E121.88792
G1 X124.664 Y96.677 E121.93477
G1 X124.893 Y97.138 E121.98099
G1 X96.392 Y125.639 E125.60061
G1 X96.974 Y125.468 E125.65509
G1 X97.716 Y125.374 E125.72225
G1 X98.062 Y125.383 E125.75333
G1 X125.191 Y98.254 E129.19871
G1 X125.242 Y98.936 E129.26013
G1 X125.242 Y99.617 E129.32128
G1 X99.452 Y125.407 E132.5966
G1 X100.139 Y125.408 E132.6583
G1 X100.802 Y125.471 E132.7181
G1 X125.242 Y101.031 E135.82198
G1 X125.242 Y102.445 E135.94896
G1 X101.966 Y125.721 E138.905
G1 X102.567 Y125.956 E138.96295
G1 X102.939 Y126.162 E139.00114
G1 X125.242 Y103.859 E141.83362
G1 X125.242 Y105.274 E141.96069
G1 X103.787 Y126.729 E144.68547
G1 X103.803 Y126.741 E144.68726
G1 X104.495 Y127.435 E144.77527
G1 X125.242 Y106.688 E147.41014
G1 X125.242 Y107.961 E147.52445
G1 X125.25 Y108.094 E147.53642
G1 X105.093 Y128.252 E150.09642
G1 X105.262 Y128.523 E150.1251
G1 X105.698 Y129.061 E150.18728
G1 X125.417 Y109.342 E152.69159
G1 X125.426 Y109.388 E152.6958
G1 X125.655 Y110.083 E152.76151
G1 X125.794 Y110.379 E152.79088
G1 X106.466 Y129.706 E155.24547
G1 X106.826 Y129.92 E155.28308
G1 X107.42 Y130.167 E155.34085
G1 X126.308 Y111.279 E157.73962
G1 X126.364 Y111.365 E157.74883
G1 X126.958 Y112.043 E157.82978
G1 X108.625 Y130.376 E160.15807
G1 X108.89 Y130.384 E160.18188
G1 X109.403 Y130.335 E160.22815
G1 X110.339 Y130.077 E160.31534
G1 X127.73 Y112.685 E162.52406
G1 X127.895 Y112.806 E162.54244
G1 X128.555 Y113.274 E162.61509
G1 X112.685 Y129.144 E164.63058
G1 X115.042 Y128.202 E164.85852
G1 X129.24 Y114.003 E166.66173
G1 X129.485 Y114.366 E166.70106
G1 X129.749 Y114.909 E166.75528
G1 X118.306 Y126.352 E168.20853
G1 X118.844 Y126.116 E168.26129
G1 X119.549 Y125.907 E168.32733
G1 X120.281 Y125.791 E168.39388
G1 X130.024 Y116.048 E169.63124
G1 X130.055 Y116.699 E169.68977
G1 X129.958 Y117.528 E169.76472
G1 X121.659 Y125.827 E170.81869
G1 X121.736 Y125.834 E170.82563
G1 X122.451 Y125.993 E170.89141
G1 X122.78 Y126.12 E170.92308
G1 X129.72 Y119.181 E171.8044
G1 X129.481 Y120.833 E171.95429
G1 X123.816 Y126.499 E172.67381
G1 X123.938 Y126.539 E172.68534
G1 X124.482 Y126.643 E172.73508
G1 X125.057 Y126.672 E172.78678
G1 X129.243 Y122.486 E173.3184
G1 X129.17 Y122.994 E173.36449
G1 X129.005 Y123.726 E173.43187
G1 X128.822 Y124.207 E173.47809
G1 X128.563 Y124.694 E173.52762
G1 X128.252 Y125.128 E173.57557
G1 X127.891 Y125.519 E173.62336
G1 X127.486 Y125.861 E173.67096
G1 X126.956 Y126.187 E173.72684
G1 X128.691 Y124.452 E173.94719
G0 F600 X128.691 Y124.452 Z0.666
G0 F9000 X127.667 Y112.393
;TIME_ELAPSED:146.001889
;LAYER:-4
;TYPE:SUPPORT-INTERFACE
G1 F1200 X129.78 Y114.506 E174.03664
G1 X129.345 Y113.8 E174.06146
G1 X128.991 Y113.396 E174.07754
G1 X128.567 Y113.019 E174.09452
G1 X128.006 Y112.639 E174.11481
G1 X127.497 Y112.27 E174.13362
G1 X126.981 Y111.79 E174.15472
G1 X126.547 Y111.273 E174.17493
G0 F9000 X124.536 Y96.127
G1 F1200 X124.169 Y95.705 E174.19167
G1 X123.755 Y95.334 E174.20831
G1 X123.322 Y95.038 E174.22401
G1 X124.785 Y96.5 E174.28592
G1 X125.094 Y97.09 E174.30586
G1 X125.244 Y97.525 E174.31963
G1 X122.301 Y94.583 E174.4442
G1 X121.735 Y94.452 E174.46159
G1 X121.592 Y94.439 E174.46589
G1 X125.391 Y98.239 E174.62673
G1 X125.44 Y98.853 E174.64517
G1 X120.98 Y94.393 E174.83397
G1 X120.396 Y94.374 E174.85147
G1 X125.443 Y99.422 E175.06514
G1 X125.443 Y99.987 E175.08206
G1 X119.774 Y94.318 E175.32204
G1 X119.056 Y94.166 E175.34401
G1 X125.443 Y100.553 E175.61439
G1 X125.443 Y101.119 E175.63134
G1 X118.134 Y93.81 E175.94075
G1 X117.636 Y93.541 E175.95769
G1 X117.059 Y93.128 E175.97893
G1 X116.542 Y92.646 E176.00009
G1 X116.086 Y92.104 E176.02129
G1 X115.704 Y91.507 E176.04251
G1 X115.59 Y91.265 E176.05052
G0 F9000 X113.512 Y88.056
G1 F1200 X114.53 Y89.074 E176.09361
G1 X114.034 Y88.483 E176.11671
G1 X113.616 Y88.125 E176.13318
G1 X113.151 Y87.817 E176.14988
G1 X112.658 Y87.575 E176.16632
G1 X112.364 Y87.474 E176.17562
G1 X115.157 Y90.267 E176.29386
G1 X115.409 Y90.885 E176.31384
G1 X115.59 Y91.265 E176.32644
G1 X111.609 Y87.284 E176.49497
G1 X111.014 Y87.237 E176.51283
G1 X110.997 Y87.238 E176.51334
G1 X125.443 Y101.684 E177.12489
G1 X125.443 Y102.25 E177.14183
G1 X110.461 Y87.268 E177.77607
G1 X109.981 Y87.353 E177.79066
G1 X125.443 Y102.816 E178.44524
G1 X125.443 Y103.381 E178.46215
G1 X109.544 Y87.482 E179.13521
G1 X109.141 Y87.645 E179.14822
G1 X125.443 Y103.947 E179.83834
G1 X125.443 Y104.513 E179.85528
G1 X108.767 Y87.837 E180.56123
G1 X108.419 Y88.054 E180.57351
G1 X125.443 Y105.078 E181.29419
G1 X125.443 Y105.644 E181.31113
G1 X108.106 Y88.307 E182.04506
G1 X107.816 Y88.583 E182.05704
G1 X125.443 Y106.21 E182.80325
G1 X125.443 Y106.775 E182.82017
G1 X107.541 Y88.874 E183.57799
G1 X107.292 Y89.19 E183.59004
G1 X125.443 Y107.341 E184.35843
G1 X125.443 Y107.907 E184.37537
G1 X107.043 Y89.506 E185.15432
G1 X106.793 Y89.823 E185.16641
G1 X125.478 Y108.507 E185.95738
G1 X125.591 Y109.186 E185.97799
G1 X106.544 Y90.139 E186.78431
G1 X106.294 Y90.455 E186.79637
G1 X125.837 Y109.998 E187.62369
G1 X126.144 Y110.65 E187.64526
G1 X126.547 Y111.273 E187.66747
G1 X106.044 Y90.771 E188.53541
G1 X105.795 Y91.087 E188.54745
G1 X130.12 Y115.412 E189.57721
G1 X130.233 Y116.091 E189.59781
G1 X105.545 Y91.403 E190.64294
G1 X105.295 Y91.719 E190.655
G1 X130.245 Y116.669 E191.71121
G1 X130.208 Y117.197 E191.72706
G1 X105.047 Y92.036 E192.7922
G1 X104.791 Y92.346 E192.80424
G1 X130.137 Y117.692 E193.87722
G1 X130.065 Y118.186 E193.89216
G1 X104.522 Y92.643 E194.97348
G1 X104.241 Y92.927 E194.98544
G1 X129.994 Y118.68 E196.07564
G1 X129.923 Y119.175 E196.09061
G1 X103.933 Y93.185 E197.19085
G1 X103.605 Y93.423 E197.20299
G1 X129.852 Y119.67 E198.31411
G1 X129.78 Y120.164 E198.32905
G1 X103.261 Y93.644 E199.45171
G1 X102.884 Y93.833 E199.46433
G1 X129.71 Y120.659 E200.59996
G1 X129.638 Y121.153 E200.61491
G1 X102.495 Y94.009 E201.76398
G1 X102.069 Y94.149 E201.7774
G1 X129.567 Y121.647 E202.94148
G1 X129.496 Y122.142 E202.95645
G1 X101.616 Y94.262 E204.1367
G1 X101.137 Y94.349 E204.15127
G1 X129.425 Y122.637 E205.3488
G1 X129.346 Y123.124 E205.36356
G1 X100.605 Y94.383 E206.58026
G1 X100.047 Y94.39 E206.59697
G1 X129.242 Y123.585 E207.83289
G1 X129.107 Y124.016 E207.84641
G1 X99.481 Y94.39 E209.10057
G1 X98.922 Y94.397 E209.11731
G1 X128.94 Y124.415 E210.38807
G1 X128.742 Y124.783 E210.40057
G1 X98.402 Y94.442 E211.68499
G1 X97.924 Y94.53 E211.69953
G1 X128.509 Y125.115 E212.9943
G1 X128.252 Y125.424 E213.00633
G1 X97.488 Y94.659 E214.30869
G1 X97.086 Y94.823 E214.32169
G1 X127.973 Y125.71 E215.62923
G1 X127.666 Y125.969 E215.64126
G1 X96.713 Y95.016 E216.9516
G1 X96.375 Y95.243 E216.96378
G1 X127.329 Y126.198 E218.27419
G1 X126.968 Y126.402 E218.2866
G1 X96.063 Y95.497 E219.59491
G1 X95.772 Y95.772 E219.60689
