;FLAVOR:Marlin
;TIME:1848
;Filament used: 1.12336m
;Layer height: 0.18
;MINX:85.901
;MINY:89.371
;MINZ:0.216
;MAXX:131.645
;MAXY:122.688
;MAXZ:13.416
;Generated with Cura_SteamEngine 5.0.0
M140 S100
M105
M190 S100
M104 S250
M105
M109 S250
M82 ;absolute extrusion mode
G28 ;Home
G1 Z15.0 F6000 ;Move the platform down 15mm
;Prime the extruder
G92 E0
G1 F200 E3
G92 E0
G92 E0
G92 E0
G1 F2700 E-5
;LAYER_COUNT:69
;LAYER:-6
M107
G0 F9000 X92.628 Y91.281 Z0.216
;TYPE:SUPPORT-INTERFACE
G1 F2700 E0
G1 F900 X92.323 Y91.77 E0.0414
G1 X92.073 Y92.316 E0.08455
G1 X91.907 Y92.851 E0.12479
G1 X91.79 Y93.508 E0.17273
G1 X91.723 Y94.264 E0.22726
G1 X91.712 Y94.913 E0.27389
G1 X91.769 Y95.834 E0.34018
G1 X91.73 Y96.514 E0.38911
G1 X91.607 Y97.185 E0.43812
G1 X91.397 Y97.837 E0.48733
G1 X91.109 Y98.454 E0.53625
G1 X90.743 Y99.035 E0.58558
G1 X90.311 Y99.559 E0.63437
G1 X89.825 Y100.013 E0.68215
G1 X89.242 Y100.527 E0.73799
G1 X88.667 Y101.112 E0.79692
G1 X88.188 Y101.677 E0.85013
G1 X87.719 Y102.32 E0.90731
G1 X87.323 Y102.953 E0.96095
G1 X86.978 Y103.598 E1.0135
G1 X86.678 Y104.268 E1.06624
G1 X86.492 Y104.767 E1.1045
G1 X86.289 Y105.414 E1.15322
G1 X86.125 Y106.099 E1.20382
G1 X86.005 Y106.837 E1.25754
G1 X85.926 Y107.652 E1.31636
G1 X85.908 Y108.245 E1.35898
G1 X85.901 Y115.634 E1.88982
G1 X85.947 Y116.2 E1.93062
G1 X86.061 Y116.893 E1.98107
G1 X86.224 Y117.398 E2.0192
G1 X86.471 Y117.932 E2.06147
G1 X86.79 Y118.439 E2.1045
G1 X87.119 Y118.853 E2.14249
G1 X87.444 Y119.202 E2.17675
G1 X89.163 Y120.919 E2.3513
G1 X89.653 Y121.348 E2.39809
G1 X90.154 Y121.696 E2.44191
G1 X90.674 Y121.963 E2.48391
G1 X91.204 Y122.153 E2.52436
G1 X91.774 Y122.284 E2.56637
G1 X92.455 Y122.346 E2.6155
G1 X100.383 Y122.35 E3.18506
G1 X101.035 Y122.307 E3.23201
G1 X102.57 Y121.998 E3.34449
G1 X103.236 Y121.956 E3.39244
G1 X103.884 Y121.994 E3.43907
G1 X104.575 Y122.123 E3.48957
G1 X105.276 Y122.284 E3.54124
G1 X105.957 Y122.346 E3.59037
G1 X113.89 Y122.35 E4.16029
G1 X114.581 Y122.289 E4.21013
G1 X115.131 Y122.192 E4.25025
G1 X115.638 Y122.031 E4.28847
G1 X116.166 Y121.824 E4.32921
G1 X116.696 Y121.607 E4.37035
G1 X117.354 Y121.44 E4.41912
G1 X118.023 Y121.359 E4.46754
G1 X118.704 Y121.363 E4.51646
G1 X119.384 Y121.452 E4.56573
G1 X119.983 Y121.61 E4.61024
G1 X120.513 Y121.825 E4.65133
G1 X121.69 Y122.331 E4.74337
G1 X122.588 Y122.605 E4.81082
G1 X123.124 Y122.679 E4.84969
G1 X123.698 Y122.688 E4.89093
G1 X124.27 Y122.625 E4.93227
G1 X124.845 Y122.487 E4.97476
G1 X125.329 Y122.313 E5.01171
G1 X126.363 Y121.858 E5.09287
G1 X126.854 Y121.582 E5.13333
G1 X127.624 Y121.029 E5.20144
G1 X128.011 Y120.644 E5.24065
G1 X128.369 Y120.187 E5.28236
G1 X128.659 Y119.701 E5.32302
G1 X128.894 Y119.169 E5.3648
G1 X129.07 Y118.672 E5.40268
G1 X129.36 Y118.071 E5.45062
G1 X129.694 Y117.551 E5.49502
G1 X130.321 Y116.826 E5.56388
G1 X130.655 Y116.42 E5.60165
G1 X130.973 Y115.958 E5.64195
G1 X131.246 Y115.426 E5.6849
G1 X131.445 Y114.877 E5.72686
G1 X131.565 Y114.344 E5.76611
G1 X131.629 Y113.769 E5.80767
G1 X131.645 Y112.526 E5.89698
G1 X131.644 Y106.521 E6.32839
G1 X131.579 Y105.868 E6.37553
G1 X131.522 Y105.396 E6.40969
G1 X131.376 Y104.879 E6.44828
G1 X131.145 Y104.339 E6.49048
G1 X130.855 Y103.84 E6.53194
G1 X130.503 Y103.38 E6.57356
G1 X129.936 Y102.767 E6.63354
G1 X129.532 Y102.218 E6.68251
G1 X129.199 Y101.622 E6.73156
G1 X128.963 Y101.012 E6.77855
G1 X128.669 Y100.316 E6.83283
G1 X128.373 Y99.815 E6.87464
G1 X128.009 Y99.348 E6.91717
G1 X127.59 Y98.936 E6.95939
G1 X127.137 Y98.588 E7.00043
G1 X126.489 Y98.203 E7.05458
G1 X125.951 Y97.95 E7.09729
G1 X125.186 Y97.638 E7.15664
G1 X124.672 Y97.474 E7.19541
G1 X124.098 Y97.356 E7.23751
G1 X123.505 Y97.314 E7.28021
G1 X122.934 Y97.349 E7.32131
G1 X122.156 Y97.496 E7.37819
G1 X121.468 Y97.633 E7.42859
G1 X120.797 Y97.666 E7.47686
G1 X120.115 Y97.614 E7.526
G1 X119.445 Y97.477 E7.57513
G1 X118.801 Y97.256 E7.62404
G1 X118.217 Y96.971 E7.67072
G1 X117.616 Y96.582 E7.72216
G1 X117.096 Y96.136 E7.77137
G1 X116.679 Y95.674 E7.81608
G1 X116.251 Y95.072 E7.86915
G1 X115.932 Y94.465 E7.91841
G1 X115.714 Y93.868 E7.96407
G1 X115.455 Y93.214 E8.01461
G1 X115.18 Y92.722 E8.0551
G1 X114.824 Y92.239 E8.09821
G1 X114.435 Y91.831 E8.13871
G1 X113.984 Y91.462 E8.18057
G1 X113.495 Y91.154 E8.22209
G1 X112.945 Y90.903 E8.26552
G1 X112.403 Y90.735 E8.30629
G1 X111.734 Y90.618 E8.35508
G1 X96.854 Y89.374 E9.42782
G1 X96.105 Y89.371 E9.48163
G1 X95.487 Y89.443 E9.52632
G1 X94.939 Y89.583 E9.56696
G1 X94.39 Y89.803 E9.60945
G1 X93.88 Y90.088 E9.65142
G1 X93.409 Y90.435 E9.69345
G1 X92.994 Y90.832 E9.73471
G1 X92.628 Y91.281 E9.77633
G0 F9000 X93.337 Y91.074
G1 F900 X124.432 Y122.169 E12.93557
G0 F9000 X126.073 Y121.548
G1 F900 X94.661 Y90.136 E16.12702
G0 F9000 X96.566 Y89.778
G1 F900 X127.437 Y120.649 E19.26351
G0 F9000 X128.384 Y119.333
G1 F900 X99.007 Y89.956 E22.24821
G0 F9000 X101.476 Y90.163
G1 F900 X129.078 Y117.765 E25.05256
G0 F9000 X130.073 Y116.497
G1 F900 X103.946 Y90.369 E27.70711
G0 F9000 X106.414 Y90.575
G1 F900 X130.939 Y115.1 E30.19885
G0 F9000 X131.244 Y113.142
G1 F900 X108.883 Y90.781 E32.47072
G0 F9000 X111.352 Y90.987
G1 F900 X131.244 Y110.88 E34.49179
G0 F9000 X131.244 Y108.617
G1 F900 X120.682 Y98.055 E35.56489
G0 F9000 X122.692 Y97.802
G1 F900 X131.234 Y106.343 E36.4327
G0 F9000 X128.766 Y101.613
G1 F900 X125.249 Y98.096 E36.79003
G0 F9000 X118.7 Y120.963
G1 F900 X92.123 Y94.386 E39.49025
G0 F9000 X92.462 Y92.462
G1 F900 X122.009 Y122.009 E42.49222
G0 F9000 X116.674 Y121.199
G1 F900 X92.115 Y96.64 E44.98741
G0 F9000 X91.585 Y98.373
G1 F900 X115.01 Y121.798 E47.36738
G0 F9000 X112.894 Y121.945
G1 F900 X90.683 Y99.734 E49.62401
G0 F9000 X89.52 Y100.834
G1 F900 X110.633 Y121.946 E51.76904
G0 F9000 X108.369 Y121.946
G1 F900 X88.444 Y102.02 E53.79346
G0 F9000 X87.547 Y103.386
G1 F900 X106.106 Y121.945 E55.67905
G0 F9000 X103.467 Y121.569
G1 F900 X86.856 Y104.958 E57.36673
G0 F9000 X86.414 Y106.779
G1 F900 X101.45 Y121.814 E58.89433
G0 F9000 X99.32 Y121.948
G1 F900 X86.307 Y108.934 E60.2165
G0 F9000 X86.305 Y111.196
G1 F900 X97.056 Y121.946 E61.30875
G0 F9000 X94.793 Y121.946
G1 F900 X86.304 Y113.457 E62.17123
G0 F9000 X86.305 Y115.721
G1 F900 X92.529 Y121.945 E62.80359
G0 F600 X92.529 Y121.945 Z0.486
G0 F9000 X92.288 Y92.973
;TIME_ELAPSED:63.164837
;LAYER:-5
;TYPE:SUPPORT
G1 F900 X95.385 Y89.876 E63.1969
G1 X94.814 Y90.054 E63.25062
G1 X94.316 Y90.291 E63.30014
G1 X93.887 Y90.565 E63.34586
G1 X93.483 Y90.902 E63.3931
G1 X93.125 Y91.285 E63.44018
G1 X92.817 Y91.713 E63.48753
G1 X92.565 Y92.174 E63.53471
G1 X92.292 Y92.944 E63.60808
G1 X92.185 Y93.571 E63.6652
G1 X92.121 Y94.279 E63.72904
G1 X92.117 Y94.558 E63.7541
G1 X96.896 Y89.779 E64.36103
G1 X98.201 Y89.888 E64.47863
G1 X92.165 Y95.925 E65.24526
G1 X92.126 Y96.589 E65.30499
G1 X91.988 Y97.311 E65.37101
G1 X91.888 Y97.616 E65.39983
G1 X99.506 Y89.997 E66.36738
G1 X100.812 Y90.106 E66.48507
G1 X87.557 Y103.361 E68.16845
G1 X87.133 Y104.218 E68.25431
G1 X86.795 Y105.112 E68.34014
G1 X86.628 Y105.704 E68.39538
G1 X102.117 Y90.215 E70.36248
G1 X103.422 Y90.324 E70.48008
G1 X86.341 Y107.405 E72.64936
G1 X86.306 Y107.968 E72.70002
G1 X86.305 Y108.855 E72.77967
G1 X104.728 Y90.433 E75.11932
G1 X106.033 Y90.542 E75.23692
G1 X86.305 Y110.27 E77.74238
G1 X86.303 Y111.686 E77.86954
G1 X107.338 Y90.651 E80.54097
G1 X108.644 Y90.759 E80.65866
G1 X86.302 Y113.101 E83.49608
G1 X86.301 Y114.516 E83.62315
G1 X109.949 Y90.868 E86.62644
G1 X111.254 Y90.977 E86.74404
G1 X86.319 Y115.913 E89.91085
G1 X86.382 Y116.535 E89.96699
G1 X86.544 Y117.101 E90.01986
G1 X112.473 Y91.172 E93.31283
G1 X112.806 Y91.276 E93.34416
G1 X113.298 Y91.502 E93.39278
G1 X113.458 Y91.602 E93.40973
G1 X87.008 Y118.052 E96.76887
G1 X87.592 Y118.781 E96.85275
G1 X87.643 Y118.832 E96.85923
G1 X114.252 Y92.222 E100.23863
G1 X114.687 Y92.708 E100.2972
G1 X114.878 Y93.01 E100.32929
G1 X88.35 Y119.539 E103.6984
G1 X89.057 Y120.246 E103.78819
G1 X115.326 Y93.977 E107.12435
G1 X115.553 Y94.604 E107.18423
G1 X115.744 Y94.973 E107.22154
G1 X89.784 Y120.933 E110.51846
G1 X90.349 Y121.347 E110.58136
G1 X90.636 Y121.495 E110.61036
G1 X116.292 Y95.839 E113.86866
G1 X116.797 Y96.405 E113.93678
G1 X116.981 Y96.564 E113.95862
G1 X91.69 Y121.855 E117.17057
G1 X92.459 Y121.945 E117.2401
G1 X93.014 Y121.946 E117.28994
G1 X117.787 Y97.172 E120.43616
G1 X118.62 Y97.618 E120.52102
G1 X118.721 Y97.652 E120.53059
G1 X94.427 Y121.946 E123.61592
G1 X95.841 Y121.947 E123.7429
G1 X119.824 Y97.964 E126.78873
G1 X120.761 Y98.067 E126.87339
G1 X121.153 Y98.049 E126.90862
G1 X97.254 Y121.948 E129.94379
G1 X98.668 Y121.948 E130.07077
G1 X122.848 Y97.768 E133.14163
G1 X123.241 Y97.72 E133.17718
G1 X123.779 Y97.724 E133.22549
G1 X124.23 Y97.801 E133.26658
G1 X100.082 Y121.949 E136.33337
G1 X100.996 Y121.908 E136.41553
G1 X101.674 Y121.77 E136.47767
G1 X125.319 Y98.125 E139.48058
G1 X125.926 Y98.376 E139.53956
G1 X126.294 Y98.565 E139.57671
G1 X103.302 Y121.557 E142.49669
G1 X103.98 Y121.599 E142.55769
G1 X104.561 Y121.712 E142.61085
G1 X127.166 Y99.108 E145.48161
G1 X127.538 Y99.434 E145.52603
G1 X127.876 Y99.812 E145.57157
G1 X105.76 Y121.927 E148.38023
G1 X105.959 Y121.945 E148.39817
G1 X107.156 Y121.946 E148.50567
G1 X128.407 Y100.695 E151.20454
G1 X128.801 Y101.715 E151.30273
G1 X108.569 Y121.946 E153.87213
G1 X109.983 Y121.947 E153.99911
G1 X129.278 Y102.652 E156.44957
G1 X129.96 Y103.384 E156.53941
G1 X111.396 Y121.948 E158.89704
G1 X112.81 Y121.949 E159.02402
G1 X130.587 Y104.172 E161.28169
G1 X130.792 Y104.525 E161.31835
G1 X130.997 Y105.008 E161.36547
G1 X131.034 Y105.139 E161.37769
G1 X114.249 Y121.924 E163.50938
G1 X115.029 Y121.813 E163.58013
G1 X115.52 Y121.654 E163.62648
G1 X116.241 Y121.346 E163.69689
G1 X131.234 Y106.353 E165.601
G1 X131.243 Y106.545 E165.61826
G1 X131.243 Y107.758 E165.72719
G1 X118.045 Y120.956 E167.40333
G1 X118.759 Y120.962 E167.46745
G1 X119.369 Y121.046 E167.52275
G1 X131.243 Y109.173 E169.03068
G1 X131.243 Y110.587 E169.15766
G1 X120.462 Y121.367 E170.52678
G1 X121.448 Y121.796 E170.62334
G1 X131.243 Y112.001 E171.8673
G1 X131.243 Y113.415 E171.99429
G1 X122.499 Y122.159 E173.10477
G1 X123.142 Y122.279 E173.16351
G1 X123.67 Y122.289 E173.21093
G1 X123.796 Y122.276 E173.22231
G1 X130.937 Y115.136 E174.12915
G1 X130.658 Y115.725 E174.18768
G1 X130.347 Y116.182 E174.23732
G1 X130.164 Y116.401 E174.26295
G1 X129.327 Y117.277 E174.37175
G1 X129.369 Y117.32 E174.37715
G1 X129.026 Y117.844 E174.43339
G1 X128.708 Y118.496 E174.49854
G1 X128.515 Y119.038 E174.5502
G1 X128.307 Y119.512 E174.59669
G1 X128.032 Y119.971 E174.64474
G1 X127.515 Y120.588 E174.71703
G1 X127.112 Y120.927 E174.76432
G1 X126.653 Y121.236 E174.81401
G1 X125.888 Y121.641 E174.89174
G1 X125.814 Y121.673 E174.89898
G1 X128.551 Y118.936 E175.24658
G0 F600 X128.551 Y118.936 Z0.666
G0 F9000 X128.037 Y99.695
;TIME_ELAPSED:146.872158
;LAYER:-4
;TYPE:SUPPORT-INTERFACE
G1 F1200 X127.667 Y99.279 E175.26324
G1 X127.245 Y98.911 E175.28
G1 X127.097 Y98.813 E175.28532
G1 X128.167 Y99.883 E175.33061
G1 X128.349 Y100.146 E175.34019
G1 X128.602 Y100.639 E175.35678
G1 X128.756 Y101.037 E175.36955
G1 X125.846 Y98.128 E175.49272
G1 X125.114 Y97.826 E175.51642
G1 X124.923 Y97.77 E175.52238
G1 X129.212 Y102.059 E175.70395
G1 X129.348 Y102.305 E175.71236
G1 X129.764 Y102.876 E175.73351
G1 X130.359 Y103.52 E175.75975
G1 X130.685 Y103.945 E175.77579
G1 X130.9 Y104.313 E175.78855
G1 X124.16 Y97.573 E176.07387
G1 X123.544 Y97.523 E176.09237
G1 X131.275 Y105.254 E176.41965
G1 X131.388 Y105.933 E176.44026
G1 X123.004 Y97.548 E176.7952
G1 X122.516 Y97.625 E176.80999
G1 X131.444 Y106.553 E177.18794
G1 X131.444 Y107.119 E177.20488
G1 X122.052 Y97.728 E177.60245
G1 X121.589 Y97.831 E177.61665
G1 X131.444 Y107.685 E178.03383
G1 X131.444 Y108.25 E178.05074
G1 X121.046 Y97.852 E178.49092
G1 X120.471 Y97.843 E178.50813
G1 X131.444 Y108.816 E178.97266
G1 X131.444 Y109.382 E178.9896
G1 X119.822 Y97.76 E179.4816
G1 X119.051 Y97.555 E179.50548
G1 X131.444 Y109.948 E180.03011
G1 X131.444 Y110.513 E180.04703
G1 X118.017 Y97.087 E180.61541
G1 X117.473 Y96.725 E180.63497
G1 X116.938 Y96.262 E180.65615
G1 X116.465 Y95.734 E180.67737
G1 X116.041 Y95.111 E180.69993
G0 F9000 X113.383 Y91.322
G1 F1200 X115.165 Y93.103 E180.77535
G1 X115.007 Y92.819 E180.78507
G1 X114.66 Y92.353 E180.80247
G1 X114.296 Y91.971 E180.81826
G1 X113.861 Y91.619 E180.83501
G1 X113.383 Y91.322 E180.85186
G1 X112.883 Y91.094 E180.86831
G1 X112.455 Y90.959 E180.88174
G1 X115.577 Y94.081 E181.01391
G1 X115.737 Y94.523 E181.02798
G1 X116.041 Y95.111 E181.04779
G1 X111.753 Y90.823 E181.22932
G1 X111.133 Y90.768 E181.24795
G1 X131.444 Y111.079 E182.10778
G1 X131.444 Y111.645 E182.12472
G1 X110.515 Y90.716 E183.01071
G1 X109.898 Y90.665 E183.02925
G1 X131.444 Y112.21 E183.94134
G1 X131.444 Y112.776 E183.95828
G1 X109.281 Y90.613 E184.89651
G1 X108.663 Y90.561 E184.91508
G1 X131.444 Y113.342 E185.87947
G1 X131.424 Y113.888 E185.89582
G1 X108.046 Y90.51 E186.88549
G1 X107.43 Y90.459 E186.90399
G1 X131.357 Y114.386 E187.9169
G1 X131.248 Y114.843 E187.93096
G1 X106.812 Y90.407 E188.96542
G1 X106.195 Y90.356 E188.98395
G1 X131.102 Y115.263 E190.03835
G1 X130.925 Y115.652 E190.05114
G1 X105.578 Y90.304 E191.12418
G1 X104.96 Y90.252 E191.14275
G1 X130.713 Y116.005 E192.23295
G1 X130.473 Y116.331 E192.24507
G1 X104.343 Y90.201 E193.35124
G1 X103.726 Y90.149 E193.36977
G1 X130.214 Y116.637 E194.4911
G1 X129.938 Y116.927 E194.50308
G1 X103.108 Y90.098 E195.63886
G1 X102.491 Y90.046 E195.65739
G1 X129.662 Y117.217 E196.80763
G1 X129.607 Y117.275 E196.81002
G1 X129.631 Y117.299 E196.81104
G1 X129.45 Y117.571 E196.82082
G1 X101.874 Y89.994 E197.98822
G1 X101.256 Y89.943 E198.00678
G1 X129.223 Y117.91 E199.19072
G1 X129.033 Y118.285 E199.2033
G1 X100.639 Y89.891 E200.40531
G1 X100.022 Y89.84 E200.42384
G1 X128.856 Y118.674 E201.64448
G1 X128.708 Y119.091 E201.65773
G1 X99.405 Y89.788 E202.89822
G1 X98.787 Y89.736 E202.91678
G1 X128.537 Y119.486 E204.1762
G1 X128.338 Y119.853 E204.18869
G1 X98.17 Y89.685 E205.4658
G1 X97.553 Y89.633 E205.48434
G1 X128.113 Y120.194 E206.77806
G1 X127.863 Y120.509 E206.7901
G1 X96.935 Y89.581 E208.09938
G1 X96.358 Y89.569 E208.11666
G1 X127.58 Y120.792 E209.43841
G1 X127.265 Y121.043 E209.45046
G1 X95.825 Y89.603 E210.78142
G1 X95.342 Y89.685 E210.79609
G1 X126.936 Y121.279 E212.13356
G1 X126.589 Y121.497 E212.14583
G1 X94.902 Y89.811 E213.48722
G1 X94.499 Y89.974 E213.50024
G1 X126.219 Y121.693 E214.84302
G1 X125.84 Y121.88 E214.85568
G1 X94.133 Y90.173 E216.19794
G1 X93.792 Y90.397 E216.21015
G1 X125.442 Y122.048 E217.55002
G1 X125.034 Y122.205 E217.5631
G1 X93.475 Y90.646 E218.8991
G1 X93.184 Y90.921 E218.91108
G1 X124.602 Y122.339 E220.24111
G1 X124.136 Y122.439 E220.25538
G1 X92.924 Y91.227 E221.57668
G1 X92.688 Y91.556 E221.5888
G1 X123.619 Y122.487 E222.89821
G1 X123.03 Y122.465 E222.91585
G1 X92.475 Y91.909 E224.20937
G1 X92.297 Y92.297 E224.22215
G1 X122.311 Y122.311 E225.49274
G1 X121.751 Y122.14 E225.51026
G1 X121.439 Y122.005 E225.52044
G1 X92.154 Y92.72 E226.76017
G1 X92.049 Y93.181 E226.77432
G1 X120.446 Y121.577 E227.97644
G1 X120.129 Y121.442 E227.98675
G1 X119.603 Y121.3 E228.00306
G1 X91.975 Y93.672 E229.17264
G1 X91.928 Y94.191 E229.18824
G1 X118.923 Y121.186 E230.33103
G1 X118.329 Y121.157 E230.34883
G1 X91.913 Y94.742 E231.46708
G1 X91.937 Y95.331 E231.48473
G1 X117.79 Y121.184 E232.57917
G1 X117.289 Y121.249 E232.59429
G1 X91.965 Y95.925 E233.66634
G1 X91.933 Y96.458 E233.68232
G1 X116.836 Y121.362 E234.73657
G1 X116.402 Y121.493 E234.75014
G1 X91.853 Y96.945 E235.78936
G1 X91.747 Y97.403 E235.80343
G1 X116.007 Y121.664 E236.83045
G1 X115.611 Y121.834 E236.84335
G1 X91.607 Y97.83 E237.85952
G1 X91.436 Y98.224 E237.87238
G1 X115.184 Y121.973 E238.87773
G1 X114.717 Y122.071 E238.89201
G1 X91.251 Y98.605 E239.88541
G1 X91.031 Y98.951 E239.89768
G1 X114.208 Y122.127 E240.87882
G1 X113.663 Y122.148 E240.89514
G1 X90.798 Y99.283 E241.86309
G1 X90.541 Y99.592 E241.87512
G1 X113.097 Y122.148 E242.82999
G1 X112.531 Y122.147 E242.84693
G1 X90.277 Y99.894 E243.789
