;FLAVOR:Marlin
;TIME:1785
;Filament used: 1.155m
;Layer height: 0.18
;MINX:85.901
;MINY:97.901
;MINZ:0.216
;MAXX:134.099
;MAXY:132.702
;MAXZ:13.416
;Generated with Cura_SteamEngine 5.0.0
M140 S100
M105
M190 S100
M104 S250
M105
M109 S250
M82 ;absolute extrusion mode
G28 ;Home
G1 Z15.0 F6000 ;Move the platform down 15mm
;Prime the extruder
G92 E0
G1 F200 E3
G92 E0
G92 E0
G92 E0
G1 F2700 E-5
;LAYER_COUNT:69
;LAYER:-6
M107
G0 F9000 X87.891 Y99.895 Z0.216
;TYPE:SUPPORT-INTERFACE
G1 F2700 E0
G1 F900 X87.32 Y100.466 E0.05801
G1 X86.959 Y100.897 E0.0984
G1 X86.556 Y101.462 E0.14826
G1 X86.308 Y101.943 E0.18714
G1 X86.096 Y102.528 E0.23184
G1 X85.98 Y103.053 E0.27047
G1 X85.916 Y103.619 E0.31139
G1 X85.901 Y104.705 E0.38942
G1 X85.906 Y111.695 E0.89159
G1 X85.929 Y112.246 E0.93121
G1 X86.01 Y112.985 E0.98462
G1 X86.135 Y113.69 E1.03606
G1 X86.313 Y114.421 E1.09011
G1 X86.517 Y115.058 E1.13816
G1 X86.717 Y115.569 E1.17759
G1 X87.023 Y116.231 E1.22998
G1 X87.296 Y116.739 E1.27141
G1 X87.713 Y117.415 E1.32848
G1 X88.049 Y117.888 E1.37016
G1 X88.374 Y118.298 E1.40774
G1 X88.73 Y118.702 E1.44643
G1 X89.151 Y119.13 E1.48956
G1 X89.574 Y119.513 E1.53055
G1 X90.061 Y119.913 E1.57583
G1 X90.515 Y120.24 E1.61603
G1 X91.123 Y120.628 E1.66784
G1 X91.673 Y120.928 E1.71285
G1 X92.266 Y121.206 E1.7599
G1 X92.945 Y121.479 E1.81248
G1 X93.906 Y121.792 E1.88509
G1 X94.522 Y122.056 E1.93324
G1 X95.11 Y122.403 E1.98229
G1 X95.652 Y122.822 E2.0315
G1 X96.135 Y123.305 E2.08058
G1 X96.552 Y123.843 E2.12948
G1 X96.9 Y124.43 E2.1785
G1 X97.17 Y125.058 E2.22761
G1 X97.349 Y125.742 E2.27841
G1 X97.496 Y126.266 E2.31751
G1 X97.747 Y126.972 E2.37134
G1 X97.959 Y127.478 E2.41075
G1 X98.176 Y127.93 E2.44677
G1 X98.433 Y128.378 E2.48388
G1 X98.96 Y129.108 E2.54856
G1 X99.349 Y129.501 E2.58828
G1 X99.806 Y129.858 E2.62995
G1 X100.305 Y130.156 E2.6717
G1 X100.838 Y130.389 E2.71349
G1 X101.393 Y130.55 E2.75501
G1 X102.872 Y130.791 E2.86266
G1 X103.533 Y131.002 E2.91251
G1 X104.304 Y131.37 E2.97389
G1 X104.82 Y131.588 E3.01413
G1 X105.396 Y131.758 E3.05728
G1 X105.94 Y131.856 E3.09699
G1 X106.664 Y131.949 E3.14943
G1 X107.332 Y132.127 E3.19909
G1 X108.099 Y132.427 E3.25826
G1 X108.654 Y132.586 E3.29974
G1 X109.24 Y132.678 E3.34235
G1 X109.92 Y132.702 E3.39124
G1 X110.434 Y132.694 E3.42817
G1 X111.347 Y132.583 E3.49424
G1 X111.875 Y132.435 E3.53364
G1 X112.604 Y132.144 E3.59003
G1 X113.256 Y131.958 E3.63874
G1 X114.227 Y131.831 E3.70909
G1 X114.838 Y131.71 E3.75384
G1 X115.386 Y131.517 E3.79558
G1 X115.905 Y131.26 E3.83718
G1 X116.759 Y130.895 E3.90391
G1 X117.391 Y130.729 E3.95085
G1 X118.013 Y130.643 E3.99596
G1 X118.61 Y130.551 E4.03936
G1 X119.179 Y130.38 E4.08204
G1 X119.706 Y130.149 E4.12338
G1 X120.208 Y129.849 E4.16539
G1 X120.672 Y129.481 E4.20794
G1 X121.066 Y129.078 E4.24843
G1 X121.474 Y128.536 E4.29717
G1 X121.777 Y128.031 E4.33948
G1 X122.175 Y127.259 E4.40187
G1 X122.478 Y126.497 E4.46079
G1 X122.846 Y125.354 E4.54705
G1 X123.092 Y124.844 E4.58773
G1 X123.512 Y124.173 E4.6446
G1 X123.955 Y123.651 E4.69379
G1 X124.435 Y123.212 E4.74052
G1 X124.924 Y122.863 E4.78368
G1 X125.565 Y122.506 E4.83639
G1 X126.255 Y122.239 E4.88954
G1 X126.934 Y122.074 E4.93974
G1 X127.493 Y121.981 E4.98046
G1 X128.021 Y121.833 E5.01985
G1 X128.561 Y121.601 E5.06207
G1 X129.06 Y121.311 E5.10354
G1 X129.514 Y120.963 E5.14463
G1 X129.932 Y120.549 E5.1869
G1 X130.29 Y120.092 E5.22861
G1 X130.584 Y119.598 E5.26991
G1 X130.962 Y118.823 E5.33185
G1 X131.315 Y118.27 E5.37899
G1 X131.743 Y117.753 E5.4272
G1 X132.244 Y117.285 E5.47646
G1 X132.73 Y116.862 E5.52275
G1 X133.109 Y116.436 E5.56371
G1 X133.445 Y115.947 E5.60633
G1 X133.713 Y115.426 E5.64842
G1 X133.903 Y114.896 E5.68887
G1 X134.034 Y114.323 E5.7311
G1 X134.096 Y113.645 E5.78001
G1 X134.099 Y106.623 E6.28449
G1 X134.062 Y105.998 E6.32947
G1 X133.989 Y105.495 E6.36598
G1 X133.823 Y104.879 E6.41182
G1 X133.604 Y104.362 E6.45215
G1 X133.318 Y103.869 E6.4931
G1 X132.957 Y103.393 E6.53602
G1 X132.542 Y102.975 E6.57833
G1 X131.525 Y101.994 E6.67985
G1 X131.114 Y101.431 E6.72993
G1 X130.786 Y100.834 E6.77886
G1 X130.472 Y100.2 E6.82969
G1 X130.143 Y99.707 E6.87227
G1 X129.762 Y99.269 E6.91398
G1 X129.336 Y98.889 E6.95499
G1 X128.847 Y98.555 E6.99753
G1 X128.331 Y98.288 E7.03927
G1 X127.782 Y98.091 E7.08118
G1 X127.225 Y97.967 E7.12217
G1 X126.543 Y97.904 E7.17138
G1 X124.237 Y97.901 E7.33704
G1 X123.698 Y97.912 E7.37577
G1 X122.865 Y97.904 E7.43562
G1 X120.621 Y97.901 E7.59683
G1 X120.005 Y97.96 E7.64129
G1 X119.493 Y98.023 E7.67835
G1 X118.608 Y98.245 E7.7439
G1 X117.928 Y98.329 E7.79313
G1 X117.395 Y98.328 E7.83142
G1 X116.632 Y98.247 E7.88654
G1 X116.099 Y98.122 E7.92587
G1 X115.431 Y97.966 E7.97515
G1 X114.75 Y97.905 E8.02427
G1 X105.408 Y97.901 E8.69542
G1 X104.747 Y97.944 E8.74301
G1 X103.586 Y98.11 E8.82726
G1 X102.904 Y98.109 E8.87626
G1 X102.228 Y98.01 E8.92534
G1 X101.686 Y97.945 E8.96456
G1 X100.818 Y97.905 E9.02699
G1 X91.904 Y97.901 E9.66739
G1 X91.335 Y97.948 E9.7084
G1 X90.652 Y98.061 E9.75814
G1 X90.143 Y98.225 E9.79656
G1 X89.61 Y98.472 E9.83876
G1 X89.105 Y98.789 E9.8816
G1 X88.69 Y99.119 E9.91969
G1 X87.891 Y99.895 E9.99971
G0 F9000 X88.518 Y99.832
G1 F900 X118.77 Y130.084 E13.0733
G0 F9000 X120.251 Y129.302
G1 F900 X89.782 Y98.833 E16.16895
G0 F9000 X91.542 Y98.33
G1 F900 X121.285 Y128.073 E19.19083
G0 F9000 X122.037 Y126.562
G1 F900 X93.777 Y98.302 E22.06204
G0 F9000 X96.04 Y98.303
G1 F900 X122.627 Y124.889 E24.76322
G0 F9000 X123.531 Y123.531
G1 F900 X98.304 Y98.304 E27.32628
G0 F9000 X100.567 Y98.304
G1 F900 X124.755 Y122.492 E29.78377
G0 F9000 X126.335 Y121.809
G1 F900 X103.033 Y98.507 E32.15125
G0 F9000 X105.11 Y98.321
G1 F900 X128.135 Y121.347 E34.49064
G0 F9000 X129.481 Y120.43
G1 F900 X107.353 Y98.302 E36.73884
G0 F9000 X109.617 Y98.303
G1 F900 X130.393 Y119.079 E38.84967
G0 F9000 X131.273 Y117.697
G1 F900 X111.88 Y98.304 E40.82
G0 F9000 X114.144 Y98.304
G1 F900 X132.43 Y116.591 E42.6779
G0 F9000 X133.35 Y115.248
G1 F900 X116.77 Y98.668 E44.36243
G0 F9000 X118.94 Y98.575
G1 F900 X133.695 Y113.33 E45.86153
G0 F9000 X133.695 Y111.068
G1 F900 X120.929 Y98.301 E47.1586
G0 F9000 X123.199 Y98.309
G1 F900 X133.695 Y108.805 E48.225
G0 F9000 X133.695 Y106.542
G1 F900 X125.456 Y98.303 E49.06208
G0 F9000 X128.016 Y98.6
G1 F900 X130.429 Y101.013 E49.30724
G0 F9000 X116.877 Y130.454
G1 F900 X87.406 Y100.982 E52.30153
G0 F9000 X86.564 Y102.403
G1 F900 X115.281 Y131.12 E55.21918
G0 F9000 X113.431 Y131.533
G1 F900 X86.3 Y104.402 E57.97568
G0 F9000 X86.301 Y106.666
G1 F900 X111.703 Y132.067 E60.55647
G0 F9000 X109.668 Y132.296
G1 F900 X86.303 Y108.93 E62.9304
G0 F9000 X86.303 Y111.193
G1 F900 X106.652 Y131.543 E64.9979
G0 F9000 X103.379 Y130.531
G1 F900 X97.378 Y124.531 E65.60755
G0 F9000 X98.835 Y128.25
G1 F900 X100.226 Y129.642 E65.74893
G0 F9000 X94.429 Y121.582
G1 F900 X86.547 Y113.699 E66.54979
G0 F600 X86.547 Y113.699 Z0.486
G0 F9000 X90.762 Y98.434
;TIME_ELAPSED:66.739458
;LAYER:-5
;TYPE:SUPPORT
G1 F900 X90.279 Y98.59 E66.59537
G1 X89.787 Y98.819 E66.6441
G1 X89.332 Y99.104 E66.69231
G1 X88.857 Y99.501 E66.74791
G1 X87.6 Y100.751 E66.9071
G1 X87.198 Y101.211 E66.96196
G1 X86.904 Y101.633 E67.00815
G1 X86.65 Y102.13 E67.05827
G1 X86.479 Y102.604 E67.10352
G1 X86.361 Y103.142 E67.15299
G1 X91.136 Y98.368 E67.75935
G1 X91.925 Y98.299 E67.83047
G1 X92.619 Y98.299 E67.89279
G1 X86.3 Y104.618 E68.69531
G1 X86.3 Y106.032 E68.82229
G1 X94.033 Y98.299 E69.80437
G1 X95.446 Y98.3 E69.93127
G1 X86.302 Y107.444 E71.09255
G1 X86.303 Y108.858 E71.21953
G1 X96.86 Y98.301 E72.56027
G1 X98.273 Y98.301 E72.68716
G1 X86.303 Y110.271 E74.20734
G1 X86.304 Y111.685 E74.33433
G1 X99.687 Y98.302 E76.03396
G1 X101.1 Y98.303 E76.16085
G1 X86.418 Y112.985 E78.02546
G1 X86.569 Y113.821 E78.10175
G1 X86.661 Y114.156 E78.13295
G1 X102.383 Y98.434 E80.12964
G1 X102.886 Y98.509 E80.17531
G1 X103.626 Y98.509 E80.24176
G1 X103.739 Y98.492 E80.25203
G1 X87.008 Y115.223 E82.37686
G1 X87.45 Y116.196 E82.47283
G1 X105.341 Y98.304 E84.74504
G1 X106.761 Y98.299 E84.87256
G1 X87.977 Y117.083 E87.25813
G1 X88.523 Y117.854 E87.34297
G1 X88.567 Y117.907 E87.34915
G1 X108.174 Y98.3 E89.83924
G1 X109.588 Y98.301 E89.96622
G1 X89.242 Y118.646 E92.55009
G1 X89.98 Y119.323 E92.64003
G1 X111.001 Y98.301 E95.30975
G1 X112.415 Y98.302 E95.43673
G1 X90.783 Y119.934 E98.18399
G1 X91.55 Y120.417 E98.26539
G1 X91.66 Y120.471 E98.27639
G1 X113.828 Y98.303 E101.09172
G1 X114.747 Y98.304 E101.17425
G1 X115.201 Y98.345 E101.21519
G1 X92.621 Y120.924 E104.08278
G1 X93.27 Y121.17 E104.1451
G1 X93.664 Y121.296 E104.18225
G1 X116.361 Y98.598 E107.06483
G1 X117.227 Y98.726 E107.14344
G1 X117.647 Y98.727 E107.18116
G1 X94.683 Y121.69 E110.09752
G1 X95.359 Y122.084 E110.16778
G1 X95.552 Y122.236 E110.18984
G1 X119.308 Y98.48 E113.20685
G1 X119.59 Y98.408 E113.23299
G1 X120.424 Y98.31 E113.3084
G1 X120.903 Y98.299 E113.35142
G1 X96.3 Y122.902 E116.476
G1 X96.901 Y123.641 E116.56154
G1 X96.929 Y123.687 E116.56637
G1 X122.315 Y98.301 E119.79039
G1 X122.909 Y98.303 E119.84373
G1 X123.09 Y98.314 E119.86002
G1 X123.09 Y98.354 E119.86361
G1 X123.706 Y98.325 E119.91899
G1 X97.415 Y124.615 E123.25787
G1 X97.557 Y124.949 E123.29047
G1 X97.761 Y125.684 E123.35897
G1 X125.144 Y98.301 E126.8366
G1 X126.555 Y98.304 E126.96331
G1 X98.091 Y126.767 E130.57817
G1 X98.536 Y127.738 E130.67409
G1 X127.765 Y98.508 E134.38622
G1 X128.176 Y98.657 E134.42548
G1 X128.641 Y98.897 E134.47248
G1 X128.73 Y98.957 E134.48211
G1 X99.074 Y128.613 E138.24842
G1 X99.398 Y128.996 E138.29347
G1 X99.77 Y129.331 E138.33842
G1 X129.512 Y99.589 E142.11565
G1 X129.826 Y99.949 E142.15855
G1 X130.122 Y100.394 E142.20654
G1 X100.643 Y129.872 E145.95031
G1 X101.218 Y130.092 E146.00559
G1 X101.724 Y130.206 E146.05217
G1 X130.599 Y101.331 E149.71929
G1 X130.758 Y101.623 E149.74915
G1 X131.161 Y102.183 E149.8111
G1 X102.977 Y130.369 E153.39059
G1 X102.973 Y130.401 E153.39349
G1 X103.703 Y130.637 E153.46238
G1 X103.985 Y130.773 E153.4905
G1 X131.859 Y102.9 E157.03043
G1 X132.486 Y103.459 E157.10586
G1 X132.591 Y103.581 E157.12031
G1 X104.957 Y131.215 E160.62982
G1 X105.74 Y131.427 E160.70267
G1 X106.111 Y131.475 E160.73627
G1 X133.18 Y104.407 E164.17396
G1 X133.355 Y104.758 E164.20918
G1 X133.539 Y105.283 E164.25914
G1 X133.568 Y105.433 E164.27286
G1 X107.316 Y131.685 E167.60685
G1 X108.333 Y132.083 E167.70493
G1 X133.699 Y106.717 E170.9264
G1 X133.698 Y108.132 E171.05347
G1 X109.536 Y132.294 E174.12204
G1 X110.425 Y132.293 E174.20187
G1 X111.022 Y132.222 E174.25586
G1 X133.697 Y109.547 E177.13558
G1 X133.696 Y110.962 E177.26265
G1 X113.064 Y131.594 E179.88291
G1 X113.159 Y131.567 E179.89178
G1 X114.194 Y131.431 E179.98552
G1 X114.704 Y131.331 E180.0322
G1 X114.76 Y131.312 E180.03751
G1 X133.695 Y112.377 E182.44225
G1 X133.694 Y113.639 E182.55558
G1 X133.678 Y113.808 E182.57082
G1 X125.285 Y122.202 E183.63679
G1 X126.166 Y121.844 E183.72219
G1 X126.856 Y121.684 E183.7858
G1 X127.29 Y121.611 E183.82532
G1 X132.983 Y115.918 E184.54833
G1 X132.796 Y116.19 E184.57797
G1 X132.435 Y116.592 E184.62649
G1 X131.989 Y116.975 E184.67929
G1 X131.468 Y117.458 E184.74309
G1 X131 Y118.021 E184.80883
G1 X130.823 Y118.297 E184.83828
G1 X130.768 Y118.269 E184.84382
G1 X130.227 Y119.414 E184.95754
G1 X129.965 Y119.859 E185.00392
G1 X129.649 Y120.264 E185.05005
G1 X129.259 Y120.655 E185.09964
G1 X128.829 Y120.984 E185.14826
G1 X128.379 Y121.246 E185.19502
G1 X127.891 Y121.454 E185.24266
G1 X127.427 Y121.587 E185.28601
G0 F9000 X125.285 Y122.202
G1 F900 X124.829 Y122.441 E185.33224
G1 X124.227 Y122.859 E185.39806
G1 X123.684 Y123.352 E185.46392
G1 X123.207 Y123.909 E185.52977
G1 X122.804 Y124.521 E185.59558
G1 X122.65 Y124.836 E185.62707
G1 X117.092 Y130.394 E186.33293
G1 X117.34 Y130.328 E186.35598
G1 X118.279 Y130.206 E186.44101
G1 X118.823 Y130.077 E186.49122
G1 X121.777 Y127.124 E186.86631
G1 X121.422 Y127.844 E186.9384
G1 X120.952 Y128.582 E187.01697
G1 X120.588 Y129.007 E187.06722
G1 X120.2 Y129.355 E187.11403
G1 X119.767 Y129.657 E187.16144
G1 X119.298 Y129.901 E187.20891
G0 F600 X119.298 Y129.901 Z0.666
G0 F9000 X98.604 Y128.279
;TIME_ELAPSED:156.600513
;LAYER:-4
;TYPE:SUPPORT-INTERFACE
G1 F1200 X98.901 Y128.717 E187.22475
G1 X99.276 Y129.157 E187.24206
G1 X99.701 Y129.535 E187.25909
G1 X100.131 Y129.831 E187.27471
G1 X100.636 Y130.092 E187.29173
G1 X100.7 Y130.116 E187.29377
G1 X98.306 Y127.721 E187.39514
G1 X97.88 Y126.788 E187.42584
G1 X97.847 Y126.697 E187.42874
G1 X101.513 Y130.363 E187.58393
G1 X102.184 Y130.468 E187.60426
G1 X97.604 Y125.888 E187.79815
G1 X97.395 Y125.114 E187.82215
G1 X102.868 Y130.587 E188.05384
G1 X103.629 Y130.823 E188.07769
G1 X103.708 Y130.861 E188.08031
G1 X96.923 Y124.076 E188.36755
G1 X96.733 Y123.752 E188.37879
G1 X96.302 Y123.188 E188.40004
G1 X95.803 Y122.686 E188.42122
G1 X95.245 Y122.251 E188.4424
G0 F9000 X88.305 Y117.899
G1 F1200 X88.874 Y118.569 E188.46872
G1 X89.494 Y119.18 E188.49477
G1 X89.977 Y119.598 E188.51389
G1 X90.741 Y120.157 E188.54223
G1 X87.849 Y117.265 E188.66466
G1 X87.795 Y117.19 E188.66743
G1 X87.286 Y116.317 E188.69768
G1 X87.126 Y115.976 E188.70895
G1 X92.037 Y120.886 E188.91683
G1 X92.994 Y121.278 E188.94778
G1 X86.701 Y114.979 E189.21432
G1 X86.489 Y114.308 E189.23538
G1 X86.459 Y114.177 E189.2394
G1 X93.842 Y121.561 E189.55197
G1 X94.637 Y121.889 E189.57771
G1 X94.881 Y122.034 E189.58621
G1 X86.287 Y113.44 E189.95002
G1 X86.179 Y112.766 E189.97045
G1 X104.772 Y131.359 E190.75756
G1 X105.165 Y131.501 E190.77006
G1 X105.572 Y131.593 E190.78256
G1 X86.134 Y112.156 E191.60541
G1 X86.104 Y111.56 E191.62327
G1 X106.235 Y131.691 E192.47548
G1 X106.918 Y131.808 E192.49622
G1 X86.104 Y110.994 E193.37735
G1 X86.103 Y110.428 E193.39429
G1 X107.746 Y132.07 E194.31049
G1 X108.412 Y132.318 E194.33176
G1 X108.601 Y132.36 E194.33756
G1 X86.103 Y109.862 E195.28997
G1 X86.102 Y109.296 E195.30691
G1 X109.276 Y132.469 E196.28792
G1 X109.87 Y132.497 E196.30572
G1 X86.102 Y108.73 E197.31188
G1 X86.102 Y108.164 E197.32882
G1 X110.434 Y132.493 E198.35881
G1 X110.936 Y132.432 E198.37395
G1 X86.102 Y107.598 E199.42525
G1 X86.101 Y107.031 E199.44222
G1 X111.423 Y132.353 E200.51419
G1 X111.86 Y132.224 E200.52783
G1 X86.101 Y106.466 E201.61827
G1 X86.1 Y105.899 E201.63524
G1 X112.263 Y132.062 E202.7428
G1 X112.68 Y131.913 E202.75606
G1 X86.1 Y105.334 E203.88126
G1 X86.1 Y104.767 E203.89823
G1 X113.12 Y131.787 E205.04207
G1 X113.608 Y131.709 E205.05687
G1 X86.1 Y104.202 E206.22135
G1 X86.112 Y103.649 E206.2379
G1 X114.107 Y131.643 E207.423
G1 X114.586 Y131.557 E207.43757
G1 X86.166 Y103.137 E208.64068
G1 X86.262 Y102.666 E208.65507
G1 X115.027 Y131.432 E209.87281
G1 X115.431 Y131.27 E209.88584
G1 X86.396 Y102.235 E211.11498
G1 X86.567 Y101.841 E211.12784
G1 X115.809 Y131.083 E212.36575
G1 X116.205 Y130.913 E212.37865
G1 X86.773 Y101.481 E213.6246
G1 X87.008 Y101.15 E213.63675
G1 X116.6 Y130.742 E214.88948
G1 X117.038 Y130.614 E214.90314
G1 X87.265 Y100.841 E216.16352
G1 X87.528 Y100.539 E216.17551
G1 X117.499 Y130.509 E217.44426
G1 X117.999 Y130.444 E217.45935
G1 X87.811 Y100.256 E218.73731
G1 X88.094 Y99.973 E218.74929
G1 X118.484 Y130.364 E220.03582
G1 X118.935 Y130.249 E220.04975
G1 X88.377 Y99.69 E221.34339
G1 X88.662 Y99.41 E221.35535
G1 X119.347 Y130.095 E222.65434
G1 X119.723 Y129.905 E222.66695
G1 X88.961 Y99.144 E223.96919
G1 X89.286 Y98.903 E223.9813
G1 X120.071 Y129.688 E225.28453
G1 X120.396 Y129.447 E225.29664
G1 X89.634 Y98.685 E226.5989
G1 X90.006 Y98.492 E226.61144
G1 X120.695 Y129.18 E227.91058
G1 X120.961 Y128.881 E227.92256
G1 X90.412 Y98.331 E229.21582
G1 X90.859 Y98.213 E229.22966
G1 X121.203 Y128.557 E230.51422
G1 X121.425 Y128.213 E230.52648
G1 X91.357 Y98.145 E231.79935
G1 X91.878 Y98.101 E231.815
G1 X121.638 Y127.861 E233.07484
G1 X121.825 Y127.482 E233.08749
G1 X92.443 Y98.1 E234.33133
G1 X93.009 Y98.1 E234.34827
G1 X122.011 Y127.103 E235.57604
G1 X122.198 Y126.724 E235.58869
G1 X93.575 Y98.101 E236.8004
G1 X94.141 Y98.101 E236.81734
G1 X122.333 Y126.293 E238.0108
G1 X122.47 Y125.865 E238.02425
G1 X94.707 Y98.101 E239.19957
G1 X95.273 Y98.101 E239.21651
