;FLAVOR:Marlin
;TIME:5200
;Filament used: 3.0556m
;Layer height: 0.18
;MINX:89.097
;MINY:84.023
;MINZ:0.216
;MAXX:137.223
;MAXY:137.151
;MAXZ:12.336
;Generated with Cura_SteamEngine 5.0.0
M140 S100
M105
M190 S100
M104 S250
M105
M109 S250
M82 ;absolute extrusion mode
G28 ;Home
G1 Z15.0 F6000 ;Move the platform down 15mm
;Prime the extruder
G92 E0
G1 F200 E3
G92 E0
G92 E0
G92 E0
G1 F2700 E-5
;LAYER_COUNT:63
;LAYER:-6
M107
G0 F9000 X100.264 Y88.276 Z0.216
;TYPE:SUPPORT-INTERFACE
G1 F2700 E0
G1 F900 X99.992 Y88.72 E0.03741
G1 X99.524 Y89.602 E0.10914
G1 X99.266 Y90.263 E0.16012
G1 X98.901 Y91.151 E0.22909
G1 X98.55 Y91.729 E0.27767
G1 X98.126 Y92.264 E0.32671
G1 X97.638 Y92.741 E0.37574
G1 X97.092 Y93.154 E0.42492
G1 X96.537 Y93.458 E0.47038
G1 X96.044 Y93.73 E0.51084
G1 X95.415 Y94.159 E0.56553
G1 X94.995 Y94.541 E0.60632
G1 X94.619 Y94.98 E0.64785
G1 X94.3 Y95.465 E0.68955
G1 X94.04 Y95.999 E0.73222
G1 X93.861 Y96.529 E0.77241
G1 X93.743 Y97.099 E0.81423
G1 X93.7 Y97.676 E0.8558
G1 X93.726 Y98.252 E0.89722
G1 X93.787 Y99.047 E0.9545
G1 X93.781 Y99.661 E0.99861
G1 X93.71 Y100.221 E1.03917
G1 X93.603 Y100.714 E1.07541
G1 X93.387 Y101.326 E1.12204
G1 X93.082 Y101.941 E1.17135
G1 X92.708 Y102.507 E1.22009
G1 X92.371 Y102.979 E1.26176
G1 X92.114 Y103.428 E1.29892
G1 X91.377 Y104.906 E1.41758
G1 X91.154 Y105.425 E1.45816
G1 X90.984 Y105.989 E1.50048
G1 X90.888 Y106.551 E1.54144
G1 X90.863 Y107.139 E1.58372
G1 X90.912 Y107.711 E1.62496
G1 X91.03 Y108.272 E1.66615
G1 X91.268 Y108.942 E1.71723
G1 X91.458 Y109.53 E1.76162
G1 X91.585 Y110.207 E1.81111
G1 X91.626 Y110.877 E1.85933
G1 X91.585 Y111.541 E1.90712
G1 X91.477 Y112.096 E1.94774
G1 X91.366 Y112.637 E1.98742
G1 X91.243 Y113.594 E2.05674
G1 X91.111 Y114.103 E2.09452
G1 X90.883 Y114.727 E2.14224
G1 X90.586 Y115.304 E2.18887
G1 X90.13 Y115.968 E2.24674
G1 X89.797 Y116.457 E2.28924
G1 X89.495 Y117.038 E2.33628
G1 X89.297 Y117.585 E2.37807
G1 X89.177 Y118.118 E2.41732
G1 X89.113 Y118.696 E2.4591
G1 X89.097 Y119.68 E2.5298
G1 X89.098 Y126.741 E3.03708
G1 X89.135 Y127.258 E3.07432
G1 X89.207 Y127.753 E3.11025
G1 X89.376 Y128.382 E3.15704
G1 X89.593 Y128.898 E3.19726
G1 X89.883 Y129.399 E3.23885
G1 X90.242 Y129.871 E3.28145
G1 X90.645 Y130.28 E3.3227
G1 X91.097 Y130.633 E3.3639
G1 X91.6 Y130.935 E3.40605
G1 X92.15 Y131.175 E3.44916
G1 X92.683 Y131.329 E3.48902
G1 X93.268 Y131.422 E3.53158
G1 X93.869 Y131.458 E3.57483
G1 X99.76 Y131.462 E3.99805
G1 X100.259 Y131.426 E4.03399
G1 X100.777 Y131.351 E4.0716
G1 X101.125 Y131.282 E4.09708
G1 X101.672 Y131.089 E4.13875
G1 X102.475 Y130.715 E4.20239
G1 X103.12 Y130.503 E4.25117
G1 X103.795 Y130.373 E4.30056
G1 X104.459 Y130.329 E4.34836
G1 X109.744 Y130.33 E4.72805
G1 X110.411 Y130.374 E4.77607
G1 X111.077 Y130.503 E4.82481
G1 X111.707 Y130.711 E4.87247
G1 X112.32 Y130.999 E4.92113
G1 X112.901 Y131.368 E4.97057
G1 X113.424 Y131.803 E5.01945
G1 X113.889 Y132.302 E5.06845
G1 X114.289 Y132.859 E5.11771
G1 X114.622 Y133.47 E5.1677
G1 X114.845 Y134.041 E5.21174
G1 X115.054 Y134.528 E5.24982
G1 X115.376 Y135.092 E5.29647
G1 X115.732 Y135.56 E5.33872
G1 X116.135 Y135.969 E5.37997
G1 X116.587 Y136.322 E5.42117
G1 X117.09 Y136.624 E5.46332
G1 X117.64 Y136.864 E5.50643
G1 X118.173 Y137.018 E5.54629
G1 X118.758 Y137.111 E5.58884
G1 X119.363 Y137.147 E5.63238
G1 X125.249 Y137.151 E6.05525
G1 X126.005 Y137.092 E6.10972
G1 X126.611 Y136.969 E6.15415
G1 X127.157 Y136.779 E6.19568
G1 X127.668 Y136.525 E6.23668
G1 X128.155 Y136.198 E6.27882
G1 X128.605 Y135.807 E6.32165
G1 X128.984 Y135.38 E6.36266
G1 X129.312 Y134.901 E6.40437
G1 X129.575 Y134.391 E6.44559
G1 X129.775 Y133.838 E6.48784
G1 X129.904 Y133.264 E6.53011
G1 X129.965 Y132.596 E6.5783
G1 X129.969 Y124.674 E7.14743
G1 X129.9 Y123.972 E7.19811
G1 X129.848 Y123.549 E7.22872
G1 X129.702 Y123.03 E7.26746
G1 X129.469 Y122.483 E7.31017
G1 X129.084 Y121.766 E7.36864
G1 X128.837 Y121.14 E7.41698
G1 X128.67 Y120.498 E7.46464
G1 X128.582 Y119.823 E7.51355
G1 X128.581 Y119.136 E7.5629
G1 X128.665 Y118.458 E7.61198
G1 X128.835 Y117.798 E7.66095
G1 X129.023 Y117.155 E7.70907
G1 X129.116 Y116.575 E7.75127
G1 X129.145 Y115.771 E7.80907
G1 X129.196 Y115.054 E7.86071
G1 X129.336 Y114.373 E7.91066
G1 X129.548 Y113.753 E7.95774
G1 X129.838 Y113.153 E8.00561
G1 X130.213 Y112.575 E8.05511
G1 X130.655 Y112.053 E8.10425
G1 X131.158 Y111.592 E8.15327
G1 X131.718 Y111.198 E8.20246
G1 X132.335 Y110.871 E8.25262
G1 X132.954 Y110.641 E8.30007
G1 X133.522 Y110.502 E8.34208
G1 X134.079 Y110.342 E8.38371
G1 X134.657 Y110.103 E8.42864
G1 X135.166 Y109.807 E8.47095
G1 X135.631 Y109.452 E8.51297
G1 X136.043 Y109.046 E8.55453
G1 X136.394 Y108.599 E8.59536
G1 X136.702 Y108.086 E8.63835
G1 X136.935 Y107.547 E8.68053
G1 X137.087 Y107.031 E8.71918
G1 X137.185 Y106.416 E8.76392
G1 X137.221 Y105.809 E8.8076
G1 X137.223 Y100.011 E9.22414
G1 X137.187 Y99.507 E9.26044
G1 X137.103 Y98.817 E9.31038
G1 X136.958 Y98.3 E9.34896
G1 X136.728 Y97.759 E9.39119
G1 X136.432 Y97.252 E9.43337
G1 X136.086 Y96.799 E9.47432
G1 X135.686 Y96.393 E9.51526
G1 X135.222 Y96.031 E9.55754
G1 X134.734 Y95.736 E9.59851
G1 X133.987 Y95.232 E9.66325
G1 X133.473 Y94.762 E9.71329
G1 X133.035 Y94.242 E9.76213
G1 X132.662 Y93.665 E9.81149
G1 X132.368 Y93.049 E9.86053
G1 X132.152 Y92.404 E9.90939
G1 X132.021 Y91.731 E9.95865
G1 X131.974 Y91.052 E10.00755
G1 X131.974 Y88.743 E10.17343
G1 X131.936 Y88.22 E10.2111
G1 X131.862 Y87.719 E10.24749
G1 X131.691 Y87.086 E10.29459
G1 X131.485 Y86.601 E10.33245
G1 X131.178 Y86.07 E10.37651
G1 X130.836 Y85.623 E10.41695
G1 X130.423 Y85.204 E10.45921
G1 X129.968 Y84.846 E10.50081
G1 X129.482 Y84.555 E10.5415
G1 X128.934 Y84.316 E10.58445
G1 X128.394 Y84.157 E10.6249
G1 X127.802 Y84.063 E10.66796
G1 X127.204 Y84.027 E10.711
G1 X109.7 Y84.023 E11.96852
G1 X108.999 Y84.093 E12.01913
G1 X108.577 Y84.144 E12.04967
G1 X108.058 Y84.29 E12.0884
G1 X107.518 Y84.52 E12.13057
G1 X107.018 Y84.813 E12.1722
G1 X106.286 Y85.353 E12.23755
G1 X105.702 Y85.693 E12.2861
G1 X105.073 Y85.96 E12.33519
G1 X104.586 Y86.098 E12.37156
G1 X103.737 Y86.245 E12.43346
G1 X103.081 Y86.346 E12.48114
G1 X102.507 Y86.516 E12.52415
G1 X101.992 Y86.738 E12.56444
G1 X101.487 Y87.04 E12.60671
G1 X101.022 Y87.406 E12.64922
G1 X100.615 Y87.818 E12.69083
G1 X100.264 Y88.276 E12.73228
G0 F9000 X100.3 Y88.987
G1 F900 X128.576 Y117.262 E15.60507
G0 F9000 X128.18 Y119.129
G1 F900 X99.584 Y90.533 E18.51042
G0 F9000 X98.818 Y92.03
G1 F900 X128.719 Y121.931 E21.54835
G0 F9000 X129.568 Y125.042
G1 F900 X97.712 Y93.186 E24.78491
G0 F9000 X96.309 Y94.046
G1 F900 X129.567 Y127.304 E28.16392
G0 F9000 X129.566 Y129.566
G1 F900 X95.068 Y95.068 E31.66891
G0 F9000 X94.279 Y96.541
G1 F900 X129.566 Y131.828 E35.25406
G0 F9000 X129.339 Y133.865
G1 F900 X94.163 Y98.688 E38.82798
G0 F9000 X93.992 Y100.781
G1 F900 X128.515 Y135.304 E42.33551
G0 F9000 X127.239 Y136.29
G1 F900 X93.294 Y102.345 E45.78432
G0 F9000 X92.411 Y103.725
G1 F900 X125.423 Y136.737 E49.13833
G0 F9000 X123.168 Y136.745
G1 F900 X91.669 Y105.245 E52.33867
G0 F9000 X91.28 Y107.119
G1 F900 X120.906 Y136.745 E55.34867
G0 F9000 X118.59 Y136.692
G1 F900 X114.731 Y132.833 E55.74074
G0 F9000 X112.589 Y130.691
G1 F900 X91.964 Y110.066 E57.83624
G0 F9000 X91.856 Y112.221
G1 F900 X109.564 Y129.929 E59.63537
G0 F9000 X107.302 Y129.929
G1 F900 X91.513 Y114.14 E61.23952
G0 F9000 X90.813 Y115.703
G1 F900 X105.039 Y129.929 E62.68488
G0 F9000 X102.974 Y130.127
G1 F900 X89.924 Y117.077 E64.01076
G0 F9000 X89.502 Y118.917
G1 F900 X101.358 Y130.773 E65.21533
G0 F9000 X99.377 Y131.055
G1 F900 X89.497 Y121.175 E66.21913
G0 F9000 X89.498 Y123.439
G1 F900 X97.114 Y131.055 E66.99292
G0 F9000 X94.852 Y131.056
G1 F900 X89.501 Y125.705 E67.53658
G0 F9000 X89.738 Y128.204
G1 F900 X92.356 Y130.823 E67.80262
G0 F9000 X128.787 Y115.211
G1 F900 X101.296 Y87.72 E70.5957
G0 F9000 X102.719 Y86.88
G1 F900 X129.262 Y113.423 E73.29246
G0 F9000 X130.142 Y112.04
G1 F900 X104.609 Y86.507 E75.88661
G0 F9000 X106.218 Y85.853
G1 F900 X131.343 Y110.978 E78.4393
G0 F9000 X132.876 Y110.249
G1 F900 X107.576 Y84.948 E81.00982
G0 F9000 X109.344 Y84.454
G1 F900 X134.582 Y109.692 E83.574
G0 F9000 X135.833 Y108.68
G1 F900 X111.577 Y84.424 E86.0384
G0 F9000 X113.84 Y84.425
G1 F900 X136.63 Y107.214 E88.35381
G0 F9000 X136.82 Y105.142
G1 F900 X116.103 Y84.425 E90.45865
G0 F9000 X118.366 Y84.425
G1 F900 X136.821 Y102.88 E92.33368
G0 F9000 X136.821 Y100.617
G1 F900 X120.63 Y84.426 E93.97868
G0 F9000 X122.893 Y84.426
G1 F900 X132.306 Y93.84 E94.93509
G0 F9000 X131.574 Y90.844
G1 F900 X125.156 Y84.427 E95.58711
G0 F9000 X127.421 Y84.429
G1 F900 X131.562 Y88.57 E96.00783
G0 F9000 X132.786 Y92.857
G0 X134.573 Y96.107
G1 F900 X136.318 Y97.851 E96.18507
G0 F600 X136.318 Y97.851 Z0.486
G0 F9000 X133.04 Y110.204
;TIME_ELAPSED:94.726764
;LAYER:-5
;TYPE:SUPPORT
G1 F900 X136.78 Y106.464 E96.66005
G1 X136.763 Y106.655 E96.67727
G1 X136.642 Y107.188 E96.72635
G1 X136.465 Y107.673 E96.77272
G1 X136.229 Y108.135 E96.81931
G1 X135.917 Y108.59 E96.86885
G1 X135.559 Y108.989 E96.91699
G1 X135.173 Y109.324 E96.96289
G1 X134.732 Y109.619 E97.01053
G1 X134.265 Y109.853 E97.05744
G1 X133.735 Y110.038 E97.10785
G1 X132.864 Y110.245 E97.18825
G1 X132.179 Y110.502 E97.25395
G1 X131.529 Y110.841 E97.31978
G1 X130.927 Y111.262 E97.38575
G1 X130.382 Y111.756 E97.45181
G1 X129.908 Y112.312 E97.51742
G1 X129.504 Y112.925 E97.58335
G1 X129.182 Y113.583 E97.64914
G1 X128.945 Y114.279 E97.71516
G0 F9000 X126.751 Y136.508
G1 F900 X127.235 Y136.303 E97.76237
G1 X127.709 Y136.028 E97.81158
G1 X128.129 Y135.705 E97.85916
G1 X128.496 Y135.345 E97.90532
G1 X128.817 Y134.932 E97.9523
G1 X129.202 Y134.244 E98.0231
G1 X129.414 Y133.629 E98.08152
G1 X126.468 Y136.575 E98.45566
G1 X125.955 Y136.696 E98.50299
G1 X125.443 Y136.74 E98.54914
G1 X124.879 Y136.75 E98.59979
G1 X129.564 Y132.064 E99.19485
G1 X129.565 Y130.649 E99.32192
G1 X123.465 Y136.749 E100.09662
G1 X122.052 Y136.748 E100.22351
G1 X129.566 Y129.235 E101.17772
G1 X129.567 Y127.819 E101.30488
G1 X120.638 Y136.748 E102.43886
G1 X119.225 Y136.747 E102.56575
G1 X129.568 Y126.404 E103.87931
G1 X129.568 Y124.989 E104.00638
G1 X117.99 Y136.567 E105.47679
G1 X117.504 Y136.389 E105.52326
G1 X117.012 Y136.131 E105.57315
G1 X129.464 Y123.68 E107.15449
G1 X129.323 Y123.158 E107.20305
G1 X129.095 Y122.634 E107.25437
G1 X116.22 Y135.509 E108.88949
G1 X115.85 Y135.088 E108.93982
G1 X115.602 Y134.713 E108.98019
G1 X128.623 Y121.692 E110.63386
G1 X128.452 Y121.256 E110.67591
G1 X128.286 Y120.615 E110.73538
G1 X115.157 Y133.744 E112.40276
G1 X114.764 Y132.723 E112.501
G1 X128.179 Y119.308 E114.2047
G1 X128.18 Y119.083 E114.22491
G1 X128.275 Y118.359 E114.29048
G1 X128.474 Y117.598 E114.36112
G1 X114.115 Y131.958 E116.18477
G1 X113.719 Y131.53 E116.23714
G1 X113.398 Y131.26 E116.2748
G1 X128.739 Y115.919 E118.22311
G1 X128.798 Y114.999 E118.3059
G1 X128.94 Y114.304 E118.3696
G1 X112.565 Y130.678 E120.44915
G1 X111.877 Y130.345 E120.5178
G1 X111.582 Y130.248 E120.54568
G1 X136.82 Y105.01 E123.7509
G1 X136.82 Y103.595 E123.87797
G1 X110.443 Y129.973 E127.22791
G1 X109.742 Y129.929 E127.29098
G1 X109.072 Y129.929 E127.35115
G1 X136.821 Y102.18 E130.87526
G1 X136.822 Y100.765 E131.00234
G1 X107.658 Y129.929 E134.70616
G1 X106.244 Y129.928 E134.83314
G1 X136.772 Y99.4 E138.71018
G1 X136.715 Y98.912 E138.7543
G1 X136.504 Y98.255 E138.81627
G1 X104.83 Y129.928 E142.8388
G1 X104.458 Y129.928 E142.8722
G1 X103.751 Y129.972 E142.93582
G1 X103.282 Y130.063 E142.97872
G1 X136 Y97.344 E147.13396
G1 X135.777 Y97.053 E147.16688
G1 X135.319 Y96.611 E147.22404
G1 X101.042 Y130.888 E151.57721
G1 X100.478 Y131.004 E151.62892
G1 X99.455 Y131.061 E151.72093
G1 X134.474 Y96.042 E156.16834
G1 X133.641 Y95.461 E156.25954
G1 X98.041 Y131.06 E160.78067
G1 X96.628 Y131.059 E160.90756
G1 X132.938 Y94.75 E165.51885
G1 X132.694 Y94.456 E165.55316
G1 X132.351 Y93.922 E165.61016
G1 X95.215 Y131.058 E170.32642
G1 X93.801 Y131.057 E170.4534
G1 X131.91 Y92.949 E175.29317
G1 X131.756 Y92.479 E175.33758
G1 X131.627 Y91.817 E175.39815
G1 X92.553 Y130.891 E180.36054
G1 X92.014 Y130.7 E180.41189
G1 X91.561 Y130.469 E180.45756
G1 X131.572 Y90.458 E185.53894
G1 X131.572 Y89.044 E185.66592
G1 X90.765 Y129.851 E190.8484
G1 X90.71 Y129.802 E190.85501
G1 X90.361 Y129.399 E190.90289
G1 X90.138 Y129.064 E190.93903
G1 X131.46 Y87.742 E196.18691
G1 X131.41 Y87.491 E196.20989
G1 X131.241 Y87.005 E196.2561
G1 X131.088 Y86.7 E196.28674
G1 X89.698 Y128.09 E201.54326
G1 X89.653 Y127.961 E201.55553
G1 X89.551 Y127.452 E201.60215
G1 X89.505 Y126.869 E201.65467
G1 X130.514 Y85.86 E206.8628
G1 X130.353 Y85.675 E206.88482
G1 X129.768 Y85.191 E206.95301
G1 X89.497 Y125.462 E212.06741
G1 X89.497 Y124.048 E212.19439
G1 X128.841 Y84.704 E217.19107
G1 X128.553 Y84.599 E217.2186
G1 X128.03 Y84.482 E217.26673
G1 X127.681 Y84.45 E217.2982
G1 X89.497 Y122.634 E222.14756
G1 X89.497 Y121.22 E222.27454
G1 X126.292 Y84.425 E226.94749
G1 X124.877 Y84.425 E227.07456
G1 X89.497 Y119.805 E231.56781
G1 X89.497 Y118.97 E231.6428
G1 X89.546 Y118.342 E231.69936
G1 X123.464 Y84.425 E236.00688
G1 X122.05 Y84.425 E236.13386
G1 X90.882 Y115.592 E240.09212
G1 X91.176 Y115.065 E240.14631
G1 X91.451 Y114.384 E240.21227
G1 X91.636 Y113.673 E240.27824
G1 X91.673 Y113.387 E240.30414
G1 X120.636 Y84.424 E243.98243
G1 X119.222 Y84.424 E244.10941
G1 X91.969 Y111.677 E247.57054
G1 X91.981 Y111.616 E247.57612
G1 X92.027 Y110.884 E247.64199
G1 X91.988 Y110.243 E247.69965
G1 X117.808 Y84.423 E250.97879
G1 X116.394 Y84.423 E251.10577
G1 X91.734 Y109.083 E254.23758
G1 X91.641 Y108.797 E254.26459
G1 X91.384 Y108.019 E254.33817
G1 X114.981 Y84.422 E257.33498
G1 X113.567 Y84.422 E257.46196
G1 X91.281 Y106.708 E260.29228
G1 X91.32 Y106.334 E260.32605
G1 X91.439 Y105.826 E260.3729
G1 X91.744 Y105.059 E260.44702
G1 X91.977 Y104.598 E260.49341
G1 X112.153 Y84.422 E263.05576
G1 X110.739 Y84.422 E263.18274
G1 X93.798 Y101.363 E265.33424
G1 X93.99 Y100.815 E265.38638
G1 X94.143 Y100.097 E265.45231
G1 X94.19 Y99.557 E265.50099
G1 X109.29 Y84.456 E267.41875
G1 X108.668 Y84.531 E267.47501
G1 X108.186 Y84.668 E267.52001
G1 X107.7 Y84.874 E267.56741
G1 X107.043 Y85.289 E267.63719
G1 X94.13 Y98.202 E269.27714
G1 X94.089 Y97.698 E269.32255
G1 X94.132 Y97.133 E269.37344
G1 X94.311 Y96.385 E269.44251
G1 X94.514 Y95.89 E269.49055
G1 X94.772 Y95.436 E269.53744
G1 X95.083 Y95.021 E269.58402
G1 X95.444 Y94.644 E269.63089
G1 X95.878 Y94.296 E269.68085
G1 X96.331 Y94.02 E269.72848
G1 X97.289 Y93.503 E269.82624
G1 X97.877 Y93.065 E269.89208
G1 X98.562 Y92.356 E269.98062
G1 X104.36 Y86.558 E270.71696
G1 X103.149 Y86.741 E270.82695
G1 X102.589 Y86.914 E270.87958
G1 X100.049 Y89.455 E271.20222
G1 X100.33 Y88.93 E271.2557
G1 X100.597 Y88.493 E271.30169
G1 X100.921 Y88.07 E271.34954
G1 X101.283 Y87.705 E271.3957
G1 X101.727 Y87.357 E271.44636
G1 X102.17 Y87.095 E271.49258
G0 F9000 X97.783 Y93.135
G1 F900 X94.241 Y96.677 E271.94241
G0 F600 X94.241 Y96.677 Z0.666
G0 F9000 X91.761 Y130.794
;TIME_ELAPSED:225.807803
;LAYER:-4
;TYPE:SUPPORT-INTERFACE
G1 F1200 X89.762 Y128.795 E272.02704
G1 X90.204 Y129.522 E272.05251
G1 X90.571 Y129.946 E272.06929
G1 X90.985 Y130.316 E272.08591
G1 X91.445 Y130.632 E272.10262
G1 X91.948 Y130.89 E272.11954
G1 X92.464 Y131.074 E272.13594
G1 X92.65 Y131.117 E272.14165
G1 X89.438 Y127.905 E272.27763
G1 X89.333 Y127.233 E272.29799
G1 X93.326 Y131.226 E272.46702
G1 X93.921 Y131.256 E272.48486
G1 X89.296 Y126.632 E272.68063
G1 X89.296 Y126.066 E272.69757
G1 X94.487 Y131.256 E272.9173
G1 X95.053 Y131.257 E272.93424
G1 X89.296 Y125.5 E273.17796
G1 X89.296 Y124.935 E273.19487
G1 X95.619 Y131.257 E273.46252
G1 X96.185 Y131.258 E273.47946
G1 X89.296 Y124.369 E273.7711
G1 X89.296 Y123.803 E273.78804
G1 X96.752 Y131.258 E274.10366
G1 X97.317 Y131.258 E274.12057
G1 X89.296 Y123.238 E274.4601
G1 X89.296 Y122.672 E274.47705
G1 X97.884 Y131.259 E274.84058
G1 X98.449 Y131.259 E274.85749
G1 X89.296 Y122.106 E275.24497
G1 X89.296 Y121.541 E275.26188
G1 X99.016 Y131.26 E275.67334
G1 X99.581 Y131.26 E275.69025
G1 X89.296 Y120.975 E276.12565
G1 X89.296 Y120.409 E276.14259
