;FLAVOR:Marlin
;TIME:5709
;Filament used: 3.62296m
;Layer height: 0.18
;MINX:79.119
;MINY:87.141
;MINZ:0.216
;MAXX:142.581
;MAXY:141.07
;MAXZ:15.036
;Generated with Cura_SteamEngine 5.0.0
M140 S100
M105
M190 S100
M104 S250
M105
M109 S250
M82 ;absolute extrusion mode
G28 ;Home
G1 Z15.0 F6000 ;Move the platform down 15mm
;Prime the extruder
G92 E0
G1 F200 E3
G92 E0
G92 E0
G92 E0
G1 F2700 E-5
;LAYER_COUNT:78
;LAYER:-6
M107
G0 F9000 X82.064 Y91.36 Z0.216
;TYPE:SUPPORT-INTERFACE
G1 F2700 E0
G1 F900 X81.537 Y92.065 E0.06324
G1 X81.204 Y92.623 E0.10992
G1 X80.907 Y93.24 E0.15911
G1 X80.675 Y93.851 E0.20607
G1 X80.479 Y94.571 E0.25968
G1 X80.371 Y95.139 E0.30121
G1 X80.303 Y95.8 E0.34895
G1 X80.296 Y96.324 E0.3866
G1 X80.344 Y97.035 E0.43779
G1 X80.437 Y97.65 E0.48248
G1 X80.604 Y98.512 E0.54556
G1 X80.659 Y99.186 E0.59414
G1 X80.628 Y99.869 E0.64326
G1 X80.512 Y100.542 E0.69232
G1 X80.31 Y101.195 E0.74143
G1 X79.964 Y101.935 E0.80012
G1 X79.721 Y102.489 E0.84358
G1 X79.453 Y103.221 E0.89958
G1 X79.286 Y103.837 E0.94543
G1 X79.191 Y104.361 E0.98369
G1 X79.12 Y105.053 E1.03367
G1 X79.119 Y105.813 E1.08827
G1 X79.164 Y106.353 E1.12719
G1 X79.288 Y107.064 E1.17904
G1 X79.433 Y107.628 E1.22088
G1 X79.602 Y108.255 E1.26753
G1 X79.684 Y108.59 E1.29231
G1 X79.76 Y109.237 E1.33911
G1 X79.764 Y109.999 E1.39386
G1 X79.813 Y110.74 E1.44721
G1 X79.924 Y111.273 E1.48632
G1 X80.124 Y111.847 E1.52999
G1 X80.393 Y112.423 E1.57566
G1 X84.288 Y119.665 E2.16642
G1 X84.674 Y120.239 E2.21611
G1 X85.057 Y120.68 E2.25807
G1 X85.489 Y121.066 E2.29969
G1 X86.089 Y121.515 E2.35353
G1 X86.582 Y121.969 E2.40168
G1 X87.023 Y122.491 E2.45077
G1 X87.396 Y123.068 E2.50013
G1 X87.689 Y123.682 E2.54901
G1 X87.905 Y124.326 E2.59781
G1 X88.037 Y125.002 E2.64729
G1 X88.084 Y125.68 E2.69612
G1 X88.084 Y129.328 E2.9582
G1 X88.157 Y130.105 E3.01426
G1 X88.286 Y130.72 E3.05941
G1 X88.588 Y131.676 E3.13143
G1 X90.032 Y136.063 E3.46324
G1 X90.253 Y136.61 E3.50562
G1 X90.578 Y137.245 E3.55687
G1 X90.875 Y137.727 E3.59754
G1 X91.361 Y138.368 E3.65533
G1 X91.761 Y138.809 E3.69811
G1 X92.327 Y139.325 E3.75313
G1 X92.769 Y139.667 E3.79328
G1 X93.429 Y140.086 E3.84944
G1 X93.872 Y140.323 E3.88554
G1 X94.339 Y140.527 E3.92215
G1 X95.09 Y140.779 E3.97906
G1 X95.857 Y140.959 E4.03566
G1 X96.554 Y141.046 E4.08612
G1 X97.112 Y141.07 E4.12625
G1 X97.713 Y141.047 E4.16945
G1 X98.437 Y140.962 E4.22183
G1 X99.041 Y140.832 E4.26621
G1 X99.764 Y140.613 E4.32048
G1 X100.311 Y140.388 E4.36298
G1 X100.839 Y140.123 E4.40542
G1 X101.294 Y139.851 E4.4435
G1 X101.741 Y139.534 E4.48287
G1 X102.336 Y139.041 E4.53838
G1 X102.689 Y138.692 E4.57405
G1 X104.891 Y136.385 E4.80316
G1 X105.223 Y135.977 E4.84095
G1 X105.671 Y135.337 E4.89708
G1 X106.001 Y134.843 E4.93976
G1 X106.344 Y134.418 E4.97899
G1 X106.823 Y133.955 E5.02685
G1 X107.363 Y133.55 E5.07535
G1 X107.956 Y133.211 E5.12442
G1 X108.585 Y132.952 E5.17329
G1 X109.243 Y132.772 E5.2223
G1 X109.923 Y132.678 E5.27162
G1 X110.602 Y132.67 E5.3204
G1 X111.284 Y132.747 E5.36971
G1 X111.946 Y132.908 E5.41865
G1 X112.582 Y133.154 E5.46764
G1 X113.183 Y133.478 E5.51669
G1 X113.85 Y133.975 E5.57645
G1 X114.339 Y134.331 E5.61991
G1 X114.919 Y134.719 E5.67004
G1 X115.386 Y134.985 E5.70865
G1 X116.068 Y135.323 E5.76333
G1 X116.574 Y135.522 E5.8024
G1 X117.066 Y135.697 E5.83991
G1 X117.64 Y135.857 E5.88272
G1 X118.383 Y136.008 E5.93719
G1 X118.897 Y136.076 E5.97444
G1 X119.424 Y136.118 E6.01242
G1 X120.019 Y136.131 E6.05518
G1 X120.564 Y136.107 E6.09437
G1 X121.312 Y136.031 E6.14838
G1 X121.822 Y135.94 E6.1856
G1 X122.387 Y135.804 E6.22735
G1 X123.075 Y135.597 E6.27897
G1 X123.592 Y135.397 E6.31879
G1 X124.055 Y135.201 E6.35491
G1 X124.666 Y134.877 E6.4046
G1 X125.17 Y134.569 E6.44703
G1 X125.612 Y134.258 E6.48586
G1 X126.135 Y133.846 E6.53369
G1 X126.548 Y133.472 E6.57372
G1 X127.029 Y132.985 E6.62289
G1 X127.406 Y132.538 E6.6649
G1 X127.742 Y132.089 E6.70519
G1 X128.118 Y131.528 E6.75371
G1 X128.4 Y131.026 E6.79508
G1 X128.686 Y130.432 E6.84244
G1 X128.926 Y129.844 E6.88806
G1 X129.112 Y129.283 E6.93053
G1 X129.318 Y128.64 E6.97903
G1 X129.478 Y128.197 E7.01287
G1 X129.781 Y127.603 E7.06078
G1 X130.162 Y127.04 E7.10961
G1 X130.617 Y126.527 E7.15888
G1 X131.122 Y126.086 E7.20704
G1 X131.674 Y125.708 E7.25511
G1 X132.279 Y125.402 E7.30381
G1 X132.753 Y125.229 E7.34007
G1 X133.355 Y125.069 E7.38482
G1 X134.135 Y124.882 E7.44244
G1 X134.678 Y124.67 E7.48432
G1 X135.195 Y124.391 E7.52652
G1 X135.973 Y123.855 E7.5944
G1 X136.579 Y123.534 E7.64366
G1 X137.171 Y123.314 E7.68904
G1 X137.709 Y123.128 E7.72993
G1 X138.383 Y122.834 E7.78276
G1 X139.185 Y122.379 E7.849
G1 X139.922 Y121.835 E7.91481
G1 X140.369 Y121.429 E7.95819
G1 X140.793 Y120.973 E8.00293
G1 X141.144 Y120.533 E8.04336
G1 X141.547 Y119.929 E8.09553
G1 X141.922 Y119.238 E8.15201
G1 X142.213 Y118.516 E8.20794
G1 X142.39 Y117.941 E8.25116
G1 X142.522 Y117.249 E8.30177
G1 X142.566 Y116.685 E8.34241
G1 X142.578 Y116.034 E8.38919
G1 X142.581 Y115.709 E8.41254
G1 X142.548 Y114.907 E8.4702
G1 X142.429 Y114.255 E8.51782
G1 X142.263 Y113.666 E8.56178
G1 X142.069 Y113.139 E8.60213
G1 X141.747 Y112.471 E8.6554
G1 X141.49 Y112.004 E8.6937
G1 X141.183 Y111.545 E8.73337
G1 X140.87 Y111.143 E8.76997
G1 X140.527 Y110.76 E8.80691
G1 X140.057 Y110.312 E8.85355
G1 X139.627 Y109.963 E8.89334
G1 X138.993 Y109.541 E8.94805
G1 X138.305 Y109.166 E9.00435
G1 X137.276 Y108.598 E9.08879
G1 X136.733 Y108.172 E9.13837
G1 X136.377 Y107.811 E9.17479
G1 X135.999 Y107.352 E9.21751
G1 X135.574 Y106.683 E9.27445
G1 X135.351 Y106.204 E9.31241
G1 X135.218 Y105.876 E9.33784
G1 X135.045 Y105.242 E9.38505
G1 X134.95 Y104.576 E9.43338
G1 X134.94 Y103.887 E9.48289
G1 X135.004 Y103.305 E9.52495
G1 X135.087 Y102.758 E9.5647
G1 X135.162 Y102.146 E9.609
G1 X135.192 Y101.545 E9.65223
G1 X135.179 Y100.829 E9.70367
G1 X135.124 Y100.227 E9.7471
G1 X135.013 Y99.495 E9.80029
G1 X134.875 Y98.914 E9.84319
G1 X134.659 Y98.188 E9.89761
G1 X134.39 Y97.505 E9.95035
G1 X134.048 Y96.804 E10.00638
G1 X133.777 Y96.33 E10.04561
G1 X133.378 Y95.73 E10.09737
G1 X133.048 Y95.302 E10.1362
G1 X132.717 Y94.916 E10.17273
G1 X132.162 Y94.35 E10.22968
G1 X131.722 Y93.964 E10.27173
G1 X131.133 Y93.513 E10.32503
G1 X130.666 Y93.203 E10.36529
G1 X130.185 Y92.92 E10.40539
G1 X129.64 Y92.647 E10.44918
G1 X128.959 Y92.366 E10.5021
G1 X128.465 Y92.199 E10.53957
G1 X127.978 Y92.064 E10.57587
G1 X127.291 Y91.91 E10.62645
G1 X126.793 Y91.836 E10.66262
G1 X126.174 Y91.781 E10.70727
G1 X125.457 Y91.76 E10.7588
G1 X124.675 Y91.803 E10.81507
G1 X123.975 Y91.896 E10.8658
G1 X123.134 Y91.962 E10.9264
G1 X122.469 Y91.92 E10.97427
G1 X121.794 Y91.792 E11.02363
G1 X121.145 Y91.58 E11.07268
G1 X120.532 Y91.29 E11.1214
G1 X119.952 Y90.922 E11.17075
G1 X119.427 Y90.485 E11.21982
G1 X118.964 Y89.988 E11.26862
G1 X118.565 Y89.431 E11.31784
G1 X118.24 Y88.95 E11.35955
G1 X117.858 Y88.511 E11.40135
G1 X117.432 Y88.131 E11.44237
G1 X116.94 Y87.793 E11.48525
G1 X116.422 Y87.527 E11.52708
G1 X115.89 Y87.336 E11.56769
G1 X115.323 Y87.207 E11.60947
G1 X114.641 Y87.144 E11.65867
G1 X92.043 Y87.141 E13.28216
G1 X91.27 Y87.212 E13.33792
G1 X90.653 Y87.341 E13.38321
G1 X90.282 Y87.45 E13.41099
G1 X85.329 Y89.078 E13.78555
G1 X84.793 Y89.292 E13.82701
G1 X84.119 Y89.637 E13.88141
G1 X83.59 Y89.967 E13.9262
G1 X83 Y90.419 E13.9796
G1 X82.571 Y90.805 E14.02106
G1 X82.064 Y91.36 E14.07506
G0 F9000 X82.463 Y91.514
G1 F900 X125.085 Y134.136 E18.40545
G0 F9000 X126.333 Y133.122
G1 F900 X83.642 Y90.43 E22.74289
G0 F9000 X85.081 Y89.607
G1 F900 X127.378 Y131.904 E27.04026
G0 F9000 X128.217 Y130.48
G1 F900 X86.764 Y89.027 E31.25187
G0 F9000 X88.468 Y88.468
G1 F900 X128.835 Y128.835 E35.35315
G0 F9000 X129.527 Y127.265
G1 F900 X90.17 Y87.908 E39.35182
G0 F9000 X92.067 Y87.541
G1 F900 X130.566 Y126.041 E43.26336
G0 F9000 X131.923 Y125.135
G1 F900 X94.33 Y87.541 E47.08285
G0 F9000 X96.592 Y87.541
G1 F900 X133.638 Y124.587 E50.84671
G0 F9000 X135.209 Y123.895
G1 F900 X98.856 Y87.542 E54.54017
G0 F9000 X101.119 Y87.542
G1 F900 X136.652 Y123.076 E58.15037
G0 F9000 X138.274 Y122.434
G1 F900 X103.382 Y87.543 E61.69533
G0 F9000 X105.645 Y87.543
G1 F900 X139.633 Y121.531 E65.14851
G0 F9000 X140.747 Y120.382
G1 F900 X107.908 Y87.543 E68.48494
G0 F9000 X110.171 Y87.544
G1 F900 X141.591 Y118.963 E71.67716
G0 F9000 X142.115 Y117.224
G1 F900 X112.434 Y87.544 E74.69269
G0 F9000 X114.704 Y87.551
G1 F900 X142.131 Y114.979 E77.47932
G0 F9000 X134.641 Y105.225
G1 F900 X121.551 Y92.136 E78.80921
G0 F9000 X123.976 Y92.297
G1 F900 X134.65 Y102.971 E79.89368
G0 F9000 X134.777 Y100.836
G1 F900 X126.122 Y92.181 E80.77303
G0 F9000 X129.033 Y92.829
G1 F900 X134.128 Y97.924 E81.29068
G0 F9000 X123.631 Y134.944
G1 F900 X81.547 Y92.86 E85.5664
G0 F9000 X80.917 Y94.494
G1 F900 X121.931 Y135.507 E89.73337
G0 F9000 X119.891 Y135.73
G1 F900 X80.711 Y96.551 E93.714
G0 F9000 X81.057 Y99.158
G1 F900 X117.22 Y135.322 E97.3882
G0 F9000 X112.222 Y132.586
G1 F900 X80.752 Y101.116 E100.58554
G0 F9000 X80.067 Y102.694
G1 F900 X109.68 Y132.307 E103.59422
G0 F9000 X107.906 Y132.796
G1 F900 X79.583 Y104.473 E106.47183
G0 F9000 X79.636 Y106.789
G1 F900 X106.529 Y133.682 E109.20415
G0 F9000 X105.48 Y134.896
G1 F900 X80.159 Y109.575 E111.77676
G0 F9000 X80.965 Y112.643
G1 F900 X104.515 Y136.193 E114.16943
G0 F9000 X103.412 Y137.354
G1 F900 X83.604 Y117.545 E116.18197
G0 F9000 X88.359 Y124.563
G1 F900 X102.308 Y138.512 E117.59919
G0 F9000 X101.054 Y139.52
G1 F900 X88.483 Y126.949 E118.8764
G0 F9000 X88.488 Y129.218
G1 F900 X99.535 Y140.264 E119.99872
G0 F9000 X97.65 Y140.642
G1 F900 X89.169 Y132.161 E120.86039
G0 F9000 X90.279 Y135.533
G1 F900 X95.106 Y140.361 E121.35086
G0 F600 X95.106 Y140.361 Z0.486
G0 F9000 X100.651 Y139.764
;TIME_ELAPSED:117.926549
;LAYER:-5
;TYPE:SUPPORT
G1 F900 X105.399 Y135.016 E121.95386
G0 F9000 X108.173 Y133.618
G0 X109.101 Y133.289
G0 X128.144 Y130.656
G1 F900 X124.048 Y134.752 E122.47405
G1 X124.597 Y134.457 E122.53002
G1 X125.358 Y133.952 E122.61203
G1 X126.041 Y133.402 E122.69078
G1 X126.578 Y132.887 E122.7576
G1 X127.195 Y132.167 E122.84275
G1 X127.665 Y131.504 E122.91573
G1 X128.089 Y130.772 E122.9917
G1 X128.31 Y130.309 E123.03777
G1 X128.609 Y129.558 E123.11036
G1 X128.972 Y128.414 E123.21814
G1 X121.871 Y135.514 E124.1199
G1 X121.483 Y135.599 E124.15557
G1 X120.973 Y135.674 E124.20187
G1 X120.246 Y135.726 E124.26732
G1 X141.947 Y114.025 E127.02334
G1 X141.882 Y113.787 E127.0455
G1 X141.567 Y112.99 E127.12246
G1 X118.892 Y135.666 E130.00224
G1 X118.226 Y135.577 E130.06258
G1 X117.687 Y135.456 E130.11219
G1 X141.061 Y112.082 E133.08068
G1 X140.871 Y111.794 E133.11166
G1 X140.447 Y111.282 E133.17136
G1 X116.618 Y135.111 E136.19764
G1 X115.645 Y134.67 E136.29357
G1 X139.743 Y110.572 E139.35401
G1 X138.928 Y109.973 E139.44484
G1 X114.762 Y134.138 E142.51385
G1 X114.524 Y133.981 E142.53946
G1 X113.952 Y133.534 E142.60465
G1 X138.018 Y109.469 E145.66096
G1 X137.831 Y109.38 E145.67956
G1 X137.109 Y108.963 E145.75443
G1 X113.096 Y132.977 E148.80414
G1 X112.775 Y132.801 E148.83701
G1 X112.116 Y132.542 E148.9006
G1 X136.326 Y108.332 E151.97526
G1 X135.933 Y107.929 E152.02581
G1 X135.666 Y107.577 E152.06549
G1 X110.94 Y132.303 E155.20568
G1 X110.651 Y132.269 E155.23182
G1 X109.919 Y132.274 E155.29755
G1 X109.499 Y132.33 E155.3356
G1 X135.125 Y106.705 E158.59004
G1 X134.845 Y106.03 E158.65566
G1 X134.745 Y105.67 E158.68921
G1 X107.286 Y133.129 E162.1765
G1 X107.164 Y133.198 E162.18909
G1 X106.576 Y133.636 E162.25493
G1 X106.048 Y134.144 E162.32073
G1 X105.59 Y134.712 E162.38625
G1 X105.126 Y135.452 E162.46469
G1 X104.605 Y136.101 E162.53943
G1 X102.232 Y138.592 E162.84838
G1 X101.852 Y138.944 E162.8949
G1 X101.165 Y139.464 E162.97227
G1 X100.428 Y139.894 E163.0489
G1 X99.74 Y140.204 E163.11666
G1 X99.257 Y140.364 E163.16235
G1 X98.441 Y140.56 E163.23772
G1 X134.546 Y104.455 E167.82304
G1 X134.539 Y103.861 E167.87639
G1 X134.655 Y102.932 E167.96046
G1 X96.926 Y140.661 E172.75204
G1 X96.29 Y140.621 E172.80926
G1 X95.665 Y140.508 E172.8663
G1 X134.79 Y101.383 E177.83516
G1 X134.772 Y100.667 E177.89948
G1 X134.698 Y100.06 E177.9544
G1 X94.576 Y140.182 E183.04988
G1 X94.347 Y140.099 E183.07175
G1 X93.618 Y139.727 E183.14525
G1 X134.457 Y98.887 E188.33185
G1 X134.305 Y98.378 E188.37956
G1 X134.085 Y97.845 E188.43134
G1 X92.766 Y139.164 E193.67884
G1 X92.461 Y138.916 E193.71414
G1 X92.019 Y138.497 E193.76884
G1 X133.628 Y96.888 E199.05317
G1 X133.48 Y96.611 E199.08137
G1 X133.087 Y96.015 E199.14548
G1 X91.376 Y137.726 E204.44277
G1 X91.13 Y137.389 E204.48024
G1 X90.829 Y136.859 E204.53497
G1 X132.46 Y95.228 E209.8221
G1 X132.456 Y95.223 E209.82267
G1 X131.75 Y94.523 E209.91195
G1 X90.395 Y135.878 E215.16403
G1 X90.359 Y135.794 E215.17223
G1 X90.041 Y134.818 E215.26442
G1 X130.964 Y93.895 E220.46163
G1 X130.538 Y93.594 E220.50847
G1 X130.104 Y93.341 E220.55358
G1 X89.692 Y133.752 E225.68583
G1 X89.344 Y132.687 E225.78645
G1 X129.158 Y92.872 E230.84288
G1 X128.586 Y92.652 E230.89791
G1 X128.104 Y92.512 E230.94298
G1 X88.995 Y131.621 E235.90982
G1 X88.682 Y130.663 E236.00032
G1 X88.656 Y130.546 E236.01109
G1 X126.947 Y92.255 E240.87403
G1 X126.512 Y92.201 E240.9134
G1 X125.629 Y92.159 E240.99278
G1 X88.485 Y129.303 E245.71006
G1 X88.485 Y127.889 E245.83704
G1 X124.09 Y92.284 E250.35886
G1 X123.129 Y92.363 E250.44546
G1 X122.63 Y92.329 E250.49037
G1 X88.484 Y126.475 E254.8269
G1 X88.483 Y125.679 E254.89839
G1 X88.447 Y125.098 E254.95066
G1 X121.445 Y92.1 E259.1414
G1 X120.971 Y91.945 E259.18618
G1 X120.442 Y91.689 E259.23896
G1 X88.197 Y123.934 E263.33406
G1 X88.072 Y123.556 E263.36982
G1 X87.78 Y122.937 E263.43128
G1 X119.581 Y91.136 E267.47
G1 X119.132 Y90.759 E267.52265
G1 X118.849 Y90.453 E267.56008
G1 X87.211 Y122.092 E271.57816
G1 X86.691 Y121.526 E271.64718
G1 X86.725 Y121.478 E271.65246
G1 X86.543 Y121.345 E271.67271
G1 X118.233 Y89.656 E275.69726
G1 X117.927 Y89.197 E275.7468
G1 X117.625 Y88.849 E275.78818
G1 X85.728 Y120.746 E279.83909
G1 X85.331 Y120.391 E279.88692
G1 X85.024 Y120.036 E279.92907
G1 X116.849 Y88.211 E283.97083
G1 X116.747 Y88.142 E283.98189
G1 X116.272 Y87.897 E284.02989
G1 X115.889 Y87.757 E284.06651
G1 X84.475 Y119.171 E288.05608
G1 X83.98 Y118.251 E288.14989
G1 X114.684 Y87.548 E292.04923
G1 X113.274 Y87.543 E292.17585
G1 X83.486 Y117.331 E295.95892
G1 X82.991 Y116.412 E296.05266
G1 X111.86 Y87.543 E299.71901
G1 X110.446 Y87.543 E299.84599
G1 X82.497 Y115.492 E303.39551
G1 X82.002 Y114.573 E303.48925
G1 X109.032 Y87.543 E306.92205
G1 X107.618 Y87.542 E307.04903
G1 X81.508 Y113.653 E310.36506
G1 X81.013 Y112.734 E310.4588
G1 X106.204 Y87.542 E313.65811
G1 X104.79 Y87.542 E313.78509
G1 X80.536 Y111.796 E316.86534
G1 X80.388 Y111.452 E316.89897
G1 X80.211 Y110.707 E316.96774
G1 X103.376 Y87.542 E319.90968
G1 X101.962 Y87.541 E320.03666
G1 X80.161 Y109.343 E322.80545
G1 X80.16 Y109.221 E322.81641
G1 X80.074 Y108.491 E322.88241
G1 X79.978 Y108.112 E322.91752
G1 X100.548 Y87.541 E325.52997
G1 X99.134 Y87.541 E325.65695
G1 X79.681 Y106.994 E328.12748
G1 X79.602 Y106.608 E328.16286
G1 X79.517 Y105.744 E328.24082
G1 X97.72 Y87.541 E330.5526
G1 X96.306 Y87.541 E330.67958
G1 X79.613 Y104.234 E332.79959
G1 X79.62 Y104.168 E332.80555
G1 X79.813 Y103.366 E332.87962
G1 X79.99 Y102.859 E332.92785
G1 X80.326 Y102.106 E333.0019
G1 X94.892 Y87.541 E334.85171
G1 X93.478 Y87.541 E334.97869
G1 X81.011 Y100.007 E336.56193
G1 X81.023 Y99.94 E336.56805
G1 X81.062 Y99.207 E336.63396
G1 X81.013 Y98.591 E336.68946
G1 X92.063 Y87.541 E338.0928
G1 X91.943 Y87.541 E338.10358
G1 X91.314 Y87.599 E338.16031
G1 X90.331 Y87.859 E338.25162
G1 X80.794 Y97.396 E339.46281
G1 X80.707 Y96.635 E339.5316
G1 X80.704 Y96.071 E339.58225
G1 X88.23 Y88.546 E340.53798
G1 X86.129 Y89.233 E340.73649
G1 X80.93 Y94.431 E341.3967
G1 X80.978 Y94.228 E341.41543
G1 X81.291 Y93.356 E341.49863
G1 X81.634 Y92.667 E341.56775
G1 X81.928 Y92.197 E341.61753
G1 X82.425 Y91.548 E341.69094
G1 X82.981 Y90.962 E341.76348
G0 F9000 X129.096 Y128.061
G1 F900 X129.43 Y127.406 E341.82951
G1 X129.841 Y126.799 E341.89534
G1 X130.327 Y126.248 E341.96132
