;FLAVOR:Marlin
;TIME:131
;Filament used: 0.0640856m
;Layer height: 0.2
;MINX:92.123
;MINY:92.113
;MINZ:0.3
;MAXX:118.387
;MAXY:118.388
;MAXZ:1.5
;Generated with Cura_SteamEngine 5.0.0
M140 S40
M105
M190 S40
M104 S210
M105
M109 S210
M82 ;absolute extrusion mode
G28 ;Home
G1 Z15.0 F6000 ;Move the platform down 15mm
;Prime the extruder
G92 E0
G1 F200 E3
G92 E0
G92 E0
G92 E0
;LAYER_COUNT:7
;LAYER:0
M107
G0 F3600 X95.028 Y103.641 Z0.3
G0 X92.123 Y110.219
;TYPE:SKIRT
G1 F600 X92.127 Y109.661 E0.02784
G1 X92.193 Y108.873 E0.06729
G1 X92.353 Y108.016 E0.11079
G1 X92.538 Y107.387 E0.1435
G1 X92.848 Y106.591 E0.18611
G1 X93.103 Y106.066 E0.21523
G1 X93.485 Y105.404 E0.25336
G1 X93.806 Y104.951 E0.28106
G1 X94.227 Y104.443 E0.31398
G1 X94.647 Y104.001 E0.3444
G1 X95.028 Y103.641 E0.37055
G1 X95.366 Y103.34 E0.39313
G1 X97.347 Y101.526 E0.52714
G1 X99.31 Y99.625 E0.66347
G1 X101.196 Y97.692 E0.7982
G1 X103.95 Y94.703 E1.00097
G1 X104.376 Y94.285 E1.03075
G1 X104.847 Y93.882 E1.06168
G1 X105.323 Y93.541 E1.09089
G1 X106.165 Y93.05 E1.13952
G1 X106.981 Y92.682 E1.18418
G1 X107.592 Y92.471 E1.21642
G1 X108.416 Y92.262 E1.25884
G1 X109.053 Y92.166 E1.29097
G1 X109.848 Y92.113 E1.33073
G1 X110.843 Y92.158 E1.38042
G1 X111.373 Y92.231 E1.40711
G1 X112.272 Y92.426 E1.453
G1 X113.123 Y92.719 E1.49791
G1 X113.816 Y93.04 E1.53601
G1 X114.352 Y93.337 E1.56658
G1 X114.78 Y93.615 E1.59204
G1 X115.26 Y93.974 E1.62195
G1 X115.671 Y94.329 E1.64904
G1 X116.114 Y94.767 E1.68012
G1 X116.734 Y95.499 E1.72798
G1 X117.299 Y96.372 E1.77986
G1 X117.633 Y97.04 E1.81712
G1 X117.873 Y97.626 E1.84871
G1 X118.054 Y98.177 E1.87765
G1 X118.187 Y98.698 E1.90447
G1 X118.339 Y99.637 E1.95193
G1 X118.374 Y100.167 E1.97843
G1 X118.384 Y100.708 E2.00543
G1 X118.337 Y102.223 E2.08105
G1 X118.287 Y104.906 E2.21492
G1 X118.314 Y107.667 E2.35268
G1 X118.387 Y109.832 E2.46075
G1 X118.367 Y110.569 E2.49753
G1 X118.298 Y111.217 E2.53005
G1 X118.151 Y111.957 E2.56769
G1 X118.015 Y112.45 E2.5932
G1 X117.793 Y113.082 E2.62662
G1 X117.583 Y113.562 E2.65276
G1 X117.341 Y114.036 E2.67931
G1 X117.059 Y114.512 E2.70691
G1 X116.773 Y114.932 E2.73226
G1 X116.384 Y115.431 E2.76383
G1 X115.946 Y115.906 E2.79606
G1 X115.437 Y116.384 E2.8309
G1 X114.992 Y116.74 E2.85933
G1 X114.11 Y117.309 E2.9117
G1 X113.46 Y117.633 E2.94793
G1 X112.874 Y117.873 E2.97952
G1 X112.323 Y118.054 E3.00846
G1 X111.795 Y118.189 E3.03565
G1 X110.867 Y118.338 E3.08254
G1 X110.326 Y118.374 E3.10959
G1 X109.786 Y118.384 E3.13653
G1 X108.273 Y118.337 E3.21205
G1 X105.588 Y118.287 E3.34603
G1 X102.866 Y118.314 E3.48184
G1 X100.666 Y118.388 E3.59166
G1 X99.914 Y118.366 E3.62919
G1 X99.276 Y118.297 E3.66121
G1 X98.541 Y118.15 E3.69861
G1 X98.05 Y118.015 E3.72401
G1 X97.421 Y117.794 E3.75727
G1 X96.934 Y117.581 E3.78379
G1 X96.459 Y117.338 E3.81041
G1 X95.982 Y117.055 E3.83808
G1 X95.563 Y116.769 E3.86339
G1 X95.068 Y116.383 E3.89471
G1 X94.594 Y115.946 E3.92687
G1 X94.111 Y115.43 E3.96213
G1 X93.773 Y115.009 E3.98907
G1 X93.436 Y114.512 E4.01903
G1 X93.103 Y113.937 E4.05218
G1 X92.853 Y113.427 E4.08051
G1 X92.627 Y112.874 E4.11032
G1 X92.446 Y112.323 E4.13925
G1 X92.312 Y111.797 E4.16633
G1 X92.158 Y110.825 E4.21543
G1 X92.123 Y110.219 E4.24571
G0 F3600 X92.523 Y110.196
G1 F600 X92.526 Y109.689 E4.27101
G1 X92.589 Y108.93 E4.30901
G1 X92.739 Y108.123 E4.34996
G1 X92.915 Y107.52 E4.3813
G1 X93.208 Y106.765 E4.4217
G1 X93.463 Y106.24 E4.45082
G1 X93.826 Y105.614 E4.48692
G1 X94.117 Y105.202 E4.51209
G1 X94.521 Y104.714 E4.54369
G1 X94.922 Y104.29 E4.57281
G1 X95.294 Y103.94 E4.59829
G1 X97.631 Y101.808 E4.75611
G1 X99.574 Y99.926 E4.89107
G1 X101.493 Y97.959 E5.02817
G1 X104.244 Y94.974 E5.23069
G1 X104.651 Y94.575 E5.25912
G1 X105.102 Y94.191 E5.28867
G1 X105.534 Y93.881 E5.3152
G1 X106.337 Y93.411 E5.36162
G1 X107.118 Y93.058 E5.40438
G1 X107.701 Y92.856 E5.43516
G1 X108.484 Y92.656 E5.47548
G1 X109.089 Y92.565 E5.50601
G1 X109.848 Y92.513 E5.54396
G1 X110.795 Y92.555 E5.59125
G1 X111.3 Y92.624 E5.61668
G1 X112.156 Y92.809 E5.66037
G1 X112.961 Y93.085 E5.70283
G1 X113.628 Y93.393 E5.73948
G1 X114.141 Y93.677 E5.76874
G1 X114.794 Y94.119 E5.80808
G1 X115.394 Y94.618 E5.84701
G1 X115.818 Y95.036 E5.87672
G1 X116.406 Y95.729 E5.92206
G1 X116.944 Y96.556 E5.97128
G1 X117.266 Y97.198 E6.00711
G1 X117.495 Y97.757 E6.03725
G1 X117.668 Y98.282 E6.06483
G1 X117.796 Y98.78 E6.09048
G1 X117.94 Y99.663 E6.13512
G1 X117.975 Y100.193 E6.16161
G1 X117.984 Y100.708 E6.18731
G1 X117.937 Y102.21 E6.26228
G1 X117.887 Y104.906 E6.39681
G1 X117.913 Y107.644 E6.53342
G1 X117.988 Y109.846 E6.64334
G1 X117.967 Y110.55 E6.67848
G1 X117.901 Y111.166 E6.70938
G1 X117.761 Y111.868 E6.7451
G1 X117.548 Y112.59 E6.78265
G1 X117.227 Y113.38 E6.8252
G1 X116.985 Y113.854 E6.85175
G1 X116.728 Y114.286 E6.87683
G1 X116.442 Y114.706 E6.90218
G1 X116.076 Y115.176 E6.9319
G1 X115.657 Y115.629 E6.96268
G1 X115.168 Y116.088 E6.99614
G1 X114.763 Y116.412 E7.02202
G1 X113.926 Y116.954 E7.07177
G1 X113.302 Y117.266 E7.10657
G1 X112.743 Y117.495 E7.13671
G1 X112.218 Y117.668 E7.16429
G1 X111.714 Y117.797 E7.19024
G1 X110.841 Y117.939 E7.23437
G1 X110.3 Y117.975 E7.26142
G1 X109.786 Y117.984 E7.28707
G1 X108.286 Y117.937 E7.36194
G1 X105.591 Y117.887 E7.49642
G1 X102.85 Y117.915 E7.63317
G1 X100.653 Y117.988 E7.74284
G1 X99.934 Y117.966 E7.77873
G1 X99.327 Y117.9 E7.80919
G1 X98.629 Y117.76 E7.84471
G1 X97.913 Y117.549 E7.88195
G1 X97.116 Y117.225 E7.92487
G1 X96.641 Y116.982 E7.95149
G1 X96.208 Y116.725 E7.97661
G1 X95.789 Y116.439 E8.00192
G1 X95.323 Y116.075 E8.03142
G1 X94.871 Y115.657 E8.06214
G1 X94.407 Y115.161 E8.09602
G1 X93.94 Y114.553 E8.13427
G1 X93.595 Y114 E8.16679
G1 X93.328 Y113.499 E8.19511
G1 X93.112 Y113.018 E8.22142
G1 X92.912 Y112.475 E8.25029
G1 X92.761 Y111.958 E8.27716
G1 X92.634 Y111.383 E8.30654
G1 X92.558 Y110.802 E8.33577
G1 X92.523 Y110.196 E8.36605
G0 F3600 X92.922 Y110.173
G1 F600 X92.957 Y109.254 E8.41193
G1 X93.03 Y108.676 E8.441
G1 X93.22 Y107.884 E8.48163
G1 X93.41 Y107.32 E8.51133
G1 X93.823 Y106.415 E8.56096
G1 X94.166 Y105.824 E8.59505
G1 X94.666 Y105.159 E8.63656
G1 X95.029 Y104.752 E8.66376
G1 X95.471 Y104.32 E8.6946
G1 X97.897 Y102.107 E8.85842
G1 X99.873 Y100.193 E8.99567
G1 X101.774 Y98.245 E9.13147
G1 X104.538 Y95.245 E9.33498
G1 X104.927 Y94.865 E9.36211
G1 X105.356 Y94.5 E9.39021
G1 X106.164 Y93.961 E9.43867
G1 X106.941 Y93.566 E9.48215
G1 X107.562 Y93.321 E9.51546
G1 X108.179 Y93.135 E9.54761
G1 X108.829 Y93.002 E9.58071
G1 X109.528 Y92.927 E9.61578
G1 X110.085 Y92.913 E9.64358
G1 X110.747 Y92.952 E9.67667
G1 X111.647 Y93.096 E9.72214
G1 X112.387 Y93.297 E9.76039
G1 X113.2 Y93.629 E9.80421
G1 X113.734 Y93.904 E9.83417
G1 X114.312 Y94.264 E9.86815
G1 X114.75 Y94.59 E9.89539
G1 X115.353 Y95.132 E9.93584
G1 X115.793 Y95.602 E9.96796
G1 X116.341 Y96.332 E10.0135
G1 X116.786 Y97.12 E10.05864
G1 X117.023 Y97.644 E10.08734
G1 X117.21 Y98.156 E10.11453
G1 X117.353 Y98.648 E10.14009
G1 X117.473 Y99.192 E10.16789
G1 X117.541 Y99.69 E10.19296
G1 X117.576 Y100.22 E10.21946
G1 X117.582 Y100.826 E10.2497
G1 X117.537 Y102.197 E10.31813
G1 X117.487 Y104.902 E10.45311
G1 X117.514 Y107.661 E10.59076
G1 X117.588 Y109.859 E10.70048
G1 X117.568 Y110.531 E10.73402
G1 X117.504 Y111.115 E10.76333
G1 X117.371 Y111.78 E10.79717
G1 X117.172 Y112.452 E10.83213
G1 X116.87 Y113.198 E10.87229
G1 X116.628 Y113.672 E10.89884
G1 X116.112 Y114.481 E10.94671
G1 X115.768 Y114.922 E10.97461
G1 X115.368 Y115.353 E11.00395
G1 X114.898 Y115.793 E11.03607
G1 X114.149 Y116.353 E11.08273
G1 X113.375 Y116.789 E11.12705
G1 X112.856 Y117.023 E11.15545
G1 X112.344 Y117.21 E11.18264
G1 X111.852 Y117.353 E11.20821
G1 X111.304 Y117.473 E11.23619
G1 X110.273 Y117.576 E11.28789
G1 X109.668 Y117.582 E11.31807
G1 X108.303 Y117.537 E11.38621
G1 X105.595 Y117.487 E11.52133
G1 X102.831 Y117.515 E11.65924
G1 X100.639 Y117.588 E11.76866
G1 X99.953 Y117.567 E11.8029
G1 X99.379 Y117.504 E11.83171
G1 X98.717 Y117.37 E11.8654
G1 X98.051 Y117.173 E11.90005
G1 X97.298 Y116.869 E11.94057
G1 X96.823 Y116.626 E11.96719
G1 X96.014 Y116.108 E12.01511
G1 X95.577 Y115.767 E12.04277
G1 X95.148 Y115.369 E12.07196
G1 X94.703 Y114.892 E12.10451
G1 X94.267 Y114.323 E12.14027
G1 X93.938 Y113.794 E12.17135
G1 X93.685 Y113.317 E12.19829
G1 X93.479 Y112.86 E12.2233
G1 X93.29 Y112.344 E12.25071
G1 X93.147 Y111.852 E12.27628
G1 X93.026 Y111.301 E12.30442
G1 X92.957 Y110.779 E12.33069
G1 X92.922 Y110.173 E12.36097
G0 F3600 X93.321 Y110.15
G1 F600 X93.356 Y109.282 E12.40431
G1 X93.426 Y108.734 E12.43187
G1 X93.605 Y107.99 E12.47005
G1 X93.787 Y107.452 E12.49839
G1 X94.183 Y106.59 E12.54571
G1 X94.506 Y106.034 E12.57779
G1 X94.977 Y105.41 E12.6168
G1 X95.324 Y105.023 E12.64273
G1 X95.747 Y104.61 E12.67222
G1 X98.18 Y102.39 E12.83654
G1 X100.156 Y100.476 E12.97379
G1 X102.072 Y98.512 E13.11068
G1 X104.833 Y95.516 E13.31394
G1 X105.202 Y95.155 E13.3397
G1 X105.61 Y94.809 E13.36639
G1 X106.375 Y94.301 E13.4122
G1 X107.113 Y93.927 E13.45348
G1 X107.699 Y93.697 E13.48488
G1 X108.289 Y93.52 E13.51562
G1 X108.898 Y93.396 E13.54662
G1 X109.564 Y93.326 E13.58003
G1 X110.085 Y93.313 E13.60603
G1 X110.699 Y93.349 E13.63672
G1 X111.574 Y93.489 E13.68093
G1 X112.27 Y93.68 E13.71693
G1 X113.037 Y93.994 E13.75828
G1 X113.545 Y94.256 E13.7868
G1 X114.078 Y94.588 E13.81813
G1 X114.495 Y94.898 E13.84405
G1 X115.076 Y95.421 E13.88305
G1 X115.497 Y95.871 E13.91379
G1 X116.014 Y96.562 E13.95685
G1 X116.431 Y97.304 E13.99931
G1 X116.655 Y97.803 E14.0266
G1 X116.832 Y98.287 E14.05231
G1 X117.013 Y98.943 E14.08626
G1 X117.142 Y99.716 E14.12536
G1 X117.184 Y100.457 E14.16239
G1 X117.182 Y100.813 E14.18015
G1 X117.137 Y102.184 E14.24859
G1 X117.087 Y104.898 E14.38401
G1 X117.114 Y107.679 E14.52276
G1 X117.188 Y109.873 E14.63229
G1 X117.168 Y110.512 E14.66418
G1 X117.108 Y111.064 E14.69188
G1 X116.98 Y111.692 E14.72386
G1 X116.797 Y112.314 E14.7562
G1 X116.514 Y113.016 E14.79397
G1 X116.272 Y113.49 E14.82052
G1 X115.781 Y114.256 E14.86591
G1 X115.459 Y114.667 E14.89196
G1 X115.079 Y115.076 E14.91981
G1 X114.629 Y115.497 E14.95056
G1 X113.92 Y116.025 E14.99466
G1 X113.191 Y116.434 E15.03636
G1 X112.697 Y116.655 E15.06336
G1 X112.213 Y116.832 E15.08907
G1 X111.552 Y117.014 E15.12328
G1 X110.787 Y117.141 E15.16197
G1 X110.034 Y117.184 E15.19959
G1 X109.681 Y117.182 E15.21721
G1 X108.324 Y117.137 E15.28494
G1 X105.598 Y117.087 E15.42097
G1 X102.815 Y117.115 E15.55982
G1 X100.626 Y117.188 E15.66909
G1 X99.973 Y117.167 E15.70168
G1 X99.431 Y117.107 E15.72889
G1 X98.806 Y116.98 E15.76071
G1 X98.189 Y116.798 E15.7928
G1 X97.481 Y116.513 E15.83088
G1 X97.006 Y116.27 E15.8575
G1 X96.24 Y115.778 E15.90292
G1 X95.832 Y115.458 E15.92879
G1 X95.424 Y115.08 E15.95654
G1 X94.999 Y114.623 E15.98767
G1 X94.594 Y114.092 E16.02099
G1 X94.281 Y113.588 E16.05059
G1 X94.041 Y113.135 E16.07616
G1 X93.761 Y112.481 E16.11166
G1 X93.533 Y111.747 E16.15
G1 X93.418 Y111.22 E16.17691
G1 X93.321 Y110.15 E16.23051
;MESH:A003-TPU.stl(1)
G0 F3600 X95.837 Y110.086
G0 X96.704 Y110.026
;TYPE:WALL-OUTER
G1 F600 X96.74 Y110.533 E16.25587
G1 X96.849 Y111.05 E16.28223
G1 X97.03 Y111.544 E16.30848
G1 X97.269 Y111.997 E16.33403
G1 X97.567 Y112.414 E16.3596
G1 X97.92 Y112.786 E16.38519
G1 X98.321 Y113.11 E16.41091
G1 X98.759 Y113.376 E16.43648
G1 X99.243 Y113.585 E16.46278
G1 X99.751 Y113.72 E16.489
G1 X100.361 Y113.797 E16.51968
G1 X101.011 Y113.765 E16.55214
G1 X101.594 Y113.637 E16.58192
G1 X102.078 Y113.453 E16.60776
G1 X102.529 Y113.21 E16.63331
G1 X102.943 Y112.908 E16.65888
G1 X103.312 Y112.552 E16.68446
G1 X103.631 Y112.148 E16.71014
G1 X103.891 Y111.709 E16.7356
G1 X104.09 Y111.236 E16.7612
G1 X104.224 Y110.74 E16.78683
G1 X104.29 Y110.232 E16.81239
G1 X104.288 Y109.722 E16.83783
G1 X104.213 Y109.212 E16.86355
G1 X104.075 Y108.72 E16.88904
G1 X103.869 Y108.249 E16.91469
G1 X103.601 Y107.812 E16.94027
G1 X103.279 Y107.414 E16.96581
G1 X102.905 Y107.063 E16.9914
G1 X102.487 Y106.765 E17.01701
G1 X102.035 Y106.526 E17.04252
G1 X101.551 Y106.352 E17.06818
G1 X101.06 Y106.246 E17.09324
G1 X100.412 Y106.205 E17.12563
G1 X99.652 Y106.301 E17.16385
G1 X99.162 Y106.447 E17.18936
G1 X98.692 Y106.663 E17.21516
G1 X98.259 Y106.934 E17.24065
G1 X97.866 Y107.266 E17.26631
G1 X97.522 Y107.644 E17.29181
G1 X97.231 Y108.067 E17.31743
G1 X97.001 Y108.528 E17.34313
G1 X96.835 Y109.01 E17.36856
G1 X96.735 Y109.514 E17.3942
G1 X96.704 Y110.026 E17.41979
G0 F3600 X96.718 Y110.225
G0 X97.516 Y110.062
G1 F600 X97.535 Y109.554 E17.44515
G1 X97.728 Y108.855 E17.48133
G1 X97.733 Y108.841 E17.48207
G1 X98.081 Y108.227 E17.51728
G1 X98.41 Y107.848 E17.54232
G1 X98.872 Y107.481 E17.57176
G1 X99.455 Y107.195 E17.60415
G1 X100.109 Y107.025 E17.63787
G1 X100.835 Y107.02 E17.67409
G1 X101.532 Y107.184 E17.70981
G1 X102.076 Y107.447 E17.73996
G1 X102.492 Y107.756 E17.76581
G1 X102.887 Y108.182 E17.79479
G1 X103.158 Y108.605 E17.81986
G1 X103.381 Y109.155 E17.84947
G1 X103.487 Y109.79 E17.88158
G1 X103.446 Y110.568 E17.92045
G1 X103.221 Y111.262 E17.95685
G1 X102.968 Y111.694 E17.98183
G1 X102.417 Y112.308 E18.02299
G1 X101.922 Y112.641 E18.05275
G1 X101.361 Y112.861 E18.08281
G1 X100.907 Y112.952 E18.10591
G1 X100.423 Y112.992 E18.13014
G1 X99.804 Y112.918 E18.16125
G1 X99.231 Y112.719 E18.19151
G1 X98.759 Y112.439 E18.21889
G1 X98.275 Y112.011 E18.25112
G1 X97.961 Y111.6 E18.27692
G1 X97.66 Y110.972 E18.31167
G1 X97.544 Y110.42 E18.33981
G1 X97.516 Y110.062 E18.35773
G0 F3600 X97.523 Y109.862
G0 X97.113 Y110.211
;TYPE:WALL-INNER
G1 F597 X97.238 Y110.937 E18.39466
G1 F582.5 X97.403 Y111.379 E18.41891
G1 F594.1 X97.652 Y111.853 E18.44589
G1 F609.1 X97.977 Y112.274 E18.47202
G1 F610.7 X98.423 Y112.684 E18.50172
G1 F603 X98.943 Y113.019 E18.53242
G1 X99.627 Y113.281 E18.56878
G1 F600 X100.375 Y113.392 E18.60651
G1 F579.7 X100.957 Y113.358 E18.63661
G1 F576.9 X101.507 Y113.24 E18.6658
G1 F594.1 X102.025 Y113.032 E18.69393
G1 F607.6 X102.602 Y112.667 E18.72756
G1 F592.6 X103.027 Y112.26 E18.75729
G1 F583.9 X103.313 Y111.902 E18.78078
G1 F604.5 X103.584 Y111.428 E18.80781
G1 F615.4 X103.814 Y110.741 E18.84305
G1 F592.6 X103.885 Y110.184 E18.87142
G1 F581.1 X103.884 Y109.726 E18.89501
G1 F600 X103.776 Y109.114 E18.92602
G1 F609.1 X103.528 Y108.461 E18.96034
G1 F601.5 X103.261 Y108.023 E18.98587
G1 F603 X102.792 Y107.498 E19.02082
G1 F609.1 X102.346 Y107.15 E19.04862
G1 F598.5 X101.85 Y106.885 E19.07674
G1 F582.5 X101.417 Y106.737 E19.10026
G1 F592.6 X100.867 Y106.623 E19.12863
G1 F617 X100.153 Y106.629 E19.16327
G1 F618.6 X99.463 Y106.768 E19.19733
G1 F597 X98.862 Y107.03 E19.23021
G1 F582.5 X98.477 Y107.276 E19.25368
G1 F592.6 X98.103 Y107.593 E19.27845
G1 F606.1 X97.759 Y107.993 E19.30451
G1 F609.1 X97.402 Y108.613 E19.33967
G1 F592.6 X97.222 Y109.139 E19.36775
G1 F583.9 X97.13 Y109.589 E19.39129
G1 F600 X97.113 Y110.211 E19.42234
;MESH:A003-TPU.stl
G0 F3600 X97.629 Y111.522
G0 X98.776 Y112.756
G0 X99.72 Y113.155
G0 X101.29 Y113.152
G0 X102.76 Y112.334
G0 X104.071 Y109.956
G0 X106.432 Y109.956
G0 X106.203 Y109.861
;TYPE:WALL-OUTER
G1 F600 X106.235 Y110.511 E19.45481
G1 X106.371 Y111.124 E19.48613
G1 X106.558 Y111.602 E19.51174
G1 X106.803 Y112.053 E19.53735
G1 X107.109 Y112.464 E19.56291
G1 X107.467 Y112.832 E19.58852
G1 X107.873 Y113.147 E19.61416
G1 X108.316 Y113.405 E19.63974
G1 X108.79 Y113.6 E19.66531
G1 X109.286 Y113.731 E19.6909
G1 X109.794 Y113.794 E19.71644
G1 X110.307 Y113.787 E19.74204
G1 X110.814 Y113.709 E19.76763
G1 X111.308 Y113.567 E19.79327
G1 X111.775 Y113.358 E19.8188
G1 X112.211 Y113.088 E19.84438
G1 X112.605 Y112.762 E19.8699
G1 X112.956 Y112.385 E19.89559
G1 X113.25 Y111.965 E19.92117
G1 X113.486 Y111.51 E19.94674
G1 X113.656 Y111.027 E19.97229
G1 X113.764 Y110.514 E19.99844
G1 X113.795 Y109.91 E20.02862
G1 X113.699 Y109.152 E20.06674
G1 X113.553 Y108.66 E20.09234
G1 X113.337 Y108.191 E20.1181
G1 X113.066 Y107.759 E20.14354
G1 X112.734 Y107.365 E20.16925
G1 X112.355 Y107.022 E20.19475
G1 X111.933 Y106.733 E20.22027
G1 X111.476 Y106.503 E20.24579
G1 X111 Y106.339 E20.27091
G1 X110.486 Y106.235 E20.29707
G1 X109.976 Y106.204 E20.32256
