;FLAVOR:Marlin
;TIME:3942
;Filament used: 1.51873m
;Layer height: 0.1
;MINX:75.382
;MINY:79.059
;MINZ:0.24
;MAXX:150.375
;MAXY:135.367
;MAXZ:6.74
;Generated with Cura_SteamEngine 5.0.0
M140 S100
M105
M190 S100
M104 S230
M105
M109 S230
M82 ;absolute extrusion mode
G28 ;Home
G1 Z15.0 F6000 ;Move the platform down 15mm
;Prime the extruder
G92 E0
G1 F200 E3
G92 E0
G92 E0
G92 E0
G1 F2700 E-5
;LAYER_COUNT:59
;LAYER:-8
M107
G0 F9000 X79.066 Y82.379 Z0.24
;TYPE:SUPPORT-INTERFACE
G1 F2700 E0
G1 F900 X78.53 Y83.06 E0.06918
G1 X78.066 Y83.77 E0.13688
G1 X77.663 Y84.524 E0.20513
G1 X77.323 Y85.326 E0.27466
G1 X77.063 Y86.147 E0.34341
G1 X76.875 Y86.983 E0.41181
G1 X76.764 Y87.814 E0.47873
G1 X76.727 Y88.681 E0.548
G1 X76.765 Y89.518 E0.61488
G1 X77 Y91.218 E0.75187
G1 X76.998 Y91.906 E0.80679
G1 X76.91 Y92.577 E0.86081
G1 X76.742 Y93.219 E0.91379
G1 X76.315 Y94.26 E1.0036
G1 X76.098 Y94.783 E1.0488
G1 X75.845 Y95.605 E1.11745
G1 X75.664 Y96.438 E1.1855
G1 X75.557 Y97.293 E1.25428
G1 X75.526 Y97.987 E1.30974
G1 X75.524 Y99.862 E1.45941
G1 X75.463 Y100.668 E1.52393
G1 X75.383 Y101.526 E1.59272
G1 X75.382 Y102.384 E1.6612
G1 X75.458 Y103.246 E1.73028
G1 X75.606 Y104.074 E1.79742
G1 X75.836 Y104.918 E1.86725
G1 X76.133 Y105.716 E1.93522
G1 X76.533 Y106.557 E2.00956
G1 X77.158 Y107.599 E2.10655
G1 X77.56 Y108.139 E2.16029
G1 X78.072 Y108.733 E2.22289
G1 X78.705 Y109.353 E2.29362
G1 X79.381 Y109.903 E2.36318
G1 X80.089 Y110.381 E2.43137
G1 X80.546 Y110.661 E2.47415
G1 X81.077 Y110.923 E2.52142
G1 X89.82 Y115.972 E3.32734
G1 X90.386 Y116.348 E3.38158
G1 X90.888 Y116.785 E3.43471
G1 X91.335 Y117.28 E3.48795
G1 X91.722 Y117.839 E3.54222
G1 X92.039 Y118.445 E3.59681
G1 X92.269 Y119.058 E3.64907
G1 X92.527 Y119.892 E3.71876
G1 X92.858 Y120.699 E3.78839
G1 X93.246 Y121.452 E3.856
G1 X93.709 Y122.174 E3.92447
G1 X94.816 Y123.564 E4.06631
G1 X95.157 Y124.122 E4.11851
G1 X95.436 Y124.741 E4.17271
G1 X95.638 Y125.394 E4.22727
G1 X95.768 Y126.215 E4.29363
G1 X95.857 Y126.714 E4.33409
G1 X95.974 Y127.292 E4.38116
G1 X96.235 Y128.151 E4.45283
G1 X96.465 Y128.741 E4.50338
G1 X96.734 Y129.386 E4.55916
G1 X97.106 Y130.132 E4.6257
G1 X97.566 Y130.876 E4.69553
G1 X98.082 Y131.563 E4.76411
G1 X98.652 Y132.198 E4.83223
G1 X99.28 Y132.78 E4.90057
G1 X99.971 Y133.314 E4.97028
G1 X100.671 Y133.764 E5.03671
G1 X101.438 Y134.165 E5.1058
G1 X102.232 Y134.492 E5.17434
G1 X103.055 Y134.747 E5.24312
G1 X103.889 Y134.928 E5.31124
G1 X104.559 Y135.019 E5.36522
G1 X105.249 Y135.127 E5.42096
G1 X106.161 Y135.279 E5.49477
G1 X107.037 Y135.353 E5.56494
G1 X107.578 Y135.365 E5.60814
G1 X109.335 Y135.367 E5.74839
G1 X109.872 Y135.348 E5.79128
G1 X110.769 Y135.254 E5.86328
G1 X111.628 Y135.082 E5.93321
G1 X112.433 Y134.846 E6.00017
G1 X113.241 Y134.526 E6.06954
G1 X113.991 Y134.152 E6.13644
G1 X114.733 Y133.694 E6.20605
G1 X115.422 Y133.177 E6.27481
G1 X115.894 Y132.762 E6.32498
G1 X116.422 Y132.258 E6.38324
G1 X116.942 Y131.86 E6.43551
G1 X117.53 Y131.515 E6.48993
G1 X118.161 Y131.247 E6.54466
G1 X118.816 Y131.06 E6.59903
G1 X119.493 Y130.959 E6.65367
G1 X120.172 Y130.943 E6.70789
G1 X120.856 Y131.013 E6.76277
G1 X121.524 Y131.168 E6.81751
G1 X122.16 Y131.408 E6.87177
G1 X122.845 Y131.773 E6.93373
G1 X123.874 Y132.349 E7.02786
G1 X124.661 Y132.69 E7.09633
G1 X125.463 Y132.953 E7.1637
G1 X126.3 Y133.151 E7.23236
G1 X127.135 Y133.271 E7.2997
G1 X128 Y133.315 E7.36884
G1 X128.862 Y133.283 E7.43769
G1 X129.711 Y133.174 E7.50602
G1 X130.536 Y132.995 E7.57341
G1 X131.36 Y132.734 E7.6424
G1 X132.02 Y132.467 E7.69923
G1 X139.849 Y128.883 E8.38655
G1 X140.388 Y128.613 E8.43467
G1 X141.141 Y128.166 E8.50457
G1 X141.847 Y127.654 E8.57419
G1 X142.492 Y127.093 E8.64242
G1 X143.082 Y126.478 E8.71045
G1 X143.629 Y125.791 E8.78055
G1 X144.101 Y125.079 E8.84874
G1 X144.503 Y124.339 E8.91597
G1 X144.846 Y123.545 E8.98501
G1 X145.109 Y122.744 E9.05231
G1 X145.304 Y121.916 E9.12021
G1 X145.425 Y121.058 E9.18938
G1 X145.469 Y120.202 E9.25779
G1 X145.434 Y119.331 E9.32738
G1 X145.323 Y118.481 E9.3958
G1 X145.14 Y117.65 E9.46373
G1 X144.877 Y116.828 E9.53262
G1 X144.549 Y116.045 E9.60039
G1 X144.145 Y115.282 E9.6693
G1 X143.8 Y114.737 E9.72079
G1 X143.127 Y113.808 E9.81236
G1 X142.8 Y113.21 E9.86677
G1 X142.553 Y112.57 E9.92153
G1 X142.386 Y111.92 E9.9751
G1 X142.304 Y111.262 E10.02803
G1 X142.306 Y110.577 E10.08271
G1 X142.393 Y109.898 E10.13735
G1 X142.565 Y109.24 E10.19164
G1 X142.816 Y108.606 E10.24607
G1 X143.15 Y108.008 E10.30075
G1 X143.557 Y107.457 E10.35543
G1 X144.025 Y106.964 E10.40969
G1 X144.555 Y106.532 E10.46427
G1 X145.401 Y105.933 E10.54702
G1 X145.922 Y105.487 E10.60176
G1 X146.459 Y104.968 E10.66138
G1 X146.857 Y104.517 E10.70939
G1 X147.052 Y104.281 E10.73383
G1 X148.086 Y103.152 E10.85603
G1 X148.621 Y102.462 E10.92573
G1 X149.073 Y101.757 E10.99258
G1 X149.473 Y100.994 E11.06135
G1 X149.8 Y100.2 E11.12989
G1 X150.054 Y99.378 E11.19857
G1 X150.235 Y98.545 E11.26661
G1 X150.342 Y97.691 E11.33532
G1 X150.373 Y96.997 E11.39077
G1 X150.375 Y94.127 E11.61987
G1 X150.356 Y93.393 E11.67848
G1 X150.262 Y92.497 E11.75039
G1 X150.092 Y91.64 E11.82013
G1 X149.852 Y90.826 E11.88788
G1 X149.534 Y90.025 E11.95667
G1 X149.162 Y89.277 E12.02336
G1 X148.699 Y88.528 E12.09365
G1 X148.185 Y87.842 E12.16207
G1 X147.676 Y87.263 E12.22361
G1 X147.346 Y86.861 E12.26513
G1 X146.906 Y86.277 E12.32349
G1 X146.333 Y85.64 E12.39189
G1 X145.707 Y85.058 E12.46012
G1 X145.018 Y84.526 E12.5296
G1 X144.316 Y84.076 E12.59616
G1 X143.548 Y83.674 E12.66536
G1 X142.758 Y83.348 E12.73358
G1 X141.935 Y83.093 E12.80236
G1 X141.102 Y82.912 E12.8704
G1 X140.244 Y82.805 E12.93942
G1 X139.698 Y82.781 E12.98305
G1 X139.013 Y82.704 E13.03807
G1 X138.355 Y82.545 E13.09211
G1 X137.756 Y82.316 E13.1433
G1 X137.142 Y81.993 E13.19868
G1 X136.466 Y81.501 E13.26542
G1 X136 Y81.177 E13.31072
G1 X135.495 Y80.848 E13.35883
G1 X134.742 Y80.445 E13.42701
G1 X133.933 Y80.104 E13.49709
G1 X133.136 Y79.849 E13.56389
G1 X132.315 Y79.662 E13.6311
G1 X131.448 Y79.545 E13.70094
G1 X130.721 Y79.505 E13.75906
G1 X86.465 Y79.059 E17.29194
G1 X85.846 Y79.073 E17.34136
G1 X84.945 Y79.163 E17.41364
G1 X84.113 Y79.321 E17.48124
G1 X83.301 Y79.549 E17.54857
G1 X82.5 Y79.858 E17.6171
G1 X81.72 Y80.238 E17.68636
G1 X80.99 Y80.679 E17.75444
G1 X80.298 Y81.188 E17.82301
G1 X79.656 Y81.755 E17.89138
G1 X79.066 Y82.379 E17.95993
G0 F9000 X79.859 Y82.121
G1 F900 X130.36 Y132.622 E23.66092
G0 F9000 X132.024 Y132.024
G1 F900 X81.096 Y81.096 E29.41012
G0 F9000 X82.544 Y80.282
G1 F900 X133.576 Y131.313 E35.17099
G0 F9000 X135.128 Y130.603
G1 F900 X84.231 Y79.705 E40.91674
G0 F9000 X86.252 Y79.463
G1 F900 X136.68 Y129.892 E46.60955
G0 F9000 X138.233 Y129.182
G1 F900 X88.531 Y79.48 E52.22034
G0 F9000 X90.816 Y79.502
G1 F900 X139.779 Y128.465 E57.7477
G0 F9000 X141.202 Y127.626
G1 F900 X93.102 Y79.526 E63.17765
G0 F9000 X95.388 Y79.549
G1 F900 X142.424 Y126.585 E68.48748
G0 F9000 X143.445 Y125.343
G1 F900 X97.674 Y79.572 E73.6545
G0 F9000 X99.96 Y79.595
G1 F900 X144.259 Y123.895 E78.65541
G0 F9000 X144.826 Y122.198
G1 F900 X102.245 Y79.618 E83.46227
G0 F9000 X104.531 Y79.641
G1 F900 X145.067 Y120.177 E88.03832
G0 F9000 X144.68 Y117.527
G1 F900 X106.816 Y79.664 E92.31268
G0 F9000 X109.103 Y79.687
G1 F900 X142.208 Y112.792 E96.04986
G0 F9000 X141.943 Y110.265
G1 F900 X111.388 Y79.71 E99.49917
G0 F9000 X113.674 Y79.733
G1 F900 X142.432 Y108.491 E102.74562
G0 F9000 X143.324 Y107.12
G1 F900 X115.959 Y79.755 E105.83482
G0 F9000 X118.245 Y79.779
G1 F900 X144.526 Y106.06 E108.80165
G0 F9000 X145.792 Y105.063
G1 F900 X120.532 Y79.802 E111.65327
G0 F9000 X122.817 Y79.825
G1 F900 X146.875 Y103.883 E114.36915
G0 F9000 X147.94 Y102.686
G1 F900 X125.103 Y79.848 E116.94724
G0 F9000 X127.388 Y79.871
G1 F900 X148.845 Y101.328 E119.36949
G0 F9000 X149.522 Y99.742
G1 F900 X129.674 Y79.894 E121.61011
G0 F9000 X132.076 Y80.033
G1 F900 X149.915 Y97.872 E123.62393
G0 F9000 X149.973 Y95.668
G1 F900 X135.889 Y81.583 E125.21391
G0 F9000 X139.753 Y83.184
G1 F900 X149.939 Y93.371 E126.36385
G0 F9000 X149.256 Y90.425
G1 F900 X142.527 Y83.695 E127.12353
G0 F9000 X128.374 Y132.9
G1 F900 X78.82 Y83.345 E132.71767
G0 F9000 X77.989 Y84.777
G1 F900 X125.842 Y132.63 E138.11973
G0 F9000 X121.788 Y130.839
G1 F900 X77.403 Y86.454 E143.13029
G0 F9000 X77.136 Y88.45
G1 F900 X119.272 Y130.586 E147.88697
G0 F9000 X117.51 Y131.086
G1 F900 X77.363 Y90.94 E152.41905
G0 F9000 X77.201 Y93.04
G1 F900 X116.137 Y131.976 E156.81449
G0 F9000 X114.937 Y133.039
G1 F900 X76.574 Y94.675 E161.14529
G0 F9000 X76.073 Y96.438
G1 F900 X113.555 Y133.92 E165.37658
G0 F9000 X111.943 Y134.57
G1 F900 X75.924 Y98.552 E169.44266
G0 F9000 X75.853 Y100.743
G1 F900 X110.037 Y134.927 E173.30165
G0 F9000 X107.811 Y134.964
G1 F900 X93.113 Y120.266 E174.96088
G0 F9000 X96.054 Y125.47
G1 F900 X105.317 Y134.732 E176.00652
G0 F9000 X102.442 Y134.12
G1 F900 X96.793 Y128.472 E176.64417
G0 F9000 X94.759 Y124.356
G0 X91.341 Y118.097
G0 X90.482 Y117.088
G0 X86.358 Y113.511
G1 F900 X75.837 Y102.99 E177.83187
G0 F9000 X76.827 Y106.242
G1 F900 X81.042 Y110.458 E178.30775
G0 F600 X81.042 Y110.458 Z0.39
G0 F9000 X78.121 Y84.513
;TIME_ELAPSED:154.680041
;LAYER:-7
;TYPE:SUPPORT
G1 F900 X82.176 Y80.458 E178.59385
G1 X81.235 Y80.996 E178.64793
G1 X80.54 Y81.506 E178.69094
G1 X79.953 Y82.023 E178.72996
G1 X79.362 Y82.646 E178.7728
G1 X78.859 Y83.284 E178.81334
G1 X78.422 Y83.949 E178.85304
G1 X78.02 Y84.701 E178.89558
G1 X77.712 Y85.424 E178.93479
G1 X77.445 Y86.258 E178.97847
G1 X77.344 Y86.704 E179.00129
G1 X84.371 Y79.677 E179.49708
G1 X84.995 Y79.557 E179.52878
G1 X85.995 Y79.467 E179.57888
G1 X77.14 Y88.322 E180.20364
G1 X77.16 Y89.464 E180.26063
G1 X77.189 Y89.687 E180.27185
G1 X87.409 Y79.467 E180.99292
G1 X88.809 Y79.481 E181.06277
G1 X77.377 Y90.914 E181.8694
G1 X77.453 Y91.369 E181.89241
G1 X77.399 Y91.369 E181.89511
G1 X77.398 Y91.932 E181.92319
G1 X77.341 Y92.363 E181.94488
G1 X90.209 Y79.495 E182.85279
G1 X91.609 Y79.509 E182.92264
G1 X76.673 Y94.446 E183.97649
G1 X76.484 Y94.893 E184.0007
G1 X76.228 Y95.713 E184.04356
G1 X76.067 Y96.467 E184.08203
G1 X93.009 Y79.524 E185.27741
G1 X94.41 Y79.538 E185.34731
G1 X75.925 Y98.022 E186.65149
G1 X75.924 Y99.438 E186.72214
G1 X95.81 Y79.552 E188.1252
G1 X97.21 Y79.566 E188.19505
G1 X75.839 Y100.937 E189.70289
G1 X75.783 Y101.516 E189.73191
G1 X75.779 Y102.338 E189.77292
G1 X75.785 Y102.405 E189.77628
G1 X98.61 Y79.58 E191.3867
G1 X100.01 Y79.594 E191.45655
G1 X75.937 Y103.667 E193.15503
G1 X76.213 Y104.786 E193.21253
G1 X76.219 Y104.8 E193.21329
G1 X101.41 Y79.608 E194.99069
G1 X102.81 Y79.623 E195.06054
G1 X76.621 Y105.812 E196.90832
G1 X76.873 Y106.348 E196.93787
G1 X77.108 Y106.739 E196.96063
G1 X104.21 Y79.637 E198.87282
G1 X105.611 Y79.65 E198.94272
G1 X77.653 Y107.608 E200.9153
G1 X78.111 Y108.193 E200.95237
G1 X78.292 Y108.383 E200.96546
G1 X107.011 Y79.664 E202.99174
G1 X108.411 Y79.678 E203.06159
G1 X79.005 Y109.085 E205.13638
G1 X79.792 Y109.711 E205.18655
G1 X109.811 Y79.693 E207.30452
G1 X111.211 Y79.707 E207.37437
G1 X80.66 Y110.258 E209.52991
G1 X81.118 Y110.496 E209.55566
G1 X81.139 Y110.467 E209.55744
G1 X81.59 Y110.742 E209.5838
G1 X112.611 Y79.721 E211.7725
G1 X114.011 Y79.735 E211.84235
G1 X82.478 Y111.268 E214.06717
G1 X83.374 Y111.787 E214.11883
G1 X115.411 Y79.749 E216.37925
G1 X116.811 Y79.763 E216.4491
G1 X84.27 Y112.304 E218.74504
G1 X85.167 Y112.822 E218.79672
G1 X118.211 Y79.777 E221.12819
G1 X119.612 Y79.792 E221.19809
G1 X86.063 Y113.34 E223.56511
G1 X86.959 Y113.858 E223.61675
G1 X121.012 Y79.806 E226.01934
G1 X122.412 Y79.82 E226.08918
G1 X87.856 Y114.375 E228.52726
G1 X88.752 Y114.894 E228.57892
G1 X123.812 Y79.834 E231.05259
G1 X125.212 Y79.848 E231.12244
G1 X89.649 Y115.411 E233.63161
G1 X90.518 Y115.956 E233.68278
G1 X126.612 Y79.862 E236.22941
G1 X128.012 Y79.876 E236.29926
G1 X91.274 Y116.614 E238.89132
G1 X91.665 Y117.05 E238.92054
G1 X91.905 Y117.398 E238.94163
G1 X129.412 Y79.891 E241.58795
G1 X130.809 Y79.908 E241.65765
G1 X92.418 Y118.306 E244.36659
G1 X92.662 Y118.97 E244.40189
G1 X92.778 Y119.353 E244.42185
G1 X132.096 Y80.035 E247.19595
G1 X133.022 Y80.231 E247.24317
G1 X133.244 Y80.301 E247.25478
G1 X93.162 Y120.384 E250.08282
G1 X93.591 Y121.249 E250.13099
G1 X93.638 Y121.321 E250.13528
G1 X134.278 Y80.682 E253.00262
G1 X135.22 Y81.154 E253.05518
G1 X94.212 Y122.162 E255.94852
G1 X94.839 Y122.948 E255.99868
G1 X136.078 Y81.71 E258.90828
G1 X136.893 Y82.31 E258.95877
G1 X95.419 Y123.783 E261.88495
G1 X95.82 Y124.625 E261.93148
G1 X95.861 Y124.756 E261.93833
G1 X137.841 Y82.776 E264.90024
G1 X138.237 Y82.928 E264.9214
G1 X138.935 Y83.096 E264.95722
G1 X96.124 Y125.906 E267.97773
G1 X96.344 Y127.101 E268.03835
G1 X140.243 Y83.205 E271.13556
G1 X141.026 Y83.304 E271.17493
G1 X141.461 Y83.398 E271.19714
G1 X96.677 Y128.182 E274.35689
G1 X97.085 Y129.189 E274.4111
G1 X142.567 Y83.706 E277.62013
G1 X143.392 Y84.041 E277.66456
G1 X143.559 Y84.128 E277.67395
G1 X97.569 Y130.118 E280.91879
G1 X97.897 Y130.649 E280.94993
G1 X98.135 Y130.967 E280.96975
G1 X144.461 Y84.641 E284.2383
G1 X145.282 Y85.234 E284.28883
G1 X98.777 Y131.739 E287.57
G1 X99.493 Y132.437 E287.61989
G1 X146.029 Y85.901 E290.90326
G1 X146.59 Y86.522 E290.94501
G1 X146.691 Y86.653 E290.95326
G1 X100.296 Y133.049 E294.22671
G1 X100.867 Y133.415 E294.26055
G1 X101.179 Y133.579 E294.27814
G1 X147.308 Y87.451 E297.53275
G1 X147.87 Y88.092 E297.57528
G1 X147.96 Y88.212 E297.58277
G1 X102.147 Y134.026 E300.81516
G1 X103.152 Y134.36 E300.86799
G1 X103.213 Y134.374 E300.87111
G1 X148.546 Y89.041 E304.0696
G1 X148.815 Y89.477 E304.09516
G1 X149.05 Y89.951 E304.12156
G1 X104.406 Y134.595 E307.27143
G1 X104.597 Y134.621 E307.28105
G1 X105.617 Y134.799 E307.33271
G1 X149.471 Y90.95 E310.42667
G1 X149.699 Y91.723 E310.46687
G1 X149.766 Y92.063 E310.48416
G1 X106.885 Y134.944 E313.50965
G1 X108.278 Y134.966 E313.57915
G1 X149.941 Y93.303 E316.5187
G1 X149.975 Y93.939 E316.55048
G1 X149.974 Y94.684 E316.58765
G1 X109.701 Y134.956 E319.42909
G1 X110.696 Y134.86 E319.47896
G1 X111.341 Y134.731 E319.51178
G1 X149.973 Y96.1 E322.23744
G1 X149.972 Y96.97 E322.28084
G1 X149.946 Y97.54 E322.30931
G1 X113.573 Y133.914 E324.87566
G1 X114.513 Y133.358 E324.93014
G1 X115.154 Y132.877 E324.97012
G1 X115.638 Y132.454 E325.00219
G1 X116.164 Y131.949 E325.03857
G1 X116.741 Y131.51 E325.07474
G1 X117.376 Y131.142 E325.11136
G1 X118.038 Y130.862 E325.14722
G1 X149.68 Y99.221 E327.3797
G1 X149.413 Y100.088 E327.42496
G1 X149.109 Y100.827 E327.46482
G1 X148.73 Y101.551 E327.5056
G1 X148.669 Y101.645 E327.51119
G1 X119.764 Y130.551 E329.55062
G1 X120.218 Y130.541 E329.57328
G1 X120.947 Y130.62 E329.60986
G1 X121.077 Y130.652 E329.61654
G1 X142.028 Y109.701 E331.09475
G1 X141.905 Y110.522 E331.13617
G1 X141.901 Y111.242 E331.17209
G1 X122.163 Y130.98 E332.56471
G1 X122.967 Y131.379 E332.60949
G1 X123.101 Y131.456 E332.6172
G1 X142.106 Y112.451 E333.95811
G1 X142.436 Y113.378 E334.0072
G1 X142.491 Y113.481 E334.01302
G1 X124.006 Y131.966 E335.31724
G1 X124.783 Y132.308 E335.35959
G1 X125.004 Y132.382 E335.37122
G1 X143.024 Y114.362 E336.64263
G1 X143.455 Y114.94 E336.6786
G1 X143.611 Y115.189 E336.69326
G1 X126.104 Y132.696 E337.92847
G1 X127.18 Y132.873 E337.98287
G1 X127.333 Y132.881 E337.99052
G1 X144.122 Y116.092 E339.17507
G1 X144.509 Y116.99 E339.22386
G1 X144.541 Y117.088 E339.229
G1 X128.741 Y132.887 E340.34374
G1 X129.619 Y132.784 E340.38785
G1 X130.438 Y132.605 E340.42967
G1 X144.849 Y118.194 E341.44644
G1 X145.033 Y119.358 E341.50524
G1 X145.036 Y119.421 E341.50838
G1 X132.777 Y131.68 E342.37332
G1 X135.386 Y130.485 E342.51649
G1 X145.036 Y120.835 E343.19735
G1 X144.913 Y121.835 E343.24762
G1 X144.746 Y122.54 E343.28376
G1 X137.996 Y129.29 E343.76001
G1 X139.686 Y128.515 E343.85277
G1 X140.794 Y127.906 E343.91585
G1 X143.627 Y125.073 E344.11573
G1 X143.31 Y125.551 E344.14434
G1 X142.773 Y126.225 E344.18734
G1 X142.222 Y126.796 E344.22693
G1 X141.585 Y127.349 E344.26901
G1 X140.916 Y127.835 E344.31026
G0 F600 X140.916 Y127.835 Z0.49
G0 F9000 X142.848 Y109.971
G0 X148.026 Y87.966
