;FLAVOR:Marlin
;TIME:5594
;Filament used: 1.9171m
;Layer height: 0.1
;MINX:80.441
;MINY:77.024
;MINZ:0.24
;MAXX:141.257
;MAXY:144.493
;MAXZ:24.84
;Generated with Cura_SteamEngine 5.0.0
M140 S100
M105
M190 S100
M104 S230
M105
M109 S230
M82 ;absolute extrusion mode
G28 ;Home
G1 Z15.0 F6000 ;Move the platform down 15mm
;Prime the extruder
G92 E0
G1 F200 E3
G92 E0
G92 E0
G92 E0
G1 F2700 E-5
;LAYER_COUNT:240
;LAYER:-8
M107
G0 F9000 X84.119 Y89.076 Z0.24
;TYPE:SUPPORT-INTERFACE
G1 F2700 E0
G1 F900 X83.428 Y89.917 E0.08689
G1 X82.809 Y90.793 E0.17251
G1 X82.271 Y91.688 E0.25587
G1 X81.78 Y92.66 E0.34279
G1 X81.37 Y93.642 E0.42774
G1 X81.039 Y94.639 E0.51159
G1 X80.776 Y95.662 E0.59591
G1 X80.613 Y96.542 E0.66735
G1 X80.488 Y97.62 E0.75398
G1 X80.441 Y98.768 E0.84569
G1 X80.441 Y106.102 E1.43112
G1 X80.47 Y106.988 E1.50189
G1 X80.575 Y108.06 E1.58787
G1 X80.752 Y109.099 E1.672
G1 X81.013 Y110.148 E1.75829
G1 X81.348 Y111.167 E1.84391
G1 X81.563 Y111.702 E1.88994
G1 X81.772 Y112.341 E1.9436
G1 X81.899 Y113.019 E1.99867
G1 X81.94 Y113.672 E2.05089
G1 X81.939 Y114.656 E2.12944
G1 X81.868 Y115.504 E2.19737
G1 X81.743 Y116.048 E2.24193
G1 X81.458 Y117.179 E2.33503
G1 X81.294 Y118.061 E2.40664
G1 X81.169 Y119.137 E2.49311
G1 X81.122 Y120.286 E2.5849
G1 X81.122 Y122.193 E2.73713
G1 X81.138 Y122.88 E2.79198
G1 X81.223 Y123.941 E2.87695
G1 X81.425 Y125.176 E2.97684
G1 X81.682 Y126.837 E3.11101
G1 X81.926 Y127.9 E3.19807
G1 X82.236 Y128.911 E3.28248
G1 X82.62 Y129.898 E3.36702
G1 X83.082 Y130.867 E3.45271
G1 X83.603 Y131.783 E3.53683
G1 X84.206 Y132.681 E3.62317
G1 X84.862 Y133.524 E3.70844
G1 X85.457 Y134.185 E3.77943
G1 X85.872 Y134.595 E3.826
G1 X86.277 Y135.032 E3.87356
G1 X86.675 Y135.583 E3.92781
G1 X86.995 Y136.166 E3.9809
G1 X87.229 Y136.647 E4.0236
G1 X87.751 Y137.566 E4.10797
G1 X88.353 Y138.463 E4.1942
G1 X89.01 Y139.302 E4.27926
G1 X89.723 Y140.088 E4.36397
G1 X90.485 Y140.814 E4.44799
G1 X91.326 Y141.505 E4.53487
G1 X92.202 Y142.124 E4.62049
G1 X93.097 Y142.662 E4.70385
G1 X94.069 Y143.153 E4.79078
G1 X95.051 Y143.563 E4.87572
G1 X96.048 Y143.894 E4.95958
G1 X97.071 Y144.157 E5.0439
G1 X97.951 Y144.32 E5.11534
G1 X99.029 Y144.445 E5.20196
G1 X100.16 Y144.492 E5.29232
G1 X102.085 Y144.493 E5.44598
G1 X102.774 Y144.476 E5.501
G1 X103.832 Y144.391 E5.58573
G1 X105.067 Y144.189 E5.68562
G1 X106.73 Y143.932 E5.81994
G1 X107.789 Y143.69 E5.90666
G1 X108.801 Y143.378 E5.99119
G1 X109.79 Y142.994 E6.07588
G1 X110.611 Y142.608 E6.1483
G1 X111.346 Y142.201 E6.21536
G1 X112.113 Y141.852 E6.28263
G1 X112.772 Y141.655 E6.33753
G1 X113.317 Y141.532 E6.38213
G1 X113.908 Y141.362 E6.43122
G1 X114.536 Y141.217 E6.48267
G1 X115.348 Y141.067 E6.54858
G1 X116.543 Y140.757 E6.64713
G1 X117.417 Y140.462 E6.72076
G1 X117.993 Y140.258 E6.76954
G1 X118.78 Y139.913 E6.83813
G1 X119.357 Y139.652 E6.88868
G1 X120.161 Y139.212 E6.96184
G1 X120.722 Y138.895 E7.01328
G1 X121.426 Y138.428 E7.08072
G1 X121.922 Y138.091 E7.12858
G1 X122.617 Y137.541 E7.19933
G1 X123.1 Y137.148 E7.24904
G1 X123.758 Y136.527 E7.32126
G1 X124.268 Y136.03 E7.3781
G1 X124.905 Y135.317 E7.45443
G1 X125.338 Y134.804 E7.50801
G1 X125.632 Y134.449 E7.54481
G1 X126.104 Y133.984 E7.5977
G1 X126.639 Y133.573 E7.65155
G1 X127.238 Y133.225 E7.70685
G1 X127.82 Y132.979 E7.75728
G1 X129 Y132.526 E7.85818
G1 X130.05 Y132.054 E7.95007
G1 X130.531 Y131.806 E7.99327
G1 X131.502 Y131.269 E8.08185
G1 X131.96 Y130.981 E8.12503
G1 X132.799 Y130.419 E8.20564
G1 X133.253 Y130.08 E8.25087
G1 X134.001 Y129.491 E8.32687
G1 X134.441 Y129.103 E8.3737
G1 X135.244 Y128.349 E8.46162
G1 X135.917 Y127.637 E8.53983
G1 X136.601 Y126.804 E8.62587
G1 X137.218 Y125.928 E8.7114
G1 X137.758 Y125.031 E8.79497
G1 X138.249 Y124.061 E8.88176
G1 X138.657 Y123.079 E8.96664
G1 X138.991 Y122.077 E9.05095
G1 X139.252 Y121.061 E9.13469
G1 X139.476 Y119.703 E9.24455
G1 X139.644 Y118.845 E9.31434
G1 X139.952 Y118.021 E9.38456
G1 X140.339 Y116.97 E9.47397
G1 X140.634 Y115.954 E9.55842
G1 X140.857 Y114.903 E9.64418
G1 X140.981 Y114.033 E9.71433
G1 X141.164 Y111.895 E9.88562
G1 X141.156 Y110.655 E9.9846
G1 X141.153 Y110.276 E10.01486
G1 X141.164 Y108.861 E10.12781
G1 X141.225 Y107.542 E10.23321
G1 X141.257 Y106.691 E10.30119
G1 X141.257 Y102.777 E10.61362
G1 X141.215 Y101.671 E10.70197
G1 X141.132 Y100.901 E10.76379
G1 X141.066 Y100.386 E10.80524
G1 X140.777 Y98.92 E10.92451
G1 X140.589 Y97.741 E11.01982
G1 X140.354 Y96.749 E11.10119
G1 X140.031 Y95.733 E11.18629
G1 X139.565 Y94.59 E11.28482
G1 X139.273 Y93.828 E11.34996
G1 X138.944 Y92.903 E11.42833
G1 X138.673 Y92.201 E11.4884
G1 X138.448 Y91.7 E11.53224
G1 X137.999 Y90.773 E11.61446
G1 X137.715 Y90.258 E11.66141
G1 X137.134 Y89.281 E11.75214
G1 X136.838 Y88.842 E11.79441
G1 X136.236 Y88.002 E11.8769
G1 X135.867 Y87.54 E11.9241
G1 X135.178 Y86.732 E12.00886
G1 X134.749 Y86.281 E12.05855
G1 X134.033 Y85.573 E12.13893
G1 X133.648 Y85.23 E12.18009
G1 X132.841 Y84.552 E12.26422
G1 X132.352 Y84.184 E12.31307
G1 X131.505 Y83.588 E12.39575
G1 X131.027 Y83.289 E12.44075
G1 X130.083 Y82.739 E12.52796
G1 X129.563 Y82.472 E12.57462
G1 X128.66 Y82.041 E12.6545
G1 X128.114 Y81.816 E12.70164
G1 X127.126 Y81.443 E12.78593
G1 X126.572 Y81.268 E12.83231
G1 X125.539 Y80.977 E12.91798
G1 X125.008 Y80.858 E12.96142
G1 X123.988 Y80.661 E13.04434
G1 X123.394 Y80.578 E13.09222
G1 X122.405 Y80.469 E13.17164
G1 X121.808 Y80.436 E13.21937
G1 X121.143 Y80.419 E13.27247
G1 X120.535 Y80.369 E13.32117
G1 X119.892 Y80.24 E13.37352
G1 X119.247 Y80.022 E13.42787
G1 X118.782 Y79.792 E13.46928
G1 X118.282 Y79.537 E13.51408
G1 X117.485 Y79.12 E13.58588
G1 X116.475 Y78.686 E13.67363
G1 X115.484 Y78.344 E13.75732
G1 X114.46 Y78.07 E13.84193
G1 X113.593 Y77.9 E13.91246
G1 X112.983 Y77.807 E13.96171
G1 X112.245 Y77.617 E14.02255
G1 X111.147 Y77.34 E14.11294
G1 X110.081 Y77.155 E14.1993
G1 X109.029 Y77.051 E14.28369
G1 X107.968 Y77.024 E14.36841
G1 X106.907 Y77.073 E14.45319
G1 X105.822 Y77.206 E14.54045
G1 X104.775 Y77.413 E14.62564
G1 X103.684 Y77.712 E14.71594
G1 X102.95 Y77.875 E14.77596
G1 X102.347 Y77.973 E14.82473
G1 X101.309 Y78.214 E14.90979
G1 X100.281 Y78.533 E14.99571
G1 X99.3 Y78.921 E15.07992
G1 X98.331 Y79.386 E15.16571
G1 X97.162 Y80.062 E15.27351
G1 X96.245 Y80.679 E15.36173
G1 X95.393 Y81.343 E15.44796
G1 X94.609 Y82.055 E15.5325
G1 X93.979 Y82.709 E15.60498
G1 X93.458 Y83.302 E15.66799
G1 X93.226 Y83.511 E15.69292
G1 X92.94 Y83.765 E15.72345
G1 X92.394 Y84.143 E15.77646
G1 X91.807 Y84.451 E15.82938
G1 X91.179 Y84.685 E15.88287
G1 X90.239 Y84.975 E15.9614
G1 X89.254 Y85.359 E16.04579
G1 X88.283 Y85.822 E16.13166
G1 X87.367 Y86.342 E16.21574
G1 X86.47 Y86.944 E16.30197
G1 X85.631 Y87.601 E16.38704
G1 X84.845 Y88.314 E16.47175
G1 X84.119 Y89.076 E16.55576
G0 F9000 X84.611 Y89.137
G1 F900 X127.967 Y132.492 E21.4501
G0 F9000 X126.439 Y133.227
G1 F900 X83.59 Y90.378 E26.28727
G0 F9000 X82.698 Y91.749
G1 F900 X125.24 Y134.291 E31.08978
G0 F9000 X124.203 Y135.517
G1 F900 X81.957 Y93.271 E35.85887
G0 F9000 X81.371 Y94.948
G1 F900 X123.064 Y136.641 E40.56554
G0 F9000 X121.824 Y137.663
G1 F900 X80.982 Y96.822 E45.17608
G0 F9000 X80.84 Y98.942
G1 F900 X120.471 Y138.573 E49.64997
G0 F9000 X119.001 Y139.366
G1 F900 X80.84 Y101.205 E53.95791
G0 F9000 X80.84 Y103.468
G1 F900 X117.41 Y140.037 E58.08619
G0 F9000 X115.677 Y140.567
G1 F900 X80.84 Y105.73 E62.01889
G0 F9000 X80.996 Y108.149
G1 F900 X113.821 Y140.974 E65.72446
G0 F9000 X112.04 Y141.456
G1 F900 X81.798 Y111.213 E69.1385
G0 F9000 X82.331 Y114.01
G1 F900 X110.521 Y142.199 E72.32077
G0 F9000 X108.948 Y142.89
G1 F900 X82.141 Y116.082 E75.34704
G0 F9000 X81.725 Y117.929
G1 F900 X107.207 Y143.411 E78.22366
G0 F9000 X105.286 Y143.753
G1 F900 X81.533 Y120 E80.90511
G0 F9000 X81.523 Y122.252
G1 F900 X103.301 Y144.031 E83.36365
G0 F9000 X101.098 Y144.09
G1 F900 X81.758 Y124.75 E85.54692
G0 F9000 X82.245 Y127.499
G1 F900 X98.753 Y144.008 E87.41054
G0 F9000 X95.907 Y143.424
G1 F900 X83.797 Y131.314 E88.77762
G0 F9000 X89.828 Y139.608
G1 F900 X90.393 Y140.174 E88.84146
G0 F9000 X129.566 Y131.828
G1 F900 X85.76 Y88.023 E93.7866
G0 F9000 X87.042 Y87.042
G1 F900 X131.057 Y131.057 E98.7554
G0 F9000 X132.44 Y130.177
G1 F900 X88.449 Y86.187 E103.72143
G0 F9000 X90.016 Y85.49
G1 F900 X133.721 Y129.196 E108.65528
G0 F9000 X134.905 Y128.117
G1 F900 X91.703 Y84.915 E113.5323
G0 F9000 X93.152 Y84.101
G1 F900 X135.98 Y126.929 E118.36709
G0 F9000 X136.935 Y125.621
G1 F900 X94.282 Y82.969 E123.18207
G0 F9000 X95.428 Y81.851
G1 F900 X137.745 Y124.169 E127.95924
G0 F9000 X138.406 Y122.567
G1 F900 X96.696 Y80.857 E132.66782
G0 F9000 X98.089 Y79.987
G1 F900 X138.89 Y120.788 E137.27379
G0 F9000 X139.232 Y118.867
G1 F900 X99.598 Y79.233 E141.74802
G0 F9000 X101.272 Y78.645
G1 F900 X139.828 Y117.2 E146.1005
G0 F9000 X140.333 Y115.443
G1 F900 X103.135 Y78.244 E150.29979
G0 F9000 X104.941 Y77.788
G1 F900 X140.626 Y113.473 E154.32822
G0 F9000 X140.768 Y111.353
G1 F900 X106.894 Y77.478 E158.15227
G0 F9000 X109.143 Y77.464
G1 F900 X140.762 Y109.083 E161.72169
G0 F9000 X140.846 Y106.905
G1 F900 X111.879 Y77.938 E164.99174
G0 F9000 X114.771 Y78.568
G1 F900 X140.855 Y104.651 E167.93627
G0 F9000 X140.839 Y102.372
G1 F900 X118.629 Y80.163 E170.44347
G0 F9000 X121.559 Y80.83
G1 F900 X140.545 Y99.815 E172.58671
G0 F9000 X140.004 Y97.012
G1 F900 X124.077 Y81.085 E174.38469
G0 F9000 X127.126 Y81.871
G1 F900 X138.738 Y93.483 E175.69556
G0 F9000 X136.311 Y88.793
G1 F900 X131.812 Y84.294 E176.20344
G0 F600 X131.812 Y84.294 Z0.39
G0 F9000 X137.991 Y123.638
;TIME_ELAPSED:152.925974
;LAYER:-7
;TYPE:SUPPORT
G1 F900 X129.994 Y131.634 E176.76764
G1 X130.178 Y131.544 E176.77786
G1 X131.306 Y130.921 E176.84215
G1 X131.609 Y130.736 E176.85986
G1 X132.575 Y130.089 E176.91786
G1 X132.868 Y129.875 E176.93596
G1 X133.757 Y129.172 E176.99251
G1 X133.972 Y128.989 E177.00659
G1 X134.887 Y128.139 E177.0689
G1 X135.517 Y127.484 E177.11424
G1 X136.174 Y126.702 E177.1652
G1 X136.788 Y125.853 E177.21747
G1 X137.337 Y124.962 E177.26968
G1 X137.813 Y124.049 E177.32105
G1 X138.276 Y122.955 E177.38032
G1 X138.609 Y121.959 E177.43271
G1 X138.733 Y121.481 E177.45735
G1 X127.572 Y132.642 E178.24482
G1 X126.857 Y132.908 E178.28288
G1 X126.885 Y132.966 E178.28609
G1 X126.42 Y133.236 E178.31292
G1 X125.838 Y133.682 E178.3495
G1 X125.322 Y134.191 E178.38566
G1 X124.876 Y134.736 E178.42079
G1 X124.1 Y135.629 E178.47982
G1 X123.11 Y136.604 E178.54914
G1 X122.845 Y136.839 E178.56681
G1 X121.872 Y137.632 E178.62943
G1 X121.703 Y137.756 E178.63989
G1 X120.708 Y138.434 E178.69996
G1 X119.9 Y138.9 E178.7465
G1 X139.067 Y119.733 E180.09883
G1 X139.079 Y119.643 E180.10336
G1 X139.311 Y118.584 E180.15745
G1 X139.289 Y118.562 E180.159
G1 X139.618 Y117.767 E180.20192
G1 X117.312 Y140.074 E181.77577
G1 X116.666 Y140.302 E181.80995
G1 X116.438 Y140.371 E181.82183
G1 X115.306 Y140.666 E181.88019
G1 X140.277 Y115.694 E183.64207
G1 X140.434 Y114.991 E183.678
G1 X140.584 Y113.974 E183.72929
G1 X113.492 Y141.066 E185.64078
G1 X112.687 Y141.262 E185.68211
G1 X111.997 Y141.463 E185.71797
G1 X111.413 Y141.731 E185.75003
G1 X140.716 Y112.427 E187.81755
G1 X140.765 Y111.855 E187.84619
G1 X140.761 Y110.968 E187.89044
G1 X108.768 Y142.961 E190.14772
G1 X108.65 Y143.007 E190.15404
G1 X107.517 Y143.348 E190.21307
G1 X106.814 Y143.501 E190.24896
G1 X140.757 Y109.558 E192.64382
G1 X140.725 Y108.176 E192.71279
G1 X105.125 Y143.776 E195.22456
G1 X103.789 Y143.993 E195.29209
G1 X103.468 Y144.019 E195.30816
G1 X140.855 Y106.631 E197.94605
G1 X140.855 Y105.217 E198.01659
G1 X101.981 Y144.092 E200.7594
G1 X100.566 Y144.092 E200.82999
G1 X140.856 Y103.802 E203.67267
G1 X140.857 Y102.786 E203.72336
G1 X140.841 Y102.403 E203.74248
G1 X99.192 Y144.051 E206.68101
G1 X99.062 Y144.046 E206.6875
G1 X98.014 Y143.924 E206.74014
G1 X97.922 Y143.907 E206.74481
G1 X140.75 Y101.08 E209.76652
G1 X140.552 Y99.863 E209.82803
G1 X96.752 Y143.664 E212.91839
G1 X96.008 Y143.465 E212.95682
G1 X95.655 Y143.346 E212.9754
G1 X140.331 Y98.67 E216.12753
G1 X140.195 Y97.816 E216.17068
G1 X140.115 Y97.472 E216.1883
G1 X94.632 Y142.955 E219.39737
G1 X94.055 Y142.705 E219.42874
G1 X93.669 Y142.504 E219.45045
G1 X139.811 Y96.361 E222.70606
G1 X139.436 Y95.322 E222.76117
G1 X92.763 Y141.995 E226.0542
G1 X92.273 Y141.692 E226.08294
G1 X91.913 Y141.431 E226.10512
G1 X139.036 Y94.308 E229.42991
G1 X138.657 Y93.273 E229.4849
G1 X91.114 Y140.816 E232.83931
G1 X90.63 Y140.409 E232.87086
G1 X90.364 Y140.152 E232.88931
G1 X138.26 Y92.256 E236.26863
G1 X137.806 Y91.295 E236.32166
G1 X89.668 Y139.433 E239.71806
G1 X89.305 Y139.033 E239.745
G1 X89.02 Y138.667 E239.76815
G1 X137.316 Y90.371 E243.17569
G1 X136.789 Y89.484 E243.22717
G1 X88.423 Y137.85 E246.63965
G1 X88.089 Y137.353 E246.66952
G1 X87.878 Y136.981 E246.69086
G1 X136.209 Y88.65 E250.10087
G1 X135.917 Y88.241 E250.12594
G1 X135.6 Y87.845 E250.15125
G1 X87.387 Y136.057 E253.5529
G1 X87.006 Y135.357 E253.59266
G1 X86.867 Y135.164 E253.60453
G1 X134.951 Y87.08 E256.99712
G1 X134.592 Y86.689 E257.0236
G1 X134.259 Y86.358 E257.04702
G1 X86.228 Y134.389 E260.43587
G1 X85.744 Y133.905 E260.47002
G1 X85.533 Y133.67 E260.48577
G1 X133.539 Y85.663 E263.87289
G1 X132.772 Y85.016 E263.92295
G1 X84.885 Y132.903 E267.30164
G1 X84.524 Y132.44 E267.33093
G1 X84.287 Y132.086 E267.35219
G1 X131.97 Y84.404 E270.71644
G1 X131.289 Y83.924 E270.75801
G1 X131.135 Y83.824 E270.76717
G1 X83.743 Y131.217 E274.11097
G1 X83.359 Y130.533 E274.1501
G1 X83.249 Y130.297 E274.16309
G1 X130.249 Y83.297 E277.4792
G1 X129.561 Y82.913 E277.51851
G1 X129.329 Y82.802 E277.53134
G1 X82.822 Y129.309 E280.81266
G1 X82.557 Y128.618 E280.84958
G1 X82.453 Y128.264 E280.86799
G1 X128.368 Y82.349 E284.10754
G1 X127.349 Y81.954 E284.16206
G1 X82.16 Y127.143 E287.35039
G1 X82.047 Y126.629 E287.37665
G1 X81.949 Y125.939 E287.41142
G1 X126.287 Y81.602 E290.53967
G1 X125.425 Y81.358 E290.58436
G1 X125.176 Y81.298 E290.59714
G1 X81.754 Y124.72 E293.6608
G1 X81.619 Y123.887 E293.7029
G1 X81.586 Y123.474 E293.72357
G1 X123.992 Y81.068 E296.71554
G1 X122.738 Y80.907 E296.77861
G1 X81.52 Y122.125 E299.68677
G1 X81.52 Y120.711 E299.75731
G1 X121.406 Y80.825 E302.57148
G1 X120.48 Y80.766 E302.61778
G1 X120.124 Y80.693 E302.63591
G1 X81.563 Y119.254 E305.35659
G1 X81.566 Y119.165 E305.36104
G1 X81.689 Y118.123 E305.41338
G1 X81.784 Y117.619 E305.43897
G1 X119.035 Y80.368 E308.06723
G1 X118.438 Y80.076 E308.10039
G1 X118.097 Y79.892 E308.11972
G1 X82.237 Y115.752 E310.64983
G1 X82.331 Y115.389 E310.66854
G1 X82.28 Y115.374 E310.67119
G1 X82.339 Y114.655 E310.70719
G1 X82.339 Y114.235 E310.72814
G1 X117.158 Y79.417 E313.18477
G1 X116.529 Y79.135 E313.21916
G1 X116.159 Y79.002 E313.23878
G1 X82.282 Y112.878 E315.62895
G1 X82.156 Y112.228 E315.66198
G1 X81.998 Y111.748 E315.68719
G1 X115.095 Y78.652 E318.02233
G1 X114.385 Y78.461 E318.05901
G1 X113.95 Y78.382 E318.08107
G1 X81.619 Y110.713 E320.36219
G1 X81.394 Y110.022 E320.39845
G1 X81.293 Y109.625 E320.41889
G1 X112.738 Y78.179 E322.63754
G1 X112.077 Y77.984 E322.67192
G1 X111.633 Y77.871 E322.69478
G1 X81.049 Y108.455 E324.85264
G1 X80.948 Y107.825 E324.88448
G1 X80.893 Y107.197 E324.91593
G1 X110.465 Y77.624 E327.00243
G1 X109.209 Y77.466 E327.06558
G1 X80.839 Y105.836 E329.06724
G1 X80.839 Y104.421 E329.13783
G1 X107.828 Y77.433 E331.04202
G1 X107.09 Y77.46 E331.07886
G1 X106.302 Y77.545 E331.1184
G1 X80.839 Y103.007 E332.91492
G1 X80.839 Y101.593 E332.98546
G1 X104.542 Y77.89 E334.65784
G1 X103.8 Y78.094 E334.69623
G1 X103.046 Y78.263 E334.73478
G1 X102.7 Y78.318 E334.75226
G1 X80.839 Y100.179 E336.29467
G1 X80.841 Y98.763 E336.36532
G1 X100.822 Y78.782 E337.77508
G1 X100.422 Y78.906 E337.79598
G1 X99.452 Y79.29 E337.84803
G1 X98.514 Y79.74 E337.89993
G1 X98.362 Y79.828 E337.90869
G1 X80.929 Y97.261 E339.13868
G1 X80.984 Y96.768 E339.16343
G1 X81.206 Y95.569 E339.22427
G1 X91.952 Y84.823 E339.98246
G1 X91.294 Y85.067 E340.01747
G1 X90.38 Y85.348 E340.06517
G1 X89.781 Y85.581 E340.09724
G1 X81.86 Y93.502 E340.65611
G1 X82.141 Y92.827 E340.69259
G1 X82.215 Y92.669 E340.70129
G1 X82.691 Y91.754 E340.75275
G1 X83.239 Y90.863 E340.80493
