;FLAVOR:Marlin
;TIME:3857
;Filament used: 1.27148m
;Layer height: 0.1
;MINX:88.956
;MINY:85.911
;MINZ:0.24
;MAXX:131.311
;MAXY:135.336
;MAXZ:24.84
;Generated with Cura_SteamEngine 5.0.0
M140 S100
M105
M190 S100
M104 S230
M105
M109 S230
M82 ;absolute extrusion mode
G28 ;Home
G1 Z15.0 F6000 ;Move the platform down 15mm
;Prime the extruder
G92 E0
G1 F200 E3
G92 E0
G92 E0
G92 E0
G1 F2700 E-5
;LAYER_COUNT:240
;LAYER:-8
M107
G0 F9000 X92.839 Y90.974 Z0.24
;TYPE:SUPPORT-INTERFACE
G1 F2700 E0
G1 F900 X92.304 Y91.667 E0.06988
G1 X91.854 Y92.369 E0.13645
G1 X91.452 Y93.137 E0.20564
G1 X91.124 Y93.931 E0.27422
G1 X90.871 Y94.75 E0.34264
G1 X90.69 Y95.582 E0.41061
G1 X90.497 Y97.172 E0.53846
G1 X90.363 Y97.7 E0.58194
G1 X90.079 Y98.463 E0.64693
G1 X89.779 Y99.113 E0.70408
G1 X89.49 Y99.929 E0.77318
G1 X89.275 Y100.756 E0.84139
G1 X89.136 Y101.606 E0.91014
G1 X89.089 Y102.157 E0.95428
G1 X89.003 Y102.916 E1.01526
G1 X88.956 Y103.925 E1.09589
G1 X88.983 Y104.688 E1.15683
G1 X88.977 Y105.315 E1.20688
G1 X88.989 Y106.158 E1.27418
G1 X89.077 Y107.027 E1.34391
G1 X89.227 Y107.836 E1.40958
G1 X89.476 Y108.699 E1.48128
G1 X89.778 Y109.478 E1.54797
G1 X90.157 Y110.251 E1.6167
G1 X90.606 Y110.99 E1.68572
G1 X91.111 Y111.673 E1.75353
G1 X91.686 Y112.322 E1.82274
G1 X92.151 Y112.769 E1.87423
G1 X92.844 Y113.383 E1.94813
G1 X93.288 Y113.892 E2.00205
G1 X93.664 Y114.451 E2.05583
G1 X93.965 Y115.051 E2.10941
G1 X94.195 Y115.693 E2.16385
G1 X94.457 Y116.638 E2.24213
G1 X94.557 Y117.311 E2.29644
G1 X94.572 Y118 E2.35145
G1 X94.437 Y119.08 E2.43833
G1 X94.348 Y119.903 E2.50441
G1 X94.317 Y120.656 E2.56457
G1 X94.311 Y121.515 E2.63314
G1 X94.356 Y122.265 E2.69312
G1 X94.408 Y122.765 E2.73324
G1 X94.607 Y123.968 E2.83058
G1 X94.873 Y125.047 E2.91929
G1 X95.113 Y125.786 E2.98131
G1 X95.298 Y126.28 E3.02342
G1 X95.785 Y127.379 E3.11937
G1 X96.312 Y128.354 E3.20784
G1 X96.772 Y129.074 E3.27604
G1 X97.206 Y129.665 E3.33457
G1 X97.721 Y130.319 E3.40102
G1 X98.253 Y130.906 E3.46426
G1 X98.608 Y131.268 E3.50473
G1 X99.497 Y132.067 E3.60014
G1 X100.459 Y132.795 E3.69645
G1 X101.41 Y133.4 E3.78642
G1 X102.108 Y133.779 E3.84982
G1 X102.804 Y134.1 E3.911
G1 X103.656 Y134.456 E3.98471
G1 X104.715 Y134.8 E4.07359
G1 X105.495 Y134.997 E4.13781
G1 X106.241 Y135.134 E4.19835
G1 X107.121 Y135.262 E4.26934
G1 X107.883 Y135.32 E4.33034
G1 X108.391 Y135.336 E4.37091
G1 X108.967 Y135.322 E4.4169
G1 X109.575 Y135.305 E4.46546
G1 X110.79 Y135.169 E4.56305
G1 X111.961 Y134.938 E4.65832
G1 X113.116 Y134.606 E4.75426
G1 X114.163 Y134.21 E4.84361
G1 X114.975 Y133.838 E4.91491
G1 X115.644 Y133.514 E4.97424
G1 X116.291 Y133.291 E5.02887
G1 X117.763 Y132.988 E5.14883
G1 X118.569 Y132.752 E5.21587
G1 X119.377 Y132.432 E5.28525
G1 X120.127 Y132.058 E5.35214
G1 X120.869 Y131.6 E5.42175
G1 X121.556 Y131.084 E5.49033
G1 X122.193 Y130.511 E5.55873
G1 X122.775 Y129.885 E5.62696
G1 X123.307 Y129.196 E5.69644
G1 X123.757 Y128.493 E5.76307
G1 X124.157 Y127.734 E5.83156
G1 X124.524 Y126.822 E5.91003
G1 X124.874 Y126 E5.98135
G1 X125.117 Y125.523 E6.02408
G1 X125.451 Y124.718 E6.09365
G1 X125.704 Y123.899 E6.16207
G1 X125.885 Y123.066 E6.23012
G1 X125.992 Y122.209 E6.29906
G1 X126.023 Y121.517 E6.35435
G1 X126.024 Y118.467 E6.59782
G1 X125.998 Y117.84 E6.64791
G1 X125.894 Y116.954 E6.71912
G1 X125.745 Y116.198 E6.78063
G1 X125.65 Y115.381 E6.84628
G1 X125.667 Y114.721 E6.89899
G1 X125.767 Y114.044 E6.95361
G1 X125.952 Y113.389 E7.00794
G1 X126.218 Y112.761 E7.06238
G1 X126.563 Y112.169 E7.11708
G1 X126.983 Y111.619 E7.17232
G1 X127.389 Y111.21 E7.21832
G1 X127.804 Y110.796 E7.26511
G1 X128.474 Y110.04 E7.34575
G1 X128.957 Y109.406 E7.40937
G1 X129.593 Y108.421 E7.50296
G1 X130.144 Y107.364 E7.59811
G1 X130.362 Y106.851 E7.64261
G1 X130.691 Y105.971 E7.7176
G1 X130.835 Y105.477 E7.75868
G1 X131.077 Y104.506 E7.83856
G1 X131.166 Y103.966 E7.88224
G1 X131.284 Y103.012 E7.95898
G1 X131.311 Y102.341 E8.01258
G1 X131.311 Y102.05 E8.03581
G1 X131.311 Y101.5 E8.07971
G1 X131.203 Y100.276 E8.1778
G1 X131.002 Y99.183 E8.26651
G1 X130.685 Y98.051 E8.36035
G1 X130.274 Y96.973 E8.45244
G1 X129.869 Y96.157 E8.52516
G1 X129.575 Y95.598 E8.57558
G1 X129.266 Y95.024 E8.62761
G1 X128.99 Y94.46 E8.67773
G1 X128.755 Y93.864 E8.72887
G1 X128.375 Y93.1 E8.79699
G1 X127.924 Y92.365 E8.86582
G1 X127.408 Y91.672 E8.93479
G1 X126.846 Y91.042 E9.00218
G1 X126.205 Y90.444 E9.07216
G1 X125.532 Y89.919 E9.14029
G1 X124.961 Y89.542 E9.19491
G1 X124.457 Y89.242 E9.24173
G1 X123.383 Y88.7 E9.33776
G1 X122.618 Y88.409 E9.4031
G1 X121.762 Y88.168 E9.47408
G1 X121.09 Y88.034 E9.52878
G1 X120.369 Y87.922 E9.58702
G1 X119.549 Y87.73 E9.65425
G1 X118.775 Y87.496 E9.7188
G1 X117.923 Y87.323 E9.78819
G1 X117.086 Y87.228 E9.85544
G1 X116.215 Y87.21 E9.92498
G1 X115.365 Y87.267 E9.99298
G1 X114.698 Y87.362 E10.04676
G1 X113.801 Y87.462 E10.11881
G1 X113.136 Y87.436 E10.17193
G1 X112.502 Y87.334 E10.22319
G1 X111.784 Y87.118 E10.28304
G1 X111.049 Y86.895 E10.34435
G1 X110.441 Y86.714 E10.39499
G1 X109.341 Y86.493 E10.48455
G1 X108.335 Y86.387 E10.5653
G1 X107.561 Y86.349 E10.62716
G1 X107.038 Y86.273 E10.66934
G1 X106.234 Y86.119 E10.73469
G1 X105.639 Y86.017 E10.78288
G1 X104.891 Y85.942 E10.84289
G1 X104.388 Y85.911 E10.88311
G1 X103.53 Y85.937 E10.95164
G1 X102.662 Y86.041 E11.02142
G1 X101.792 Y86.227 E11.09243
G1 X100.846 Y86.401 E11.16922
G1 X99.798 Y86.643 E11.25507
G1 X98.886 Y86.923 E11.33123
G1 X97.767 Y87.366 E11.42729
G1 X97.021 Y87.721 E11.49324
G1 X95.9 Y88.362 E11.59632
G1 X95.278 Y88.778 E11.65605
G1 X94.627 Y89.271 E11.72124
G1 X94.026 Y89.784 E11.78431
G1 X93.474 Y90.293 E11.84425
G1 X92.839 Y90.974 E11.91858
G0 F9000 X93.313 Y91.05
G1 F900 X125.449 Y123.186 E15.54637
G0 F9000 X124.93 Y124.93
G1 F900 X92.343 Y92.343 E19.22507
G0 F9000 X91.589 Y93.852
G1 F900 X124.23 Y126.492 E22.90981
G0 F9000 X123.533 Y128.059
G1 F900 X91.09 Y95.616 E26.57226
G0 F9000 X90.796 Y97.584
G1 F900 X122.629 Y129.418 E30.1659
G0 F9000 X121.523 Y130.574
G1 F900 X90.183 Y99.234 E33.70383
G0 F9000 X89.659 Y100.972
G1 F900 X120.217 Y131.531 E37.15353
G0 F9000 X118.694 Y132.27
G1 F900 X89.4 Y102.976 E40.46049
G0 F9000 X89.377 Y105.216
G1 F900 X116.913 Y132.752 E43.569
G0 F9000 X115.186 Y133.288
G1 F900 X89.611 Y107.713 E46.45612
G0 F9000 X94.134 Y114.498
G1 F900 X113.621 Y133.986 E48.65604
G0 F9000 X111.908 Y134.536
G1 F900 X94.96 Y117.588 E50.56928
G0 F9000 X94.776 Y119.666
G1 F900 X109.967 Y134.857 E52.28417
G0 F9000 X107.752 Y134.905
G1 F900 X94.733 Y121.886 E53.75387
G0 F9000 X95.171 Y124.587
G1 F900 X105.056 Y134.472 E54.86977
G0 F9000 X100.962 Y132.64
G1 F900 X96.986 Y128.665 E55.31856
G0 F9000 X125.623 Y121.097
G1 F900 X94.457 Y89.931 E58.83685
G0 F9000 X95.738 Y88.95
G1 F900 X125.623 Y118.835 E62.21052
G0 F9000 X125.357 Y116.306
G1 F900 X97.155 Y88.104 E65.39421
G0 F9000 X98.729 Y87.416
G1 F900 X125.362 Y114.048 E68.40071
G0 F9000 X125.968 Y112.392
G1 F900 X100.474 Y86.897 E71.27875
G0 F9000 X102.355 Y86.515
G1 F900 X126.937 Y111.098 E74.05384
G0 F9000 X128.034 Y109.932
G1 F900 X104.414 Y86.312 E76.72027
G0 F9000 X107.041 Y86.677
G1 F900 X128.986 Y108.622 E79.19761
G0 F9000 X129.785 Y107.158
G1 F900 X109.576 Y86.949 E81.47898
G0 F9000 X112.654 Y87.763
G1 F900 X130.411 Y105.521 E83.4836
G0 F9000 X130.802 Y103.649
G1 F900 X114.891 Y87.738 E85.27977
G0 F9000 X117.043 Y87.628
G1 F900 X130.908 Y101.492 E86.84491
G0 F9000 X130.479 Y98.801
G1 F900 X119.901 Y88.223 E88.03905
G0 F9000 X122.876 Y88.935
G1 F900 X128.682 Y94.74 E88.69442
G0 F600 X128.682 Y94.74 Z0.39
G0 F9000 X97.152 Y88.109
;TIME_ELAPSED:79.175439
;LAYER:-7
;TYPE:SUPPORT
G1 F900 X91.713 Y93.548 E89.07817
G0 F9000 X96.109 Y88.7
G1 F900 X95.512 Y89.098 E89.11397
G1 X94.571 Y89.829 E89.17342
G1 X93.826 Y90.506 E89.22364
G1 X93.138 Y91.237 E89.27372
G1 X92.625 Y91.904 E89.3157
G1 X92.193 Y92.577 E89.3556
G1 X91.817 Y93.297 E89.39613
G1 X91.51 Y94.038 E89.43614
G1 X91.254 Y94.859 E89.47905
G1 X91.1 Y95.576 E89.51563
G1 X99.535 Y87.141 E90.11077
G1 X99.979 Y87.006 E90.13392
G1 X101.032 Y86.771 E90.18775
G1 X101.366 Y86.723 E90.20458
G1 X90.92 Y97.169 E90.9416
G1 X90.907 Y97.317 E90.94902
G1 X90.873 Y97.316 E90.95071
G1 X90.702 Y97.976 E90.98473
G1 X90.441 Y98.633 E91.02
G1 X90.099 Y99.405 E91.06212
G1 X103.115 Y86.388 E91.98051
G1 X103.583 Y86.332 E92.00402
G1 X104.595 Y86.322 E92.05451
G1 X89.584 Y101.334 E93.11366
G1 X89.535 Y101.624 E93.12833
G1 X89.487 Y102.195 E93.15692
G1 X89.407 Y102.925 E93.19356
G1 X105.88 Y86.452 E94.35581
G1 X107.066 Y86.68 E94.41607
G1 X89.372 Y104.374 E95.66447
G1 X89.383 Y104.669 E95.6792
G1 X89.376 Y105.265 E95.70894
G1 X89.383 Y105.777 E95.73449
G1 X108.367 Y86.793 E97.07391
G1 X109.624 Y86.95 E97.13711
G1 X89.494 Y107.08 E98.55739
G1 X89.619 Y107.745 E98.59115
G1 X89.758 Y108.231 E98.61637
G1 X110.768 Y87.221 E100.09873
G1 X111.847 Y87.556 E100.1551
G1 X90.127 Y109.276 E101.68756
G1 X90.139 Y109.309 E101.68932
G1 X90.603 Y110.215 E101.7401
G1 X112.997 Y87.821 E103.32012
G1 X113.069 Y87.833 E103.32376
G1 X113.752 Y87.862 E103.35786
G1 X113.752 Y87.904 E103.35996
G1 X114.425 Y87.807 E103.39388
G1 X91.162 Y111.07 E105.03521
G1 X91.419 Y111.419 E105.05684
G1 X91.8 Y111.846 E105.08539
G1 X116.025 Y87.621 E106.79459
G1 X116.212 Y87.609 E106.80394
G1 X117.395 Y87.665 E106.86303
G1 X92.508 Y112.552 E108.61894
G1 X93.243 Y113.231 E108.66886
G1 X118.606 Y87.868 E110.45836
G1 X118.701 Y87.888 E110.4632
G1 X119.71 Y88.179 E110.51559
G1 X93.861 Y114.028 E112.33938
G1 X94.016 Y114.26 E112.3533
G1 X94.355 Y114.947 E112.39152
G1 X120.896 Y88.407 E114.26409
G1 X121.018 Y88.426 E114.27025
G1 X122.053 Y88.664 E114.32324
G1 X94.699 Y116.017 E116.25318
G1 X94.849 Y116.557 E116.28114
G1 X94.943 Y117.188 E116.31296
G1 X123.11 Y89.021 E118.3003
G1 X123.438 Y89.164 E118.31815
G1 X124.057 Y89.488 E118.35301
G1 X94.892 Y118.653 E120.41075
G1 X94.832 Y119.133 E120.43489
G1 X94.726 Y120.234 E120.49007
G1 X124.943 Y90.016 E122.62208
G1 X125.293 Y90.24 E122.64281
G1 X125.766 Y90.607 E122.67268
G1 X94.721 Y121.653 E124.86311
G1 X94.844 Y122.944 E124.92781
G1 X126.512 Y91.276 E127.16216
G1 X126.554 Y91.316 E127.16505
G1 X127.175 Y92.027 E127.21215
G1 X95.062 Y124.14 E129.47789
G1 X95.365 Y125.251 E129.53534
G1 X127.758 Y92.858 E131.82085
G1 X128.018 Y93.282 E131.84566
G1 X128.26 Y93.77 E131.87283
G1 X95.742 Y126.289 E134.16719
G1 X96.179 Y127.265 E134.22054
G1 X128.689 Y94.756 E136.51426
G1 X129.166 Y95.693 E136.56672
G1 X96.677 Y128.182 E138.85899
G1 X97.237 Y129.036 E138.90994
G1 X129.66 Y96.613 E141.19756
G1 X129.853 Y97.007 E141.21945
G1 X130.085 Y97.602 E141.25131
G1 X97.85 Y129.837 E143.52566
G1 X98.023 Y130.059 E143.5397
G1 X98.514 Y130.587 E143.57568
G1 X130.436 Y98.666 E145.82791
G1 X130.644 Y99.404 E145.86616
G1 X130.713 Y99.803 E145.88637
G1 X99.228 Y131.288 E148.1078
G1 X99.991 Y131.939 E148.15784
G1 X130.868 Y101.062 E150.33638
G1 X130.917 Y101.624 E150.36452
G1 X130.907 Y102.437 E150.40509
G1 X100.805 Y132.539 E152.52895
G1 X101.672 Y133.086 E152.58009
G1 X130.758 Y104 E154.63227
G1 X130.686 Y104.417 E154.65338
G1 X130.409 Y105.539 E154.71104
G1 X130.3 Y105.872 E154.72852
G1 X102.597 Y133.576 E156.68315
G1 X103.587 Y134 E156.73688
G1 X129.024 Y108.563 E158.5316
G1 X128.557 Y109.279 E158.57424
G1 X128.128 Y109.832 E158.60916
G1 X127.427 Y110.609 E158.66137
G1 X126.53 Y111.473 E158.72351
G1 X126.564 Y111.507 E158.7259
G1 X126.241 Y111.922 E158.75214
G1 X125.87 Y112.555 E158.78875
G1 X125.503 Y113.498 E158.83923
G1 X104.644 Y134.358 E160.31098
G1 X104.805 Y134.411 E160.31944
G1 X105.773 Y134.643 E160.3691
G1 X125.254 Y115.162 E161.74359
G1 X125.247 Y115.399 E161.75542
G1 X125.385 Y116.444 E161.808
G1 X106.991 Y134.838 E163.1058
G1 X107.153 Y134.862 E163.11397
G1 X108.311 Y134.933 E163.17185
G1 X125.572 Y117.672 E164.38971
G1 X125.609 Y118.006 E164.40647
G1 X125.624 Y119.034 E164.45777
G1 X109.778 Y134.88 E165.57579
G1 X110.595 Y134.794 E165.61677
G1 X111.437 Y134.635 E165.65952
G1 X125.622 Y120.45 E166.66035
G1 X125.621 Y121.49 E166.71224
G1 X125.604 Y121.882 E166.73181
G1 X113.428 Y134.058 E167.5909
G1 X114.008 Y133.841 E167.62179
G1 X115.087 Y133.329 E167.68138
G1 X115.896 Y133.004 E167.72487
G1 X115.903 Y132.939 E167.72813
G1 X115.974 Y132.926 E167.73173
G1 X125.377 Y123.524 E168.39513
G1 X125.32 Y123.788 E168.40861
G1 X125.064 Y124.609 E168.45151
G1 X124.537 Y125.778 E168.51549
G1 X117.735 Y132.58 E168.9954
G1 X118.436 Y132.374 E169.03185
G1 X119.206 Y132.069 E169.07317
G1 X120.167 Y131.562 E169.12738
G1 X123.366 Y128.363 E169.35309
G1 X122.984 Y128.958 E169.38836
G1 X122.473 Y129.622 E169.43017
G1 X121.905 Y130.234 E169.47182
G1 X121.297 Y130.779 E169.51256
G1 X120.65 Y131.263 E169.55287
G0 F600 X120.65 Y131.263 Z0.49
G0 F9000 X99.792 Y132.036
;TIME_ELAPSED:187.531426
;LAYER:-6
;TYPE:SUPPORT-INTERFACE
G1 F1200 X97.607 Y129.851 E169.60426
G1 X97.869 Y130.187 E169.61134
G1 X98.664 Y131.043 E169.63077
G1 X99.55 Y131.85 E169.6507
G1 X100.508 Y132.586 E169.67079
G1 X101.496 Y133.218 E169.6903
G1 X101.589 Y133.267 E169.69204
G1 X96.376 Y128.054 E169.81465
G1 X95.79 Y126.903 E169.83613
G1 X102.743 Y133.856 E169.99965
G1 X103.717 Y134.264 E170.01721
G1 X95.381 Y125.928 E170.21326
G1 X95.093 Y125.075 E170.22823
G1 X104.558 Y134.539 E170.45082
G1 X104.754 Y134.604 E170.45426
G1 X105.324 Y134.74 E170.464
G1 X94.896 Y124.312 E170.70925
G1 X94.741 Y123.591 E170.72152
G1 X106.051 Y134.901 E170.98751
G1 X106.715 Y134.999 E170.99867
G1 X94.635 Y122.919 E171.28278
G1 X94.565 Y122.284 E171.2934
G1 X107.357 Y135.075 E171.59424
G1 X107.962 Y135.115 E171.60432
G1 X94.521 Y121.674 E171.92043
G1 X94.514 Y121.101 E171.92996
G1 X108.54 Y135.128 E172.25984
G1 X109.095 Y135.117 E172.26907
G1 X94.52 Y120.541 E172.61187
G1 X94.547 Y120.003 E172.62083
G1 X109.639 Y135.095 E172.97577
G1 X110.151 Y135.041 E172.98433
G1 X94.597 Y119.487 E173.35013
G1 X94.651 Y118.975 E173.3587
G1 X110.66 Y134.984 E173.7352
G1 X111.135 Y134.894 E173.74324
G1 X94.713 Y118.472 E174.12946
G1 X94.77 Y117.963 E174.13798
G1 X111.611 Y134.804 E174.53406
G1 X112.069 Y134.696 E174.54188
G1 X94.757 Y117.385 E174.94902
G1 X94.756 Y117.296 E174.9505
G1 X94.672 Y116.734 E174.95995
G1 X112.51 Y134.572 E175.37947
G1 X112.952 Y134.448 E175.38711
G1 X94.48 Y115.976 E175.82154
G1 X94.388 Y115.645 E175.82725
G1 X94.212 Y115.142 E175.83612
G1 X113.365 Y134.295 E176.28657
G1 X113.777 Y134.141 E176.29388
G1 X93.531 Y113.896 E176.77002
G1 X93.449 Y113.772 E176.7725
G1 X92.985 Y113.241 E176.78422
G1 X91.822 Y112.174 E176.81047
G1 X91.252 Y111.532 E176.82475
G1 X90.772 Y110.879 E176.83823
G1 X90.309 Y110.108 E176.85318
G1 X114.182 Y133.981 E177.41464
G1 X114.57 Y133.803 E177.42174
G1 X89.83 Y109.064 E178.00357
G1 X89.543 Y108.211 E178.01854
G1 X114.956 Y133.624 E178.61621
G1 X115.336 Y133.438 E178.62325
G1 X89.362 Y107.463 E179.23413
G1 X89.251 Y106.787 E179.24552
G1 X115.733 Y133.269 E179.86834
G1 X116.139 Y133.11 E179.87559
G1 X89.187 Y106.157 E180.50947
G1 X89.181 Y105.585 E180.51898
G1 X116.606 Y133.011 E181.16399
G1 X117.082 Y132.921 E181.17205
G1 X89.179 Y105.018 E181.82828
G1 X89.174 Y104.448 E181.83776
G1 X117.556 Y132.83 E182.50526
G1 X118.001 Y132.709 E182.51293
G1 X89.156 Y103.864 E183.19132
G1 X89.185 Y103.327 E183.20026
G1 X118.44 Y132.582 E183.8883
G1 X118.849 Y132.425 E183.89558
G1 X89.213 Y102.789 E184.59258
G1 X89.274 Y102.285 E184.60102
G1 X119.254 Y132.265 E185.3061
G1 X119.634 Y132.079 E185.31314
G1 X89.321 Y101.766 E186.02605
G1 X89.391 Y101.271 E186.03437
G1 X120.012 Y131.891 E186.75451
G1 X120.363 Y131.676 E186.76136
G1 X89.471 Y100.785 E187.48788
G1 X89.589 Y100.337 E187.49558
G1 X120.713 Y131.461 E188.22757
G1 X121.039 Y131.221 E188.23431
G1 X89.712 Y99.895 E188.97106
G1 X89.861 Y99.477 E188.97844
G1 X121.362 Y130.979 E189.7193
G1 X121.666 Y130.717 E189.72598
G1 X90.017 Y99.068 E190.47031
G1 X90.197 Y98.682 E190.4774
G1 X121.964 Y130.449 E191.22451
G1 X122.243 Y130.163 E191.23115
G1 X90.364 Y98.283 E191.98091
G1 X90.521 Y97.875 E191.98818
G1 X122.516 Y129.87 E192.74065
G1 X122.773 Y129.561 E192.74734
G1 X90.638 Y97.426 E193.5031
G1 X90.722 Y96.945 E193.51122
G1 X123.019 Y129.242 E194.2708
