;FLAVOR:Marlin
;TIME:3487
;Filament used: 1.13829m
;Layer height: 0.1
;MINX:85.586
;MINY:93.641
;MINZ:0.24
;MAXX:133.883
;MAXY:131.727
;MAXZ:24.84
;Generated with Cura_SteamEngine 5.0.0
M140 S100
M105
M190 S100
M104 S230
M105
M109 S230
M82 ;absolute extrusion mode
G28 ;Home
G1 Z15.0 F6000 ;Move the platform down 15mm
;Prime the extruder
G92 E0
G1 F200 E3
G92 E0
G92 E0
G92 E0
G1 F2700 E-5
;LAYER_COUNT:240
;LAYER:-8
M107
G0 F9000 X90.768 Y104.258 Z0.24
;TYPE:SUPPORT-INTERFACE
G1 F2700 E0
G1 F900 X90.22 Y104.846 E0.06416
G1 X89.747 Y105.425 E0.12384
G1 X89.25 Y106.077 E0.18928
G1 X88.814 Y106.735 E0.25229
G1 X88.556 Y107.167 E0.29246
G1 X87.991 Y108.252 E0.39011
G1 X87.524 Y109.372 E0.48697
G1 X87.169 Y110.477 E0.57962
G1 X86.911 Y111.572 E0.66942
G1 X86.818 Y112.129 E0.71449
G1 X86.683 Y112.739 E0.76437
G1 X86.46 Y113.368 E0.81764
G1 X86.161 Y114.097 E0.88053
G1 X85.906 Y114.92 E0.94931
G1 X85.725 Y115.751 E1.0172
G1 X85.618 Y116.606 E1.08598
G1 X85.588 Y117.3 E1.14143
G1 X85.586 Y121.25 E1.45674
G1 X85.605 Y121.803 E1.50091
G1 X85.699 Y122.699 E1.57282
G1 X85.87 Y123.557 E1.64266
G1 X86.106 Y124.361 E1.70954
G1 X86.426 Y125.17 E1.77899
G1 X86.799 Y125.919 E1.84578
G1 X87.259 Y126.662 E1.91554
G1 X87.775 Y127.35 E1.98419
G1 X88.348 Y127.987 E2.05258
G1 X88.972 Y128.567 E2.12058
G1 X89.663 Y129.101 E2.19029
G1 X90.366 Y129.551 E2.25692
G1 X91.126 Y129.952 E2.32552
G1 X91.925 Y130.281 E2.39449
G1 X92.745 Y130.534 E2.46299
G1 X93.713 Y130.739 E2.54198
G1 X94.324 Y130.874 E2.59192
G1 X94.853 Y131.063 E2.63677
G1 X95.33 Y131.222 E2.6769
G1 X95.921 Y131.406 E2.72631
G1 X96.754 Y131.587 E2.79436
G1 X97.608 Y131.694 E2.86306
G1 X98.302 Y131.725 E2.91851
G1 X101.368 Y131.727 E3.16325
G1 X101.903 Y131.708 E3.20599
G1 X102.803 Y131.614 E3.27822
G1 X103.659 Y131.444 E3.34788
G1 X104.473 Y131.204 E3.41563
G1 X105.277 Y130.885 E3.48467
G1 X105.963 Y130.557 E3.54537
G1 X106.563 Y130.287 E3.59789
G1 X107.492 Y129.921 E3.67759
G1 X108.242 Y129.547 E3.74449
G1 X108.984 Y129.089 E3.8141
G1 X109.671 Y128.573 E3.88268
G1 X110.311 Y127.997 E3.95141
G1 X110.709 Y127.579 E3.99749
G1 X111.113 Y127.201 E4.04165
G1 X111.648 Y126.801 E4.09497
G1 X112.245 Y126.46 E4.14985
G1 X112.873 Y126.204 E4.20399
G1 X113.505 Y126.031 E4.25629
G1 X114.108 Y125.944 E4.30493
G1 X115.104 Y125.837 E4.38489
G1 X115.962 Y125.665 E4.45474
G1 X116.768 Y125.429 E4.52178
G1 X118.415 Y124.754 E4.66386
G1 X119.081 Y124.578 E4.71885
G1 X119.742 Y124.491 E4.77207
G1 X120.448 Y124.494 E4.82843
G1 X121.607 Y124.502 E4.92095
G1 X122.552 Y124.435 E4.99657
G1 X123.705 Y124.256 E5.08971
G1 X124.664 Y124.027 E5.16841
G1 X125.467 Y123.767 E5.23579
G1 X126.622 Y123.287 E5.33563
G1 X127.484 Y122.839 E5.41318
G1 X128.519 Y122.178 E5.51121
G1 X129.457 Y121.444 E5.60628
G1 X129.882 Y121.056 E5.65222
G1 X130.422 Y120.53 E5.71239
G1 X131.065 Y119.793 E5.79047
G1 X131.792 Y118.797 E5.8889
G1 X132.33 Y117.899 E5.97246
G1 X132.866 Y116.794 E6.0705
G1 X133.223 Y115.858 E6.15046
G1 X133.551 Y114.707 E6.246
G1 X133.761 Y113.564 E6.33876
G1 X133.83 Y112.899 E6.39213
G1 X133.883 Y112.047 E6.46027
G1 X133.877 Y111.601 E6.49588
G1 X133.82 Y110.641 E6.57264
G1 X133.755 Y110.008 E6.62344
G1 X133.564 Y108.977 E6.70714
G1 X133.253 Y107.854 E6.80015
G1 X132.829 Y106.75 E6.89456
G1 X132.618 Y106.291 E6.93488
G1 X131.986 Y105.134 E7.04012
G1 X131.321 Y104.166 E7.13387
G1 X130.95 Y103.702 E7.18129
G1 X130.458 Y103.131 E7.24145
G1 X129.866 Y102.543 E7.30806
G1 X129.184 Y101.949 E7.38025
G1 X128.169 Y101.209 E7.48052
G1 X127.42 Y100.75 E7.55064
G1 X126.524 Y100.294 E7.6309
G1 X126.057 Y100.047 E7.67307
G1 X125.495 Y99.668 E7.72718
G1 X125.089 Y99.3 E7.77092
G1 X124.715 Y98.959 E7.81132
G1 X124.05 Y98.416 E7.87985
G1 X123.33 Y97.929 E7.94923
G1 X122.576 Y97.511 E8.01805
G1 X121.785 Y97.162 E8.08707
G1 X120.965 Y96.886 E8.15613
G1 X120.133 Y96.686 E8.22444
G1 X119.422 Y96.57 E8.28194
G1 X118.671 Y96.393 E8.34353
G1 X118.159 Y96.195 E8.38735
G1 X117.287 Y95.723 E8.4665
G1 X116.702 Y95.4 E8.51984
G1 X115.991 Y95.03 E8.58382
G1 X115.511 Y94.814 E8.62584
G1 X114.63 Y94.471 E8.70131
G1 X114.121 Y94.292 E8.74438
G1 X113.289 Y94.061 E8.8133
G1 X112.751 Y93.939 E8.85734
G1 X111.573 Y93.744 E8.95265
G1 X110.907 Y93.676 E9.00609
G1 X110.075 Y93.641 E9.07256
G1 X109.322 Y93.658 E9.13269
G1 X108.381 Y93.715 E9.20794
G1 X107.587 Y93.819 E9.27186
G1 X106.858 Y93.964 E9.33119
G1 X105.9 Y94.192 E9.4098
G1 X104.982 Y94.491 E9.48687
G1 X104.089 Y94.85 E9.5637
G1 X103.304 Y95.225 E9.63314
G1 X102.848 Y95.47 E9.67446
G1 X102.129 Y95.9 E9.74134
G1 X101.304 Y96.472 E9.82147
G1 X100.739 Y96.912 E9.87864
G1 X100.125 Y97.454 E9.94401
G1 X99.589 Y97.983 E10.00413
G1 X99.209 Y98.382 E10.04811
G1 X98.589 Y99.121 E10.12511
G1 X97.954 Y99.783 E10.19833
G1 X97.422 Y100.195 E10.25205
G1 X96.835 Y100.541 E10.30644
G1 X96.238 Y100.786 E10.35795
G1 X95.747 Y100.985 E10.40024
G1 X95.068 Y101.269 E10.45899
G1 X94.416 Y101.593 E10.51711
G1 X93.616 Y102.026 E10.58972
G1 X92.96 Y102.443 E10.65177
G1 X92.328 Y102.903 E10.71417
G1 X91.633 Y103.452 E10.78487
G1 X90.768 Y104.258 E10.87924
G0 F9000 X91.008 Y104.585
G1 F900 X112.391 Y125.968 E13.29314
G0 F9000 X110.969 Y126.808
G1 F900 X89.961 Y105.8 E15.66471
G0 F9000 X89.039 Y107.141
G1 F900 X109.808 Y127.909 E18.00923
G0 F9000 X108.531 Y128.896
G1 F900 X88.266 Y108.63 E20.29698
G0 F9000 X87.652 Y110.279
G1 F900 X107.04 Y129.667 E22.48566
G0 F9000 X105.462 Y130.352
G1 F900 X87.225 Y112.116 E24.54436
G0 F9000 X86.694 Y113.847
G1 F900 X103.823 Y130.976 E26.47803
G0 F9000 X101.889 Y131.305
G1 F900 X86.17 Y115.585 E28.25258
G0 F9000 X85.987 Y117.665
G1 F900 X99.646 Y131.325 E29.79458
G0 F9000 X97.311 Y131.252
G1 F900 X85.986 Y119.927 E31.07305
G0 F9000 X86.054 Y122.258
G1 F900 X94.243 Y130.447 E31.99749
G0 F9000 X90.928 Y129.394
G1 F900 X87.041 Y125.507 E32.43629
G0 F9000 X92.2 Y103.514
G1 F900 X114.215 Y125.529 E34.92153
G0 F9000 X116.142 Y125.193
G1 F900 X93.514 Y102.565 E37.47598
G0 F9000 X94.972 Y101.76
G1 F900 X117.789 Y124.578 E40.05181
G0 F9000 X119.583 Y124.108
G1 F900 X96.561 Y101.086 E42.65074
G0 F9000 X97.995 Y100.257
G1 F900 X121.821 Y124.084 E45.34048
G0 F9000 X123.817 Y123.817
G1 F900 X99.115 Y99.115 E48.12905
G0 F9000 X100.199 Y97.937
G1 F900 X125.557 Y123.294 E50.99163
G0 F9000 X127.108 Y122.582
G1 F900 X101.416 Y96.891 E53.89191
G0 F9000 X102.77 Y95.981
G1 F900 X128.484 Y121.695 E56.79472
G0 F9000 X129.712 Y120.661
G1 F900 X104.262 Y95.211 E59.66774
G0 F9000 X105.92 Y94.606
G1 F900 X130.796 Y119.482 E62.47596
G0 F9000 X131.718 Y118.141
G1 F900 X107.775 Y94.199 E65.17879
G0 F9000 X109.889 Y94.05
G1 F900 X132.489 Y116.65 E67.73008
G0 F9000 X133.062 Y114.96
G1 F900 X112.386 Y94.284 E70.06416
G0 F9000 X115.698 Y95.334
G1 F900 X133.42 Y113.055 E72.06472
G0 F9000 X133.433 Y110.806
G1 F900 X119.638 Y97.01 E73.62207
G0 F9000 X123.243 Y98.353
G1 F900 X132.873 Y107.983 E74.70919
G0 F600 X132.873 Y107.983 Z0.39
G0 F9000 X130.664 Y119.651
;TIME_ELAPSED:67.257151
;LAYER:-7
;TYPE:SUPPORT
G1 F900 X129.096 Y121.219 E74.81982
G1 X129.438 Y120.928 E74.84223
G1 X130.124 Y120.261 E74.88996
G1 X130.664 Y119.651 E74.93061
G1 X131.454 Y118.581 E74.99696
G1 X131.907 Y117.842 E75.04021
G1 X132.439 Y116.775 E75.09969
G1 X132.645 Y116.256 E75.12755
G1 X125.638 Y123.262 E75.62189
G1 X125.261 Y123.418 E75.64225
G1 X124.525 Y123.649 E75.68073
G1 X123.624 Y123.863 E75.72694
G1 X133.225 Y114.262 E76.40434
G1 X133.407 Y113.19 E76.45859
G1 X133.446 Y112.626 E76.48679
G1 X121.996 Y124.076 E77.29465
G1 X121.59 Y124.102 E77.31495
G1 X120.57 Y124.088 E77.36584
G1 X133.465 Y111.193 E78.27565
G1 X133.377 Y110.178 E78.32648
G1 X133.33 Y109.914 E78.33986
G1 X119.068 Y124.176 E79.34612
G1 X118.993 Y124.186 E79.34989
G1 X118.284 Y124.374 E79.38649
G1 X116.879 Y124.951 E79.46227
G1 X133.082 Y108.748 E80.60547
G1 X132.75 Y107.665 E80.66199
G1 X114.961 Y125.454 E81.9171
G1 X113.395 Y125.606 E81.99559
G1 X113.363 Y125.638 E81.99785
G1 X113.395 Y125.606 E82.00011
G1 X132.348 Y106.653 E83.33734
G1 X131.864 Y105.723 E83.38965
G1 X109.042 Y128.544 E84.99983
G1 X108.765 Y128.753 E85.01714
G1 X108.038 Y129.202 E85.05977
G1 X107.322 Y129.558 E85.09966
G1 X106.151 Y130.022 E85.16251
G1 X131.312 Y104.861 E86.93775
G1 X130.716 Y104.042 E86.98828
G1 X103.762 Y130.996 E88.89003
G1 X103.574 Y131.051 E88.89981
G1 X102.729 Y131.221 E88.94281
G1 X102.058 Y131.287 E88.97645
G1 X130.048 Y103.296 E90.95133
G1 X129.329 Y102.601 E91.00122
G1 X100.603 Y131.327 E93.02799
G1 X99.19 Y131.325 E93.09849
G1 X128.54 Y101.976 E95.16925
G1 X127.707 Y101.394 E95.21995
G1 X97.802 Y131.3 E97.32994
G1 X97.619 Y131.292 E97.33908
G1 X96.554 Y131.134 E97.3928
G1 X126.806 Y100.882 E99.52724
G1 X125.872 Y100.402 E99.57963
G1 X95.436 Y130.838 E101.72705
G1 X95.229 Y130.773 E101.73788
G1 X94.545 Y130.518 E101.7743
G1 X94.55 Y130.484 E101.77601
G1 X94.402 Y130.457 E101.78352
G1 X125.054 Y99.805 E103.94618
G1 X124.305 Y99.139 E103.99619
G1 X93.214 Y130.231 E106.18986
G1 X92.844 Y130.147 E106.20879
G1 X92.111 Y129.919 E106.24709
G1 X123.503 Y98.527 E108.46196
G1 X123.135 Y98.277 E108.48416
G1 X122.625 Y97.992 E108.5133
G1 X91.12 Y129.496 E110.73612
G1 X90.219 Y128.984 E110.78782
G1 X121.659 Y97.543 E113.00612
G1 X121.634 Y97.533 E113.00746
G1 X120.584 Y97.204 E113.06236
G1 X89.398 Y128.39 E115.2627
G1 X89.212 Y128.247 E115.2744
G1 X88.65 Y127.723 E115.31274
G1 X119.402 Y96.972 E117.48242
G1 X119.345 Y96.964 E117.48529
G1 X118.548 Y96.773 E117.52618
G1 X118.287 Y96.672 E117.54014
G1 X87.989 Y126.97 E119.67783
G1 X87.406 Y126.139 E119.72847
G1 X117.336 Y96.209 E121.8402
G1 X116.423 Y95.708 E121.89215
G1 X86.902 Y125.229 E123.97502
G1 X86.781 Y124.984 E123.98865
G1 X86.485 Y124.232 E124.02897
G1 X115.481 Y95.236 E126.0748
G1 X115.063 Y95.053 E126.09756
G1 X114.464 Y94.839 E126.1293
G1 X86.189 Y123.113 E128.12421
G1 X86.088 Y122.61 E128.14981
G1 X86.017 Y121.871 E128.18685
G1 X113.38 Y94.509 E130.11742
G1 X112.835 Y94.364 E130.14556
G1 X112.217 Y94.257 E130.17685
G1 X85.985 Y120.489 E132.02766
G1 X85.986 Y119.074 E132.09825
G1 X110.976 Y94.084 E133.86143
G1 X110.878 Y94.074 E133.86635
G1 X109.725 Y94.038 E133.9239
G1 X109.601 Y94.045 E133.93009
G1 X85.987 Y117.659 E135.59619
G1 X85.987 Y117.325 E135.61285
G1 X86.076 Y116.155 E135.67139
G1 X108.069 Y94.162 E137.22312
G1 X107.264 Y94.279 E137.2637
G1 X106.312 Y94.505 E137.31252
G1 X86.513 Y114.304 E138.70944
G1 X86.539 Y114.222 E138.71373
G1 X86.835 Y113.506 E138.75239
G1 X87.068 Y112.84 E138.78759
G1 X87.213 Y112.19 E138.82082
G1 X104.129 Y95.274 E140.01433
G1 X103.141 Y95.763 E140.06933
G1 X102.542 Y96.109 E140.10384
G1 X101.534 Y96.796 E140.1647
G1 X100.996 Y97.215 E140.19872
G1 X100.125 Y98.004 E140.25735
G1 X99.658 Y98.48 E140.29062
G1 X98.902 Y99.37 E140.34888
G1 X98.215 Y100.09 E140.39853
G1 X97.623 Y100.543 E140.43572
G1 X97.202 Y100.787 E140.46
G1 X87.623 Y110.365 E141.13581
G1 X87.942 Y109.392 E141.1869
G1 X88.389 Y108.34 E141.24392
G1 X88.944 Y107.287 E141.30331
G1 X89.588 Y106.29 E141.36252
G1 X90.287 Y105.377 E141.41989
G1 X91.045 Y104.544 E141.47608
G1 X92.008 Y103.656 E141.54143
G1 X92.879 Y102.981 E141.59641
G1 X93.822 Y102.367 E141.65255
G0 F9000 X94.661 Y101.914
G1 F900 X88.561 Y108.014 E142.08293
G0 F600 X88.561 Y108.014 Z0.49
G0 F9000 X90.133 Y129.165
;TIME_ELAPSED:157.544504
;LAYER:-6
;TYPE:SUPPORT-INTERFACE
G1 F1200 X87.272 Y126.304 E142.15022
G1 X87.916 Y127.209 E142.16869
G1 X88.474 Y127.832 E142.1826
G1 X89.099 Y128.413 E142.19679
G1 X89.772 Y128.933 E142.21094
G1 X90.463 Y129.378 E142.2246
G1 X91.215 Y129.771 E142.23871
G1 X91.366 Y129.833 E142.24143
G1 X86.598 Y125.065 E142.35356
G1 X86.288 Y124.278 E142.36763
G1 X86.252 Y124.153 E142.36979
G1 X92.279 Y130.18 E142.51154
G1 X92.795 Y130.341 E142.52053
G1 X93.067 Y130.403 E142.52517
G1 X86.037 Y123.372 E142.69052
G1 X85.895 Y122.665 E142.70251
G1 X93.788 Y130.558 E142.88814
G1 X94.316 Y130.666 E142.8971
G1 X94.518 Y130.722 E142.90059
G1 X85.833 Y122.037 E143.10485
G1 X85.789 Y121.427 E143.11502
G1 X95.396 Y131.034 E143.34096
G1 X95.969 Y131.213 E143.35094
G1 X96.187 Y131.26 E143.35465
G1 X85.785 Y120.857 E143.5993
G1 X85.785 Y120.292 E143.6087
G1 X96.896 Y131.403 E143.87001
G1 X97.543 Y131.484 E143.88085
G1 X85.785 Y119.726 E144.15738
G1 X85.786 Y119.161 E144.16678
G1 X98.14 Y131.516 E144.45734
G1 X98.714 Y131.524 E144.46689
G1 X85.786 Y118.595 E144.77094
G1 X85.786 Y118.03 E144.78034
G1 X99.28 Y131.524 E145.0977
G1 X99.847 Y131.525 E145.10713
G1 X85.786 Y117.464 E145.43782
G1 X85.804 Y116.917 E145.44692
G1 X100.413 Y131.526 E145.7905
G1 X100.979 Y131.526 E145.79992
G1 X85.845 Y116.392 E146.15584
G1 X85.908 Y115.889 E146.16427
G1 X101.54 Y131.521 E146.53192
G1 X102.069 Y131.485 E146.54073
G1 X86 Y115.416 E146.91865
G1 X86.102 Y114.952 E146.92655
G1 X102.584 Y131.434 E147.31418
G1 X103.07 Y131.354 E147.32237
G1 X86.236 Y114.52 E147.71828
G1 X86.375 Y114.094 E147.72574
G1 X103.542 Y131.26 E148.12947
G1 X103.985 Y131.137 E148.13711
G1 X86.54 Y113.693 E148.54738
G1 X86.699 Y113.286 E148.55465
G1 X104.42 Y131.007 E148.97142
G1 X104.825 Y130.847 E148.97866
G1 X86.847 Y112.869 E149.40147
G1 X86.959 Y112.415 E149.40925
G1 X105.228 Y130.684 E149.83891
G1 X105.609 Y130.5 E149.84595
G1 X87.051 Y111.941 E150.28241
G1 X87.14 Y111.464 E150.29048
G1 X105.972 Y130.297 E150.73339
G1 X106.382 Y130.14 E150.7407
G1 X87.247 Y111.005 E151.19072
G1 X87.354 Y110.547 E151.19854
G1 X106.789 Y129.982 E151.65562
G1 X107.195 Y129.822 E151.66288
G1 X87.493 Y110.12 E152.12624
G1 X87.632 Y109.694 E152.13369
G1 X107.587 Y129.649 E152.60301
G1 X107.965 Y129.461 E152.61003
G1 X87.776 Y109.272 E153.08484
G1 X87.944 Y108.875 E153.09201
G1 X108.328 Y129.258 E153.5714
G1 X108.678 Y129.042 E153.57824
G1 X88.113 Y108.478 E154.06188
G1 X88.292 Y108.091 E154.06897
G1 X109.015 Y128.814 E154.55635
G1 X109.339 Y128.572 E154.56307
G1 X88.488 Y107.722 E155.05344
G1 X88.684 Y107.352 E155.06041
G1 X109.653 Y128.32 E155.55355
G1 X109.951 Y128.053 E155.56021
G1 X88.894 Y106.996 E156.05544
G1 X89.115 Y106.652 E156.06224
G1 X110.243 Y127.779 E156.55912
G1 X110.52 Y127.49 E156.56578
G1 X89.337 Y106.307 E157.06397
G1 X89.574 Y105.979 E157.0707
G1 X110.807 Y127.212 E157.57007
G1 X111.111 Y126.951 E157.57673
G1 X89.82 Y105.659 E158.07748
G1 X90.065 Y105.339 E158.08418
G1 X111.435 Y126.708 E158.58676
G1 X111.783 Y126.491 E158.59358
G1 X90.328 Y105.036 E159.09816
G1 X90.598 Y104.74 E159.10483
G1 X112.144 Y126.286 E159.61156
G1 X112.543 Y126.12 E159.61874
G1 X90.866 Y104.443 E160.12855
G1 X91.157 Y104.168 E160.13521
G1 X112.957 Y125.968 E160.64791
G1 X113.395 Y125.84 E160.6555
G1 X91.452 Y103.897 E161.17157
G1 X91.747 Y103.626 E161.17823
G1 X113.881 Y125.761 E161.6988
G1 X114.398 Y125.712 E161.70744
G1 X92.054 Y103.368 E162.23293
G1 X92.373 Y103.121 E162.23964
G1 X114.913 Y125.661 E162.76975
G1 X115.392 Y125.574 E162.77784
G1 X92.692 Y102.874 E163.31171
G1 X93.029 Y102.645 E163.31849
G1 X115.863 Y125.48 E163.85552
G1 X116.305 Y125.356 E163.86316
G1 X93.371 Y102.422 E164.40253
G1 X93.713 Y102.198 E164.40933
G1 X116.739 Y125.225 E164.95087
G1 X117.14 Y125.059 E164.95809
G1 X94.081 Y102 E165.5004
G1 X94.448 Y101.802 E165.50734
G1 X117.54 Y124.894 E166.05043
G1 X117.941 Y124.73 E166.05763
G1 X94.818 Y101.606 E166.60146
G1 X95.212 Y101.435 E166.6086
G1 X118.347 Y124.564 E167.15263
G1 X118.789 Y124.446 E167.16024
G1 X95.607 Y101.264 E167.70545
G1 X96.003 Y101.095 E167.71261
G1 X119.261 Y124.352 E168.25959
G1 X119.763 Y124.288 E168.268
G1 X96.406 Y100.932 E168.81731
G1 X96.809 Y100.769 E168.82454
G1 X120.325 Y124.285 E169.3776
G1 X120.898 Y124.292 E169.38713
G1 X97.177 Y100.571 E169.94501
G1 X97.532 Y100.361 E169.95187
G1 X121.473 Y124.302 E170.51493
G1 X122.011 Y124.274 E170.52389
G1 X97.852 Y100.115 E171.09207
G1 X98.159 Y99.856 E171.09875
G1 X122.533 Y124.23 E171.67199
G1 X123.026 Y124.158 E171.68027
G1 X98.436 Y99.567 E172.25861
G1 X98.712 Y99.278 E172.26525
G1 X123.519 Y124.085 E172.84867
G1 X123.982 Y123.982 E172.85656
G1 X98.973 Y98.973 E173.44473
G1 X99.232 Y98.666 E173.45141
G1 X124.44 Y123.875 E174.04428
G1 X124.879 Y123.747 E174.05188
G1 X99.494 Y98.363 E174.64889
