;FLAVOR:Marlin
;TIME:5410
;Filament used: 1.7799m
;Layer height: 0.1
;MINX:83.446
;MINY:82.291
;MINZ:0.24
;MAXX:137.855
;MAXY:135.598
;MAXZ:24.84
;Generated with Cura_SteamEngine 5.0.0
M140 S100
M105
M190 S100
M104 S230
M105
M109 S230
M82 ;absolute extrusion mode
G28 ;Home
G1 Z15.0 F6000 ;Move the platform down 15mm
;Prime the extruder
G92 E0
G1 F200 E3
G92 E0
G92 E0
G92 E0
G1 F2700 E-5
;LAYER_COUNT:240
;LAYER:-8
M107
G0 F9000 X86.557 Y92.184 Z0.24
;TYPE:SUPPORT-INTERFACE
G1 F2700 E0
G1 F900 X86.039 Y92.851 E0.06741
G1 X85.566 Y93.592 E0.13759
G1 X85.167 Y94.359 E0.2066
G1 X84.842 Y95.148 E0.27472
G1 X84.667 Y95.693 E0.32041
G1 X84.021 Y97.262 E0.45585
G1 X83.768 Y98.081 E0.52428
G1 X83.587 Y98.914 E0.59232
G1 X83.48 Y99.771 E0.66126
G1 X83.451 Y100.428 E0.71376
G1 X83.453 Y101.046 E0.76309
G1 X83.446 Y102.776 E0.90119
G1 X83.45 Y103.385 E0.9498
G1 X83.466 Y104.193 E1.01431
G1 X83.56 Y105.089 E1.08623
G1 X83.732 Y105.947 E1.15608
G1 X83.968 Y106.758 E1.2235
G1 X84.189 Y107.335 E1.27282
G1 X84.49 Y107.982 E1.32979
G1 X84.77 Y108.685 E1.39019
G1 X84.928 Y109.308 E1.44149
G1 X85.015 Y109.984 E1.4959
G1 X85.013 Y110.669 E1.55058
G1 X84.927 Y111.348 E1.60521
G1 X84.8 Y111.833 E1.64523
G1 X84.624 Y112.533 E1.70285
G1 X84.498 Y113.087 E1.7482
G1 X84.352 Y114.091 E1.82919
G1 X84.194 Y114.733 E1.88197
G1 X83.953 Y115.54 E1.94919
G1 X83.785 Y116.368 E2.01664
G1 X83.689 Y117.235 E2.08627
G1 X83.672 Y118.089 E2.15445
G1 X83.729 Y118.936 E2.22221
G1 X83.864 Y119.784 E2.29076
G1 X84.015 Y120.411 E2.34224
G1 X84.248 Y121.179 E2.4063
G1 X84.373 Y121.829 E2.45914
G1 X84.474 Y122.542 E2.51662
G1 X84.661 Y123.356 E2.58329
G1 X84.932 Y124.175 E2.65215
G1 X85.273 Y124.967 E2.72099
G1 X85.61 Y125.608 E2.77879
G1 X85.89 Y126.084 E2.82288
G1 X86.183 Y126.543 E2.86634
G1 X86.696 Y127.233 E2.93498
G1 X87.291 Y127.895 E3.00603
G1 X87.908 Y128.473 E3.07352
G1 X88.592 Y129.006 E3.14274
G1 X89.316 Y129.47 E3.21138
G1 X89.885 Y129.777 E3.26299
G1 X90.745 Y130.179 E3.33877
G1 X91.529 Y130.678 E3.41295
G1 X92.108 Y131.024 E3.46679
G1 X92.985 Y131.472 E3.5454
G1 X93.461 Y131.681 E3.5869
G1 X94.687 Y132.119 E3.69082
G1 X95.689 Y132.369 E3.77326
G1 X96.207 Y132.478 E3.81551
G1 X97.354 Y132.619 E3.90776
G1 X98.198 Y132.65 E3.97518
G1 X99.215 Y132.688 E4.05642
G1 X99.888 Y132.802 E4.1109
G1 X100.538 Y133 E4.16514
G1 X101.241 Y133.321 E4.22683
G1 X102.145 Y133.768 E4.30733
G1 X103.012 Y134.126 E4.38221
G1 X103.603 Y134.329 E4.43209
G1 X104.365 Y134.548 E4.49538
G1 X105.033 Y134.718 E4.5504
G1 X105.78 Y134.853 E4.611
G1 X106.377 Y134.967 E4.65951
G1 X106.913 Y135.091 E4.70343
G1 X107.772 Y135.215 E4.77271
G1 X108.638 Y135.261 E4.84193
G1 X109.492 Y135.229 E4.91015
G1 X110.168 Y135.152 E4.96446
G1 X110.69 Y135.064 E5.00672
G1 X111.312 Y134.931 E5.05749
G1 X112.231 Y134.806 E5.13152
G1 X113.42 Y134.729 E5.22663
G1 X114.536 Y134.547 E5.3169
G1 X115.333 Y134.343 E5.38257
G1 X116.294 Y134.188 E5.46027
G1 X116.974 Y134.183 E5.51455
G1 X117.642 Y134.263 E5.56825
G1 X118.244 Y134.363 E5.61697
G1 X118.85 Y134.497 E5.66651
G1 X119.492 Y134.725 E5.72089
G1 X120.217 Y135.022 E5.78343
G1 X121.04 Y135.277 E5.85221
G1 X121.871 Y135.458 E5.9201
G1 X122.726 Y135.565 E5.98888
G1 X123.42 Y135.596 E6.04433
G1 X127.392 Y135.598 E6.3614
G1 X127.929 Y135.579 E6.40429
G1 X128.826 Y135.485 E6.47628
G1 X129.685 Y135.313 E6.54621
G1 X130.49 Y135.077 E6.61318
G1 X131.298 Y134.757 E6.68255
G1 X132.048 Y134.383 E6.74945
G1 X132.79 Y133.925 E6.81905
G1 X133.477 Y133.409 E6.88764
G1 X134.114 Y132.836 E6.95603
G1 X134.696 Y132.21 E7.02426
G1 X135.228 Y131.521 E7.09375
G1 X135.678 Y130.818 E7.16037
G1 X136.079 Y130.058 E7.22897
G1 X136.408 Y129.259 E7.29794
G1 X136.661 Y128.437 E7.3666
G1 X136.987 Y126.913 E7.491
G1 X137.192 Y126.33 E7.54033
G1 X137.381 Y125.755 E7.58865
G1 X137.534 Y125.264 E7.6297
G1 X137.715 Y124.433 E7.69759
G1 X137.823 Y123.563 E7.76757
G1 X137.853 Y122.884 E7.82182
G1 X137.855 Y120.015 E8.05084
G1 X137.836 Y119.277 E8.10977
G1 X137.742 Y118.381 E8.18168
G1 X137.572 Y117.524 E8.25143
G1 X137.332 Y116.71 E8.31917
G1 X137.013 Y115.906 E8.38821
G1 X136.683 Y115.221 E8.44891
G1 X136.411 Y114.619 E8.50164
G1 X136.18 Y114.006 E8.55393
G1 X135.972 Y113.32 E8.61115
G1 X135.861 Y112.656 E8.66489
G1 X135.835 Y111.979 E8.71897
G1 X135.891 Y111.311 E8.77248
G1 X136.033 Y110.645 E8.82684
G1 X136.296 Y109.924 E8.8881
G1 X136.49 Y109.353 E8.93624
G1 X136.658 Y108.812 E8.98146
G1 X136.839 Y107.979 E9.04951
G1 X136.946 Y107.125 E9.11821
G1 X136.977 Y106.431 E9.17366
G1 X136.979 Y101.819 E9.54181
G1 X136.96 Y101.265 E9.58606
G1 X136.864 Y100.357 E9.65894
G1 X136.696 Y99.511 E9.72779
G1 X136.456 Y98.697 E9.79554
G1 X136.138 Y97.895 E9.8644
G1 X135.766 Y97.148 E9.93102
G1 X135.306 Y96.405 E10.00077
G1 X134.789 Y95.715 E10.0696
G1 X134.22 Y95.082 E10.13754
G1 X133.46 Y94.394 E10.21937
G1 X132.906 Y93.881 E10.27964
G1 X130.289 Y91.265 E10.57502
G1 X129.762 Y90.785 E10.63192
G1 X129.068 Y90.248 E10.70196
G1 X128.363 Y89.796 E10.76881
G1 X127.6 Y89.396 E10.83758
G1 X126.806 Y89.07 E10.9061
G1 X125.983 Y88.815 E10.97487
G1 X125.152 Y88.634 E11.04276
G1 X124.297 Y88.527 E11.11154
G1 X123.603 Y88.496 E11.167
G1 X123.006 Y88.492 E11.21465
G1 X122.054 Y88.402 E11.29099
G1 X121.4 Y88.236 E11.34485
G1 X120.768 Y87.99 E11.39898
G1 X120.168 Y87.662 E11.45357
G1 X119.613 Y87.262 E11.50818
G1 X119.147 Y86.827 E11.55906
G1 X118.729 Y86.398 E11.60687
G1 X117.989 Y85.722 E11.68688
G1 X117.307 Y85.175 E11.75667
G1 X116.882 Y84.866 E11.79861
G1 X115.888 Y84.232 E11.89272
G1 X115.118 Y83.813 E11.9627
G1 X114.641 Y83.585 E12.0049
G1 X113.926 Y83.276 E12.06708
G1 X112.971 Y82.942 E12.14784
G1 X112.139 Y82.711 E12.21676
G1 X111.601 Y82.589 E12.2608
G1 X110.423 Y82.394 E12.35611
G1 X109.757 Y82.326 E12.40955
G1 X108.925 Y82.291 E12.47602
G1 X108.172 Y82.308 E12.53615
G1 X107.231 Y82.365 E12.6114
G1 X106.437 Y82.469 E12.67532
G1 X105.708 Y82.614 E12.73465
G1 X104.75 Y82.842 E12.81326
G1 X103.832 Y83.141 E12.89033
G1 X102.939 Y83.5 E12.96716
G1 X102.158 Y83.873 E13.03624
G1 X101.698 Y84.12 E13.07792
G1 X100.98 Y84.549 E13.14469
G1 X100.083 Y85.176 E13.23205
G1 X99.418 Y85.708 E13.30003
G1 X98.705 Y86.36 E13.37715
G1 X97.795 Y87.299 E13.48153
G1 X97.282 Y87.733 E13.53517
G1 X96.704 Y88.106 E13.59008
G1 X96.09 Y88.399 E13.64439
G1 X95.446 Y88.615 E13.69861
G1 X94.954 Y88.712 E13.73864
G1 X93.909 Y88.794 E13.82231
G1 X93.308 Y88.815 E13.87031
G1 X92.413 Y88.911 E13.94217
G1 X91.572 Y89.079 E14.01063
G1 X90.751 Y89.32 E14.07893
G1 X89.957 Y89.634 E14.14708
G1 X89.19 Y90.02 E14.21562
G1 X88.453 Y90.477 E14.28485
G1 X87.777 Y90.984 E14.3523
G1 X87.138 Y91.559 E14.42092
G1 X86.557 Y92.184 E14.48903
G0 F9000 X87.37 Y91.895
G1 F900 X130.214 Y134.739 E19.32564
G0 F9000 X131.796 Y134.059
G1 F900 X88.602 Y90.865 E24.20175
G0 F9000 X90.04 Y90.04
G1 F900 X133.151 Y133.151 E29.06849
G0 F9000 X134.305 Y132.042
G1 F900 X91.72 Y89.457 E33.87585
G0 F9000 X93.723 Y89.197
G1 F900 X135.258 Y130.732 E38.56468
G0 F9000 X135.995 Y129.207
G1 F900 X95.728 Y88.939 E43.11043
G0 F9000 X97.267 Y88.216
G1 F900 X136.47 Y127.419 E47.536
G0 F9000 X136.987 Y125.674
G1 F900 X98.478 Y87.165 E51.88323
G0 F9000 X99.631 Y86.054
G1 F900 X137.388 Y123.812 E56.14562
G0 F9000 X137.453 Y121.614
G1 F900 X100.918 Y85.079 E60.27001
G0 F9000 X102.334 Y84.232
G1 F900 X137.438 Y119.336 E64.23285
G0 F9000 X136.786 Y116.421
G1 F900 X103.906 Y83.541 E67.94463
G0 F9000 X105.663 Y83.036
G1 F900 X135.49 Y112.862 E71.3117
G0 F9000 X135.608 Y110.718
G1 F900 X107.631 Y82.741 E74.46999
G0 F9000 X109.895 Y82.742
G1 F900 X136.174 Y109.021 E77.43659
G0 F9000 X136.542 Y107.126
G1 F900 X112.697 Y83.281 E80.12842
G0 F9000 X117.607 Y85.929
G1 F900 X136.576 Y104.898 E82.2698
G0 F9000 X136.578 Y102.637
G1 F900 X122.813 Y88.872 E83.82371
G0 F9000 X125.274 Y89.07
G1 F900 X136.429 Y100.225 E85.08299
G0 F9000 X134.611 Y96.144
G1 F900 X132.742 Y94.275 E85.29398
G0 F9000 X128.344 Y135.132
G1 F900 X86.337 Y93.125 E90.03609
G0 F9000 X85.513 Y94.564
G1 F900 X126.145 Y135.196 E94.62298
G0 F9000 X123.881 Y135.195
G1 F900 X84.888 Y96.201 E99.0249
G0 F9000 X84.26 Y97.837
G1 F900 X121.36 Y134.936 E103.21302
G0 F9000 X118.091 Y133.93
G1 F900 X83.888 Y99.727 E107.07415
G0 F9000 X83.848 Y101.949
G1 F900 X115.765 Y133.867 E110.67727
G0 F9000 X113.882 Y134.247
G1 F900 X83.872 Y104.236 E114.06511
G0 F9000 X84.561 Y107.188
G1 F900 X111.828 Y134.456 E117.1433
G0 F9000 X109.889 Y134.779
G1 F900 X85.412 Y110.302 E119.90648
G0 F9000 X85.099 Y112.252
G1 F900 X107.637 Y134.79 E122.45076
G0 F9000 X104.839 Y134.255
G1 F900 X84.743 Y114.158 E124.71943
G0 F9000 X84.276 Y115.954
G1 F900 X101.17 Y132.848 E126.62657
G0 F9000 X98.309 Y132.25
G1 F900 X84.072 Y118.014 E128.23371
G0 F9000 X84.528 Y120.732
G1 F900 X95.762 Y131.965 E129.50185
G0 F9000 X92.06 Y130.526
G1 F900 X85.176 Y123.643 E130.27891
G0 F600 X85.176 Y123.643 Z0.39
G0 F9000 X86.078 Y93.526
;TIME_ELAPSED:114.181092
;LAYER:-7
;TYPE:SUPPORT
G1 F900 X88.995 Y90.609 E130.48472
G1 X88.051 Y91.274 E130.54233
G1 X87.425 Y91.836 E130.5843
G1 X86.88 Y92.419 E130.62412
G1 X86.358 Y93.09 E130.66653
G1 X85.924 Y93.765 E130.70657
G1 X85.525 Y94.535 E130.74984
G1 X85.223 Y95.271 E130.78953
G1 X85.04 Y95.832 E130.81897
G1 X84.944 Y96.075 E130.832
G1 X91.504 Y89.514 E131.29488
G1 X92.476 Y89.304 E131.34449
G1 X93.201 Y89.231 E131.38085
G1 X84.126 Y98.306 E132.02114
G1 X83.98 Y98.987 E132.05588
G1 X83.88 Y99.786 E132.09606
G1 X83.876 Y99.971 E132.10529
G1 X94.691 Y89.156 E132.86834
G1 X95.518 Y89.011 E132.91023
G1 X96.213 Y88.782 E132.94674
G1 X96.717 Y88.544 E132.97455
G1 X83.851 Y101.41 E133.88231
G1 X83.846 Y102.829 E133.95311
G1 X102.528 Y84.147 E135.27122
G1 X103.106 Y83.862 E135.30338
G1 X104.073 Y83.476 E135.35532
G1 X104.863 Y83.227 E135.39665
G1 X83.873 Y104.216 E136.87757
G1 X83.949 Y105.003 E136.91701
G1 X84.042 Y105.462 E136.94038
G1 X106.653 Y82.85 E138.53574
G1 X107.28 Y82.76 E138.56734
G1 X108.209 Y82.708 E138.61377
G1 X84.333 Y106.585 E140.29838
G1 X84.555 Y107.174 E140.32978
G1 X84.748 Y107.584 E140.35239
G1 X109.612 Y82.72 E142.10668
G1 X110.385 Y82.79 E142.1454
G1 X110.872 Y82.874 E142.17006
G1 X85.158 Y108.588 E143.98432
G1 X85.327 Y109.259 E144.01884
G1 X85.39 Y109.771 E144.04458
G1 X112.05 Y83.11 E145.92562
G1 X112.847 Y83.322 E145.96677
G1 X113.146 Y83.428 E145.98259
G1 X85.41 Y111.165 E147.93955
G1 X85.068 Y112.364 E148.00176
G1 X84.909 Y113.08 E148.03835
G1 X114.172 Y83.816 E150.10305
G1 X115.124 Y84.28 E150.15588
G1 X84.584 Y114.819 E152.31061
G1 X84.338 Y115.643 E152.35351
G1 X84.183 Y116.401 E152.39211
G1 X84.154 Y116.664 E152.40531
G1 X116.024 Y84.794 E154.65391
G1 X116.747 Y85.26 E154.69683
G1 X116.874 Y85.358 E154.70483
G1 X84.075 Y118.156 E157.01894
G1 X84.123 Y118.866 E157.05445
G1 X84.212 Y119.433 E157.08308
G1 X117.667 Y85.979 E159.44347
G1 X118.406 Y86.654 E159.49341
G1 X84.482 Y120.577 E161.88689
G1 X84.634 Y121.07 E161.91263
G1 X84.758 Y121.716 E161.94545
G1 X119.126 Y87.348 E164.3703
G1 X119.336 Y87.554 E164.38497
G1 X119.914 Y87.974 E164.42062
G1 X84.972 Y122.917 E166.886
G1 X85.294 Y124.008 E166.94275
G1 X120.851 Y88.451 E169.45149
G1 X121.252 Y88.611 E169.47303
G1 X121.932 Y88.785 E169.50805
G1 X85.734 Y124.983 E172.06201
G1 X86.245 Y125.886 E172.11378
G1 X123.238 Y88.893 E174.72383
G1 X124.284 Y88.927 E174.77605
G1 X124.581 Y88.964 E174.79098
G1 X86.819 Y126.726 E177.45529
G1 X87.466 Y127.493 E177.50535
G1 X125.782 Y89.178 E180.20872
G1 X126.678 Y89.447 E180.25539
G1 X126.854 Y89.519 E180.26488
G1 X88.188 Y128.185 E182.99297
G1 X88.819 Y128.676 E183.03286
G1 X88.997 Y128.791 E183.04344
G1 X127.825 Y89.963 E185.78296
G1 X128.71 Y90.492 E185.8344
G1 X89.89 Y129.312 E188.57336
G1 X90.836 Y129.78 E188.62602
G1 X129.517 Y91.1 E191.35514
G1 X130.006 Y91.546 E191.38815
G1 X130.246 Y91.785 E191.40505
G1 X91.711 Y130.32 E194.12391
G1 X92.3 Y130.674 E194.15819
G1 X92.615 Y130.83 E194.17573
G1 X130.953 Y92.492 E196.88068
G1 X131.661 Y93.198 E196.93056
G1 X93.57 Y131.289 E199.61809
G1 X94.6 Y131.673 E199.67293
G1 X132.368 Y93.905 E202.33767
G1 X133.061 Y94.626 E202.38756
G1 X95.722 Y131.965 E205.02203
G1 X96.276 Y132.084 E205.0503
G1 X96.936 Y132.166 E205.08348
G1 X133.832 Y95.269 E207.68672
G1 X134.474 Y95.962 E207.73385
G1 X134.508 Y96.008 E207.73671
G1 X98.265 Y132.251 E210.29385
G1 X99.286 Y132.291 E210.34482
G1 X99.586 Y132.344 E210.36002
G1 X135.099 Y96.831 E212.86566
G1 X135.419 Y97.348 E212.89599
G1 X135.611 Y97.734 E212.9175
G1 X100.71 Y132.634 E215.37992
G1 X101.348 Y132.924 E215.41488
G1 X101.672 Y133.087 E215.43298
G1 X136.035 Y98.724 E217.85747
G1 X136.303 Y99.594 E217.90289
G1 X136.349 Y99.824 E217.91459
G1 X102.634 Y133.539 E220.29337
G1 X103.668 Y133.919 E220.34833
G1 X136.532 Y101.055 E222.66706
G1 X136.579 Y101.81 E222.7048
G1 X136.578 Y102.423 E222.73538
G1 X104.762 Y134.239 E224.98017
G1 X105.938 Y134.478 E225.04004
G1 X136.577 Y103.838 E227.20183
G1 X136.576 Y105.253 E227.27242
G1 X107.113 Y134.716 E229.35119
G1 X107.818 Y134.816 E229.38672
G1 X108.395 Y134.848 E229.41555
G1 X136.563 Y106.681 E231.40292
G1 X136.445 Y107.905 E231.46427
G1 X136.36 Y108.298 E231.48433
G1 X109.877 Y134.781 E233.35285
G1 X110.23 Y134.739 E233.37058
G1 X111.235 Y134.539 E233.4217
G1 X111.582 Y134.491 E233.43918
G1 X135.706 Y110.366 E235.1413
G1 X135.497 Y111.226 E235.18545
G1 X135.432 Y111.957 E235.22206
G1 X135.435 Y112.051 E235.22676
G1 X113.134 Y134.353 E236.80025
G1 X113.274 Y134.344 E236.80725
G1 X114.461 Y134.154 E236.86722
G1 X114.846 Y134.055 E236.88705
G1 X135.568 Y113.332 E238.34914
G1 X135.801 Y114.139 E238.39104
G1 X135.904 Y114.411 E238.40555
G1 X116.529 Y133.786 E239.77256
G1 X116.991 Y133.782 E239.79561
G1 X117.84 Y133.889 E239.83831
G1 X136.295 Y115.434 E241.14041
G1 X136.343 Y115.558 E241.14704
G1 X136.39 Y115.536 E241.14963
G1 X136.644 Y116.065 E241.1789
G1 X136.767 Y116.376 E241.19559
G1 X119.013 Y134.131 E242.44827
G1 X119.63 Y134.348 E242.4809
G1 X120.039 Y134.518 E242.50299
G1 X137.127 Y117.431 E243.70861
G1 X137.351 Y118.467 E243.76149
G1 X137.365 Y118.607 E243.76851
G1 X121.094 Y134.877 E244.91648
G1 X121.946 Y135.064 E244.96
G1 X122.279 Y135.106 E244.97674
G1 X137.454 Y119.932 E246.04739
G1 X137.453 Y121.348 E246.11803
G1 X123.605 Y135.195 E247.09505
G1 X125.018 Y135.196 E247.16554
G1 X137.452 Y122.762 E248.04283
G1 X137.421 Y123.561 E248.08272
G1 X137.327 Y124.301 E248.11994
G1 X126.431 Y135.198 E248.88874
G1 X127.377 Y135.198 E248.93594
G1 X127.864 Y135.179 E248.96025
G1 X136.79 Y126.253 E249.59003
G1 X136.646 Y126.639 E249.61059
G1 X136.61 Y126.632 E249.61242
G1 X136.41 Y127.739 E249.66854
G1 X136.319 Y128.138 E249.68896
G1 X129.519 Y134.938 E250.16873
G1 X130.357 Y134.698 E250.21222
G1 X131.128 Y134.394 E250.25357
G1 X131.822 Y134.049 E250.29223
G1 X135.418 Y130.454 E250.54592
G1 X134.905 Y131.283 E250.59455
G1 X134.394 Y131.947 E250.63636
G1 X133.826 Y132.56 E250.67805
G1 X133.216 Y133.105 E250.71886
G1 X132.571 Y133.589 E250.75909
G1 X131.845 Y134.038 E250.80168
G0 F600 X131.845 Y134.038 Z0.49
G0 F9000 X135.142 Y96.52
;TIME_ELAPSED:275.575829
;LAYER:-6
;TYPE:SUPPORT-INTERFACE
G1 F1200 X134.641 Y95.849 E250.8156
G1 X134.089 Y95.233 E250.82936
G1 X133.614 Y94.782 E250.84025
G1 X133.206 Y94.428 E250.84923
G1 X133.178 Y94.456 E250.84989
G1 X132.65 Y93.905 E250.86258
G1 X130.213 Y91.467 E250.91991
G1 X129.64 Y90.941 E250.93285
G1 X128.741 Y90.274 E250.95146
G1 X135.392 Y96.925 E251.10788
G1 X135.594 Y97.254 E251.1143
G1 X136.006 Y98.105 E251.13003
G1 X127.452 Y89.551 E251.3312
G1 X126.527 Y89.192 E251.3477
G1 X136.337 Y99.002 E251.57842
G1 X136.543 Y99.773 E251.59169
G1 X125.733 Y88.963 E251.84593
G1 X125.023 Y88.819 E251.85797
G1 X136.675 Y100.471 E252.13201
G1 X136.738 Y101.1 E252.14252
G1 X124.375 Y88.737 E252.43328
G1 X124.302 Y88.727 E252.43451
G1 X123.777 Y88.705 E252.44325
G1 X136.776 Y101.703 E252.74895
G1 X136.779 Y102.272 E252.75841
G1 X123.201 Y88.694 E253.07775
G1 X122.595 Y88.654 E253.08785
G1 X136.779 Y102.838 E253.42143
G1 X136.778 Y103.403 E253.43083
G1 X121.962 Y88.587 E253.77928
G1 X121.175 Y88.365 E253.79288
G1 X136.778 Y103.968 E254.15984
G1 X136.777 Y104.533 E254.16923
