;FLAVOR:Marlin
;TIME:414
;Filament used: 0.30503m
;Layer height: 0.2
;MINX:98.814
;MINY:97.885
;MINZ:0.3
;MAXX:107.647
;MAXY:120.337
;MAXZ:8.1
;Generated with Cura_SteamEngine 5.0.0
M140 S60
M105
M190 S60
M104 S200
M105
M109 S200
M82 ;absolute extrusion mode
G28 ;Home
G1 Z15.0 F6000 ;Move the platform down 15mm
;Prime the extruder
G92 E0
G1 F200 E3
G92 E0
G92 E0
G92 E0
G1 F2700 E-5
;LAYER_COUNT:40
;LAYER:0
M107
G0 F4500 X102.914 Y98.679 Z0.3
;TYPE:SUPPORT
G1 F2700 E0
G1 F1500 X103.542 Y98.679 E0.03133
G0 F4500 X103.542 Y101.346
G1 F1500 X102.914 Y101.346 E0.06266
G0 F4500 X102.914 Y104.013
G1 F1500 X103.542 Y104.013 E0.09399
G0 F4500 X103.542 Y106.68
G1 F1500 X102.914 Y106.68 E0.12532
G0 F4500 X103.133 Y109.347
G1 F1500 X103.323 Y109.347 E0.1348
;MESH:?????????????????????????????????6mmC.stl
G0 F4500 X103.621 Y109.951
;TYPE:WALL-OUTER
G1 F1500 X103.479 Y110.009 E0.14246
G1 X102.979 Y110.009 E0.1674
G1 X102.837 Y109.951 E0.17505
G1 X102.337 Y109.451 E0.21033
G1 X102.279 Y109.309 E0.21798
G1 X102.279 Y98.738 E0.74537
G1 X101.033 Y98.738 E0.80754
G1 X101.034 Y113.3 E1.53404
G1 X101.035 Y113.809 E1.55943
G1 X101.378 Y113.495 E1.58263
G1 X101.957 Y113.149 E1.61628
G1 X102.567 Y112.942 E1.64842
G1 X103.115 Y112.885 E1.67591
G1 X103.345 Y112.876 E1.68739
G1 X103.974 Y112.961 E1.71906
G1 X104.59 Y113.189 E1.75183
G1 X105.183 Y113.578 E1.78721
G1 X105.425 Y113.835 E1.80482
G1 X105.425 Y99.361 E2.52693
G1 X105.425 Y98.738 E2.55801
G1 X104.179 Y98.738 E2.62018
G1 X104.179 Y109.309 E3.14757
G1 X104.121 Y109.451 E3.15522
G1 X103.621 Y109.951 E3.1905
G0 F4500 X103.479 Y110.009
G0 X103.432 Y110.009
G0 X102.818 Y110.388
;TYPE:WALL-INNER
G1 F1500 X102.554 Y110.234 E3.20574
G1 X102.054 Y109.734 E3.24102
G1 F1449.3 X101.873 Y109.415 E3.25996
G1 F1408.5 X101.868 Y109.309 E3.2656
G1 F1418.4 X101.868 Y99.149 E3.80163
G1 X101.444 Y99.149 E3.824
G1 X101.444 Y109.309 E4.36003
G1 F1459.9 X101.435 Y109.99 E4.39494
G1 F1500 X101.433 Y110.698 E4.43026
G1 X101.435 Y112.995 E4.54486
G1 X101.872 Y112.75 E4.56986
G1 X102.442 Y112.562 E4.5998
G1 X103.077 Y112.487 E4.6317
G1 X103.399 Y112.48 E4.64777
G1 X104.028 Y112.565 E4.67944
G1 X104.732 Y112.815 E4.71671
G1 X105.025 Y112.993 E4.73381
G1 X105.025 Y109.991 E4.88358
G1 F1449.3 X105.011 Y109.451 E4.91148
G1 F1411.8 X105.014 Y109.309 E4.919
G1 F1418.4 X105.014 Y99.361 E5.44385
G1 X105.014 Y99.149 E5.45503
G1 X104.59 Y99.149 E5.4774
G1 X104.59 Y109.309 E6.01343
G1 F1411.8 X104.586 Y109.415 E6.01906
G1 F1449.3 X104.404 Y109.734 E6.03802
G1 F1500 X103.904 Y110.234 E6.0733
G1 X103.638 Y110.388 E6.08863
G1 X103.132 Y110.409 E6.1139
G1 X102.818 Y110.388 E6.1296
G0 F4500 X102.712 Y110.773
G1 F1500 X102.271 Y110.517 E6.15504
G1 X101.835 Y110.08 E6.18584
G1 X101.833 Y110.698 E6.21667
G1 X101.835 Y112.341 E6.29864
G1 X102.316 Y112.182 E6.32391
G1 X103.039 Y112.089 E6.36028
G1 X103.453 Y112.084 E6.38094
G1 X104.082 Y112.169 E6.4126
G1 X104.625 Y112.347 E6.44111
G1 X104.625 Y110.078 E6.55431
G1 X104.187 Y110.517 E6.58525
G1 X103.744 Y110.774 E6.6108
G1 X103.132 Y110.809 E6.64139
G1 X102.712 Y110.773 E6.66242
G0 F4500 X103.286 Y111.214
;TYPE:SKIN
G1 F1257.9 X102.628 Y111.196 E6.70158
G1 F1181.1 X102.272 Y111.007 E6.72712
G1 F1169.6 X102.271 Y111.759 E6.77523
G1 F1181.1 X102.617 Y111.697 E6.79751
G1 F1257.9 X103.266 Y111.665 E6.83616
G1 F1255.2 X103.84 Y111.699 E6.87045
G1 F1174.2 X104.187 Y111.765 E6.89296
G1 F1160.5 X104.187 Y111.017 E6.94119
G1 F1174.2 X103.831 Y111.198 E6.96664
G1 F1255.2 X103.286 Y111.214 E6.99915
G1 F2700 E1.99915
G0 F4500 X104.05 Y112.743
G0 X103.779 Y113.804
G0 X103.807 Y118.025
G0 X104.104 Y119.079
G0 X103.207 Y119.479
G1 F2700 E6.99915
G0 F4500 X103.188 Y118.969
;TYPE:WALL-OUTER
G1 F1500 X102.572 Y118.889 E7.03014
G1 X102.054 Y118.72 E7.05733
G1 X101.826 Y118.628 E7.06959
G1 X101.276 Y118.26 E7.10261
G1 X101.035 Y118.004 E7.12015
G1 X101.035 Y119.751 E7.20731
G1 X101.556 Y120.008 E7.23629
G1 X102.337 Y120.246 E7.27702
G1 X103.134 Y120.337 E7.31704
G1 X103.93 Y120.281 E7.35685
G1 X104.361 Y120.185 E7.37888
G1 X105.082 Y119.93 E7.41704
G1 X105.426 Y119.746 E7.4365
G1 X105.426 Y118.03 E7.52211
G1 X104.976 Y118.419 E7.55179
G1 X104.42 Y118.718 E7.58328
G1 X103.944 Y118.875 E7.60829
G1 X103.188 Y118.969 E7.6463
G0 F4500 X102.99 Y118.944
G0 X102.949 Y119.462
G0 X103.96 Y119.401
G0 X103.946 Y119.334
;TYPE:WALL-INNER
G1 F1244.8 X103.227 Y119.407 E7.68974
G1 F1239.7 X102.51 Y119.329 E7.73328
G1 F1229.5 X101.896 Y119.135 E7.77248
G1 F1232 X101.477 Y118.926 E7.80092
G1 F1237.1 X101.477 Y119.476 E7.83419
G1 F1250 X102.134 Y119.725 E7.87625
G1 F1244.8 X102.449 Y119.812 E7.8959
G1 F1237.1 X103.121 Y119.892 E7.93683
G1 F1239.7 X103.852 Y119.842 E7.98107
G1 F1232 X104.213 Y119.766 E8.00347
G1 F1242.2 X104.752 Y119.58 E8.03782
G1 F1244.8 X104.983 Y119.48 E8.05296
G1 F1234.6 X104.983 Y118.922 E8.08678
G1 F1250 X104.475 Y119.179 E8.12086
G1 F1252.6 X103.946 Y119.334 E8.1538
G0 F4500 X103.979 Y119.445
G1 F2700 E3.1538
;MESH:NONMESH
G0 F600 X103.979 Y119.445 Z0.5
G0 F4500 X103.807 Y118.025
G0 X106.282 Y114.857
G0 X106.278 Y97.885
G0 X103.326 Y97.885
G0 X103.229 Y98.588
;TIME_ELAPSED:11.588946
;LAYER:1
M106 S255
;TYPE:SUPPORT
G1 F2700 E8.1538
G1 F2472.5 X103.229 Y108.998 E8.46887
G1 F2700 E3.46887
G0 F6750 X103.132 Y97.885
G0 X100.035 Y97.885
G0 X100.039 Y115.495
G0 X100.642 Y115.234
G1 F2700 E8.46887
G1 F1465.8 X100.629 Y115.319 E8.47326
G1 F1630.4 X100.579 Y115.957 E8.50264
G1 F1615.8 X100.634 Y116.568 E8.53105
G1 F1727.4 X100.78 Y116.707 E8.53978
G1 F2337.7 X100.936 Y116.902 E8.54778
G1 F2700 E3.54778
G0 F6750 X101.406 Y116.627
G0 X105.053 Y116.63
G0 X105.522 Y116.904
G1 F2700 E8.54778
G1 F2301.8 X105.684 Y116.703 E8.55617
G1 F1701.3 X105.825 Y116.574 E8.56458
G1 F1604.3 X105.88 Y115.958 E8.59343
G1 F1630.4 X105.834 Y115.332 E8.62224
G1 F1468.2 X105.819 Y115.233 E8.62734
G1 F2700 E3.62734
;MESH:?????????????????????????????????6mmC.stl
G0 F6750 X105.794 Y115.416
G0 X103.22 Y117.853
G0 X103.209 Y118.95
G1 F2700 E8.62734
G0 F6750 X102.591 Y118.644
;TYPE:WALL-OUTER
G1 F1500 X102.041 Y118.455 E8.64668
G1 X101.464 Y118.091 E8.66937
G1 X101.08 Y117.716 E8.68723
G1 X100.891 Y117.435 E8.69849
G1 X100.891 Y119.176 E8.75639
G1 X100.89 Y119.667 E8.77273
G1 X101.568 Y120.012 E8.79803
G1 X102.321 Y120.243 E8.82422
G1 X103.119 Y120.336 E8.85095
G1 X103.678 Y120.31 E8.86956
G1 X104.434 Y120.165 E8.89516
G1 X104.974 Y119.972 E8.91423
G1 X105.571 Y119.658 E8.93667
G1 X105.57 Y117.426 E9.01091
G1 X105.335 Y117.763 E9.02457
G1 X104.867 Y118.189 E9.04562
G1 X104.371 Y118.464 E9.06448
G1 X103.778 Y118.664 E9.0853
G1 X103.231 Y118.719 E9.10358
G1 X102.591 Y118.644 E9.12501
G0 F6750 X102.402 Y118.579
G0 X102.259 Y119.08
G0 X103.919 Y119.154
G0 X103.893 Y119.047
;TYPE:WALL-INNER
G1 F1500 X103.268 Y119.117 E9.14593
G1 X102.542 Y119.041 E9.17021
G1 X102.01 Y118.869 E9.18881
G1 X101.783 Y118.771 E9.19703
G1 X101.29 Y118.454 E9.21652
G1 X101.291 Y119.176 E9.24054
G1 X101.29 Y119.421 E9.24869
G1 X101.753 Y119.65 E9.26587
G1 X102.403 Y119.85 E9.28849
G1 X103.133 Y119.935 E9.31293
G1 X103.69 Y119.908 E9.33148
G1 X104.387 Y119.766 E9.35514
G1 X104.906 Y119.57 E9.37359
G1 X105.171 Y119.423 E9.38367
G1 X105.17 Y118.453 E9.41593
G1 X104.561 Y118.816 E9.43951
G1 X103.893 Y119.047 E9.46302
G0 F6750 X104.757 Y119.18
G1 F1398.6 X104.272 Y119.366 E9.48155
G1 X103.639 Y119.497 E9.50461
G1 F1421.8 X103.095 Y119.521 E9.52371
G1 F1435.4 X102.487 Y119.447 E9.545
G1 F1421.8 X101.873 Y119.257 E9.56756
G1 F1456.3 X101.691 Y119.176 E9.57438
G0 F6750 X101.699 Y119.178
G1 F2700 E4.57438
G0 F6750 X101.301 Y118.256
G0 X101.993 Y117.407
G0 X102.623 Y114.082
G0 X102.264 Y113.05
G0 X103.98 Y110.311
G1 F2700 E9.57438
G0 F6750 X103.621 Y109.951
;TYPE:WALL-OUTER
G1 F1500 X103.461 Y110.01 E9.58005
G1 X102.927 Y110.003 E9.59781
G1 X102.337 Y109.451 E9.62469
G1 X102.279 Y109.309 E9.62979
G1 X102.279 Y98.738 E9.98138
G1 X100.889 Y98.738 E10.02761
G1 X100.89 Y113.516 E10.51913
G1 X100.891 Y114.407 E10.54877
G1 X101.082 Y114.127 E10.56004
G1 X101.458 Y113.751 E10.57773
G1 X102.031 Y113.389 E10.60027
G1 X102.551 Y113.203 E10.61864
G1 X103.158 Y113.128 E10.63898
G1 X103.748 Y113.179 E10.65868
G1 X104.418 Y113.384 E10.68198
G1 X104.995 Y113.747 E10.70465
G1 X105.379 Y114.124 E10.72255
G1 X105.569 Y114.408 E10.73392
G1 X105.569 Y99.433 E11.23199
G1 X105.569 Y98.738 E11.2551
G1 X104.179 Y98.738 E11.30133
G1 X104.179 Y109.309 E11.65293
G1 X104.121 Y109.451 E11.65803
G1 X103.621 Y109.951 E11.68155
G0 F6750 X103.461 Y110.01
G0 X103.431 Y110.01
G0 X103.042 Y110.41
;TYPE:WALL-INNER
G1 F1500 X102.825 Y110.39 E11.6888
G1 X102.554 Y110.234 E11.6992
G1 X102.054 Y109.734 E11.72271
G1 F1330.4 X101.837 Y109.421 E11.737
G1 F1204.8 X101.832 Y109.309 E11.74164
G1 F1212.1 X101.832 Y99.185 E12.15834
G1 X101.336 Y99.185 E12.17875
G1 X101.336 Y109.309 E12.59545
G1 F1342.3 X101.291 Y110.05 E12.62304
G1 F1500 X101.29 Y112.53 E12.70553
G1 X101.29 Y113.379 E12.73377
G1 X101.819 Y113.049 E12.7545
G1 X102.419 Y112.825 E12.7758
G1 X103.112 Y112.731 E12.79907
G1 X103.423 Y112.736 E12.80941
G1 X104.044 Y112.827 E12.83029
G1 X104.552 Y113.007 E12.84821
G1 X105.169 Y113.383 E12.87224
G1 X105.169 Y110.051 E12.98307
G1 F1333.3 X105.119 Y109.464 E13.00511
G1 F1207.2 X105.122 Y109.309 E13.01152
G1 F1212.1 X105.122 Y99.433 E13.41801
G1 X105.122 Y99.185 E13.42821
G1 X104.626 Y99.185 E13.44863
G1 X104.626 Y109.309 E13.86533
G1 F1207.2 X104.622 Y109.421 E13.86996
G1 F1333.3 X104.404 Y109.734 E13.88423
G1 F1500 X103.904 Y110.234 E13.90775
G1 X103.634 Y110.389 E13.9181
G1 X103.042 Y110.41 E13.93781
G0 F6750 X103.042 Y110.81
G1 F1500 X102.722 Y110.777 E13.94851
G1 X102.271 Y110.517 E13.96582
G1 X101.771 Y110.017 E13.98934
G1 X101.691 Y109.861 E13.99517
G1 X101.691 Y112.67 E14.0886
G1 X102.288 Y112.447 E14.10979
G1 X103.066 Y112.333 E14.13595
G1 X103.473 Y112.34 E14.14949
G1 X104.177 Y112.45 E14.17318
G1 X104.685 Y112.63 E14.19111
G1 X104.769 Y112.671 E14.19422
G1 X104.769 Y109.861 E14.28768
G1 X104.688 Y110.018 E14.29356
G1 X104.187 Y110.517 E14.31707
G1 X103.736 Y110.776 E14.33437
G1 X103.042 Y110.81 E14.35748
G0 F6750 X103.437 Y111.269
;TYPE:SKIN
G1 F1018.7 X103.157 Y111.279 E14.3712
G1 F1212.1 X102.661 Y111.15 E14.3923
G1 F1500 X102.071 Y110.834 E14.41456
G1 X102.07 Y112.12 E14.45733
G1 X102.563 Y112.008 E14.47415
G1 X102.769 Y111.994 E14.48101
G1 F1217 X103.227 Y111.865 E14.50052
G1 F1022.1 X103.423 Y111.855 E14.5101
G1 F1214.6 X103.897 Y112.005 E14.53052
G1 F1500 X104.389 Y112.134 E14.54744
G1 X104.389 Y110.833 E14.59071
G1 X103.884 Y111.124 E14.61009
G1 F1214.6 X103.437 Y111.269 E14.6294
G0 F6750 X103.768 Y111.757
G1 F1500 X104.188 Y111.337 E14.64915
G0 F6750 X102.935 Y111.459
G1 F1500 X102.576 Y111.818 E14.66604
G0 F6750 X102.27 Y111.558
G1 F1500 X102.521 Y111.307 E14.67785
G1 F2700 E9.67785
;MESH:NONMESH
G0 F600 X102.521 Y111.307 Z0.7
G0 F6750 X102.051 Y109.486
G0 X103.14 Y109.035
G0 X103.229 Y98.588
;TIME_ELAPSED:21.711875
;LAYER:2
;TYPE:SUPPORT
G1 F2700 E14.67785
G1 F3296.7 X103.229 Y108.998 E14.99292
G1 F2700 E9.99292
;MESH:?????????????????????????????????6mmC.stl
G0 F9000 X104.063 Y109.833
G1 F2700 E14.99292
G0 F9000 X103.621 Y109.951
;TYPE:WALL-OUTER
G1 F1500 X103.479 Y110.009 E14.99802
G1 X102.979 Y110.009 E15.01465
G1 X102.837 Y109.951 E15.01976
G1 X102.337 Y109.451 E15.04327
G1 X102.279 Y109.309 E15.04838
G1 X102.279 Y98.738 E15.39997
G1 X100.773 Y98.738 E15.45006
G1 X100.774 Y114.173 E15.96343
G1 X100.775 Y114.822 E15.98501
G1 X101.043 Y114.335 E16.0035
G1 X101.504 Y113.843 E16.02593
G1 X102.069 Y113.481 E16.04825
G1 X102.705 Y113.271 E16.07052
G1 X103.368 Y113.224 E16.09263
G1 X104.03 Y113.34 E16.11498
G1 X104.642 Y113.619 E16.13735
G1 X105.047 Y113.924 E16.15422
G1 X105.484 Y114.432 E16.1765
G1 X105.685 Y114.814 E16.19086
G1 X105.685 Y99.491 E16.70051
G1 X105.685 Y98.738 E16.72555
G1 X104.179 Y98.738 E16.77564
G1 X104.179 Y109.309 E17.12723
G1 X104.121 Y109.451 E17.13234
G1 X103.621 Y109.951 E17.15585
G0 F9000 X103.479 Y110.009
G0 X103.432 Y110.009
G0 X102.979 Y110.409
;TYPE:WALL-INNER
G1 F1500 X102.81 Y110.386 E17.16153
G1 X102.554 Y110.234 E17.17143
G1 X102.054 Y109.734 E17.19495
G1 F1250 X101.808 Y109.426 E17.21068
G1 F1079.1 X101.803 Y109.309 E17.21609
G1 F1085 X101.803 Y99.214 E17.68028
G1 X101.249 Y99.214 E17.70576
G1 X101.249 Y109.309 E18.16995
G1 F1260.5 X101.175 Y110.098 E18.20131
G1 F1500 X101.174 Y112.765 E18.29002
G1 X101.175 Y113.608 E18.31806
G1 X101.329 Y113.473 E18.32487
G1 X101.857 Y113.142 E18.34559
G1 X102.583 Y112.89 E18.37116
G1 X103.343 Y112.824 E18.39653
G1 X104.103 Y112.946 E18.42213
G1 X104.812 Y113.257 E18.44788
G1 X105.285 Y113.602 E18.46735
G1 X105.285 Y110.098 E18.5839
G1 F1250 X105.205 Y109.474 E18.609
G1 F1079.1 X105.209 Y109.309 E18.61663
G1 F1085 X105.209 Y99.491 E19.06809
G1 X105.209 Y99.214 E19.08082
G1 X104.655 Y99.214 E19.1063
G1 X104.655 Y109.309 E19.57049
G1 F1079.1 X104.65 Y109.426 E19.5759
G1 F1250 X104.403 Y109.733 E19.59163
G1 F1500 X103.904 Y110.234 E19.61515
G1 X103.556 Y110.405 E19.62804
G1 X102.979 Y110.409 E19.64724
G0 F9000 X102.271 Y110.517
G1 F1500 X101.771 Y110.017 E19.67075
G1 X101.574 Y109.636 E19.68502
G1 X101.575 Y112.848 E19.79185
G1 X101.87 Y112.698 E19.80286
G1 X102.461 Y112.509 E19.8235
G1 X103.028 Y112.443 E19.84248
G1 X103.563 Y112.44 E19.86028
G1 X104.175 Y112.553 E19.88098
G1 X104.885 Y112.85 E19.90657
G1 X104.885 Y109.633 E20.01357
G1 X104.686 Y110.016 E20.02793
G1 X104.187 Y110.517 E20.05144
G1 X103.756 Y110.771 E20.06808
G1 X103.269 Y110.809 E20.08433
G1 X102.697 Y110.77 E20.1034
G1 X102.271 Y110.517 E20.11988
G0 F9000 X102.547 Y111.117
;TYPE:SKIN
G1 F1500 X102.042 Y110.817 E20.13942
G1 X101.956 Y110.744 E20.14317
G1 X101.955 Y112.271 E20.19396
G1 X102.543 Y112.108 E20.21425
G1 X103.503 Y112.05 E20.24624
G1 X104.246 Y112.178 E20.27131
G1 X104.505 Y112.276 E20.28053
G1 X104.505 Y110.739 E20.33165
G1 X103.91 Y111.114 E20.35504
G1 X103.486 Y111.188 E20.36935
G1 X102.954 Y111.188 E20.38705
G1 X102.547 Y111.117 E20.40079
G0 F9000 X102.338 Y111.955
G1 F1500 X102.155 Y111.771 E20.40942
G0 F9000 X102.155 Y111.205
G1 F1500 X102.826 Y111.877 E20.44101
G0 F9000 X102.892 Y111.377
G1 F1500 X103.371 Y111.857 E20.46356
G0 F9000 X103.466 Y111.386
G1 F1500 X104.013 Y111.933 E20.48929
G0 F9000 X104.305 Y111.659
G1 F1500 X103.947 Y111.301 E20.50613
G1 F2700 E15.50613
G0 F9000 X104.941 Y113.541
G0 X104.476 Y114.575
G0 X104.634 Y117.1
G0 X105.47 Y117.787
G1 F2700 E20.50613
G0 F9000 X104.822 Y118.098
;TYPE:WALL-OUTER
G1 F1500 X104.386 Y118.36 E20.52305
G1 X103.758 Y118.567 E20.54504
G1 X103.249 Y118.619 E20.56206
G1 X102.587 Y118.541 E20.58423
G1 X101.965 Y118.304 E20.60637
G1 X101.414 Y117.916 E20.62878
G1 X100.976 Y117.407 E20.65112
G1 X100.774 Y117.022 E20.66558
G1 X100.775 Y119.588 E20.75092
G1 X101.271 Y119.86 E20.76974
G1 X101.76 Y120.085 E20.78764
G1 X102.547 Y120.284 E20.81464
G1 X103.144 Y120.337 E20.83457
G1 X103.682 Y120.31 E20.85249
G1 X104.188 Y120.214 E20.86962
G1 X104.579 Y120.12 E20.88299
G1 X105.253 Y119.845 E20.90721
G1 X105.686 Y119.584 E20.92402
G1 X105.686 Y117.033 E21.00887
G1 X105.307 Y117.641 E21.0327
G1 X104.822 Y118.098 E21.05486
G0 F9000 X104.651 Y118.201
G0 X104.511 Y118.744
;TYPE:WALL-INNER
G1 F1500 X103.88 Y118.948 E21.07692
G1 X103.286 Y119.017 E21.09681
G1 X102.749 Y118.965 E21.11475
G1 X102.392 Y118.901 E21.12682
G1 X101.803 Y118.67 E21.14786
G1 X101.178 Y118.244 E21.17302
G1 X101.175 Y119.368 E21.2104
G1 X101.855 Y119.688 E21.2354
G1 X102.371 Y119.827 E21.25317
G1 X103.059 Y119.928 E21.2763
G1 X103.66 Y119.91 E21.2963
G1 X104.347 Y119.774 E21.31959
G1 X104.85 Y119.578 E21.33754
G1 X105.286 Y119.359 E21.35377
G1 X105.286 Y118.213 E21.39189
G1 X104.99 Y118.469 E21.40491
G1 X104.511 Y118.744 E21.42328
G0 F9000 X104.829 Y119.093
G1 F1169.6 X104.819 Y119.098 E21.42375
G1 F1147.2 X104.254 Y119.317 E21.4501
G1 F1151.6 X103.793 Y119.425 E21.47062
G1 F1176.5 X103.286 Y119.474 E21.49222
G1 F1149.4 X102.692 Y119.427 E21.51808
G1 F1156.1 X102.227 Y119.323 E21.53864
G1 F1188.1 X101.627 Y119.086 E21.56573
G1 F2700 E16.56573
;MESH:NONMESH
G0 F600 X101.627 Y119.086 Z0.9
G0 F9000 X103.229 Y98.588
