;FLAVOR:Marlin
;TIME:894
;Filament used: 0.527779m
;Layer height: 0.18
;MINX:91.908
;MINY:98.215
;MINZ:0.216
;MAXX:118.594
;MAXY:121.767
;MAXZ:11.076
;Generated with Cura_SteamEngine 5.0.0
M140 S100
M105
M190 S100
M104 S250
M105
M109 S250
M82 ;absolute extrusion mode
G28 ;Home
G1 Z15.0 F6000 ;Move the platform down 15mm
;Prime the extruder
G92 E0
G1 F200 E3
G92 E0
G92 E0
G92 E0
G1 F2700 E-5
;LAYER_COUNT:56
;LAYER:-6
M107
G0 F9000 X95.501 Y100.683 Z0.216
;TYPE:SUPPORT-INTERFACE
G1 F2700 E0
G1 F900 X95.146 Y101.137 E0.0414
G1 X94.848 Y101.636 E0.08316
G1 X94.616 Y102.167 E0.12479
G1 X94.417 Y102.907 E0.17984
G1 X94.146 Y103.83 E0.24895
G1 X93.867 Y104.427 E0.29629
G1 X93.467 Y105.057 E0.3499
G1 X93.061 Y105.696 E0.40429
G1 X92.82 Y106.143 E0.44078
G1 X92.585 Y106.655 E0.48125
G1 X92.372 Y107.21 E0.52396
G1 X92.226 Y107.689 E0.55993
G1 X92.065 Y108.361 E0.60958
G1 X91.976 Y108.938 E0.65152
G1 X91.923 Y109.511 E0.69286
G1 X91.908 Y110.022 E0.72959
G1 X91.937 Y110.746 E0.78164
G1 X92.017 Y111.393 E0.82848
G1 X92.12 Y111.918 E0.86692
G1 X92.281 Y112.529 E0.91231
G1 X92.503 Y113.156 E0.96009
G1 X92.691 Y113.597 E0.99453
G1 X93.032 Y114.245 E1.04714
G1 X93.333 Y114.734 E1.08839
G1 X93.709 Y115.333 E1.1392
G1 X93.97 Y115.77 E1.17577
G1 X94.219 Y116.366 E1.22217
G1 X94.346 Y116.86 E1.25882
G1 X94.506 Y117.461 E1.3035
G1 X94.768 Y118.178 E1.35834
G1 X95.034 Y118.675 E1.39884
G1 X95.379 Y119.16 E1.4416
G1 X95.761 Y119.575 E1.48212
G1 X96.165 Y119.927 E1.52062
G1 X96.58 Y120.225 E1.55732
G1 X97.029 Y120.52 E1.59592
G1 X98.001 Y121.082 E1.67658
G1 X98.661 Y121.415 E1.72969
G1 X99.215 Y121.604 E1.77174
G1 X99.789 Y121.723 E1.81386
G1 X100.367 Y121.767 E1.8555
G1 X100.94 Y121.737 E1.89672
G1 X101.521 Y121.632 E1.93914
G1 X102.07 Y121.462 E1.98043
G1 X102.803 Y121.131 E2.03821
G1 X103.669 Y120.791 E2.10505
G1 X104.316 Y120.646 E2.15268
G1 X104.997 Y120.579 E2.20184
G1 X105.678 Y120.599 E2.25079
G1 X106.354 Y120.705 E2.29995
G1 X107.009 Y120.894 E2.34892
G1 X107.78 Y121.246 E2.40981
G1 X108.444 Y121.522 E2.46147
G1 X109.002 Y121.673 E2.503
G1 X109.576 Y121.754 E2.54465
G1 X110.156 Y121.761 E2.58632
G1 X110.733 Y121.695 E2.62804
G1 X111.289 Y121.559 E2.66916
G1 X111.917 Y121.315 E2.71757
G1 X113.147 Y120.703 E2.81626
G1 X113.647 Y120.411 E2.85786
G1 X114.134 Y120.086 E2.89993
G1 X114.562 Y119.752 E2.93893
G1 X115 Y119.317 E2.98328
G1 X115.358 Y118.86 E3.02498
G1 X115.648 Y118.375 E3.06558
G1 X115.885 Y117.829 E3.10834
G1 X116.086 Y117.087 E3.16357
G1 X116.337 Y116.219 E3.22848
G1 X116.625 Y115.59 E3.27818
G1 X117.094 Y114.855 E3.34082
G1 X117.417 Y114.349 E3.38395
G1 X117.687 Y113.85 E3.42471
G1 X117.915 Y113.357 E3.46373
G1 X118.124 Y112.817 E3.50533
G1 X118.329 Y112.106 E3.55849
G1 X118.477 Y111.408 E3.60975
G1 X118.57 Y110.668 E3.66333
G1 X118.594 Y109.854 E3.72184
G1 X118.563 Y109.25 E3.76529
G1 X118.471 Y108.525 E3.81779
G1 X118.369 Y108.034 E3.85382
G1 X118.219 Y107.47 E3.89574
G1 X118.046 Y106.974 E3.93348
G1 X117.838 Y106.469 E3.97272
G1 X117.604 Y105.987 E4.01121
G1 X117.286 Y105.435 E4.05698
G1 X116.781 Y104.673 E4.12265
G1 X116.472 Y104.091 E4.16999
G1 X116.244 Y103.479 E4.21691
G1 X116.09 Y102.85 E4.26344
G1 X115.953 Y102.359 E4.30006
G1 X115.699 Y101.727 E4.34899
G1 X115.428 Y101.246 E4.38865
G1 X115.074 Y100.77 E4.43127
G1 X114.674 Y100.356 E4.47263
G1 X114.246 Y100.002 E4.51253
G1 X113.622 Y99.58 E4.56665
G1 X112.93 Y99.167 E4.62455
G1 X112.329 Y98.816 E4.67455
G1 X111.675 Y98.511 E4.72639
G1 X111.13 Y98.344 E4.76734
G1 X110.554 Y98.243 E4.80935
G1 X109.984 Y98.215 E4.85035
G1 X109.398 Y98.262 E4.89259
G1 X108.844 Y98.375 E4.93321
G1 X108.285 Y98.568 E4.97569
G1 X107.488 Y98.942 E5.03894
G1 X106.899 Y99.163 E5.08414
G1 X106.237 Y99.326 E5.13312
G1 X105.553 Y99.402 E5.18256
G1 X104.873 Y99.392 E5.23142
G1 X104.195 Y99.296 E5.28061
G1 X103.538 Y99.116 E5.32955
G1 X102.907 Y98.853 E5.37866
G1 X102.454 Y98.628 E5.415
G1 X101.906 Y98.419 E5.45714
G1 X101.343 Y98.283 E5.49875
G1 X100.757 Y98.22 E5.54109
G1 X100.194 Y98.229 E5.58154
G1 X99.612 Y98.312 E5.62378
G1 X99.047 Y98.469 E5.6659
G1 X98.444 Y98.723 E5.71291
G1 X97.489 Y99.226 E5.79045
G1 X96.984 Y99.516 E5.83229
G1 X96.38 Y99.912 E5.88418
G1 X95.926 Y100.263 E5.92541
G1 X95.501 Y100.683 E5.96833
G0 F9000 X96.114 Y100.639
G1 F900 X114.611 Y119.136 E7.84762
G0 F9000 X113.338 Y120.126
G1 F900 X95.151 Y101.939 E9.69542
G0 F9000 X94.611 Y103.662
G1 F900 X111.849 Y120.9 E11.4468
G0 F9000 X110.045 Y121.359
G1 F900 X93.862 Y105.175 E13.09104
G0 F9000 X93.041 Y106.618
G1 F900 X106.857 Y120.433 E14.49469
G0 F9000 X104.395 Y120.235
G1 F900 X92.483 Y108.323 E15.70494
G0 F9000 X92.319 Y110.421
G1 F900 X102.656 Y120.758 E16.75518
G0 F9000 X100.96 Y121.325
G1 F900 X93.065 Y113.429 E17.55736
G0 F9000 X94.975 Y117.602
G1 F900 X97.981 Y120.609 E17.86282
G0 F9000 X115.483 Y117.746
G1 F900 X97.448 Y99.711 E19.69517
G0 F9000 X98.946 Y98.946
G1 F900 X115.997 Y115.997 E21.42755
G0 F9000 X116.814 Y114.551
G1 F900 X100.9 Y98.637 E23.04441
G0 F9000 X104.231 Y99.705
G1 F900 X117.593 Y113.067 E24.40199
G0 F9000 X118.087 Y111.299
G1 F900 X106.469 Y99.68 E25.58242
G0 F9000 X108.132 Y99.081
G1 F900 X118.138 Y109.087 E26.59903
G0 F9000 X116.917 Y105.604
G1 F900 X109.934 Y98.62 E27.30855
G0 F9000 X113.654 Y100.078
G1 F900 X115.158 Y101.582 E27.46136
G0 F600 X115.158 Y101.582 Z0.486
G0 F9000 X115.4 Y117.944
;TIME_ELAPSED:29.916085
;LAYER:-5
;TYPE:SUPPORT
G1 F900 X113.049 Y120.295 E27.75994
G1 X114.122 Y119.595 E27.87499
G1 X114.511 Y119.253 E27.9215
G1 X115.022 Y118.644 E27.99289
G1 X115.296 Y118.184 E28.04097
G1 X115.515 Y117.679 E28.0904
G1 X115.692 Y117.012 E28.15238
G1 X115.969 Y116.047 E28.24253
G1 X116.044 Y115.886 E28.25848
G1 X110.625 Y121.305 E28.9467
G1 X110.128 Y121.361 E28.99161
G1 X109.602 Y121.352 E29.03885
G1 X109.216 Y121.299 E29.07384
G1 X117.692 Y112.824 E30.15023
G1 X117.945 Y112.022 E30.22575
G1 X118.055 Y111.522 E30.27172
G1 X118.129 Y110.972 E30.32156
G1 X108.136 Y120.966 E31.59073
G1 X107.166 Y120.522 E31.68653
G1 X118.178 Y109.51 E33.08505
G1 X118.083 Y108.636 E33.164
G1 X118.005 Y108.268 E33.19778
G1 X106.027 Y120.246 E34.71899
G1 X105.744 Y120.2 E34.74473
G1 X105.01 Y120.174 E34.81069
G1 X104.65 Y120.209 E34.84317
G1 X117.69 Y107.169 E36.49925
G1 X117.368 Y106.405 E36.5737
G1 X117.251 Y106.194 E36.59537
G1 X102.707 Y120.737 E38.44239
G1 X101.922 Y121.089 E38.51965
G1 X101.425 Y121.245 E38.56642
G1 X100.902 Y121.338 E38.61413
G1 X100.679 Y121.351 E38.63419
G1 X116.722 Y105.309 E40.67158
G1 X116.446 Y104.895 E40.71626
G1 X116.195 Y104.421 E40.76443
G1 X99.383 Y121.234 E42.89961
G1 X98.823 Y121.05 E42.95255
G1 X98.374 Y120.828 E42.99753
G1 X115.804 Y103.398 E45.21113
G1 X115.626 Y102.64 E45.28105
G1 X115.505 Y102.283 E45.3149
G1 X97.473 Y120.315 E47.60496
G1 X96.611 Y119.762 E47.69693
G1 X115.021 Y101.353 E50.03493
G1 X114.762 Y101.008 E50.07368
G1 X114.404 Y100.639 E50.11985
G1 X114.357 Y100.602 E50.12522
G1 X95.858 Y119.102 E52.47465
G1 X95.368 Y118.472 E52.54632
G1 X95.265 Y118.28 E52.56589
G1 X113.542 Y100.003 E54.88706
G1 X112.661 Y99.47 E54.97953
G1 X94.87 Y117.261 E57.23898
G1 X94.602 Y116.245 E57.33334
G1 X94.564 Y116.153 E57.34228
G1 X111.744 Y98.973 E59.52414
G1 X111.29 Y98.801 E59.56773
G1 X110.759 Y98.673 E59.61679
G1 X110.642 Y98.661 E59.62735
G1 X94.099 Y115.203 E61.72824
G1 X93.827 Y114.756 E61.77523
G1 X93.553 Y114.336 E61.82026
G1 X109.183 Y98.705 E63.80533
G1 X108.659 Y98.852 E63.85421
G1 X108.125 Y99.078 E63.90628
G1 X107.39 Y99.441 E63.97989
G1 X107.364 Y99.415 E63.9832
G1 X106.897 Y99.577 E64.02758
G1 X93.051 Y113.423 E65.78602
G1 X92.713 Y112.566 E65.86875
G1 X92.666 Y112.394 E65.88477
G1 X105.262 Y99.798 E67.48445
G1 X104.813 Y99.789 E67.52478
G1 X104.087 Y99.683 E67.59067
G1 X103.99 Y99.656 E67.59971
G1 X92.405 Y111.241 E69.071
G1 X92.305 Y110.132 E69.171
G1 X92.312 Y109.919 E69.19014
G1 X102.934 Y99.298 E70.53907
G1 X102.28 Y98.989 E70.60402
G1 X101.954 Y98.863 E70.63541
G1 X92.473 Y108.345 E71.83956
G1 X92.67 Y107.562 E71.91206
G1 X92.99 Y106.708 E71.99396
G1 X93.28 Y106.123 E72.0526
G1 X100.78 Y98.623 E73.00509
G1 X100.223 Y98.626 E73.05511
G1 X99.697 Y98.701 E73.10283
G1 X99.122 Y98.866 E73.15655
G1 X94.728 Y103.26 E73.71458
G1 X94.985 Y102.318 E73.80227
G1 X95.21 Y101.802 E73.85282
G1 X95.489 Y101.341 E73.90121
G1 X95.8 Y100.945 E73.94643
G1 X96.187 Y100.565 E73.99514
G1 X96.699 Y100.174 E74.05299
G1 X97.191 Y99.854 E74.1057
G1 X97.543 Y99.649 E74.14228
G1 X98.635 Y99.072 E74.25319
G0 F600 X98.635 Y99.072 Z0.666
G0 F9000 X115.643 Y102.066
;TIME_ELAPSED:64.867963
;LAYER:-4
;TYPE:SUPPORT-INTERFACE
G1 F1200 X113.031 Y99.454 E74.36376
G1 X113.919 Y100.01 E74.39512
G1 X114.325 Y100.308 E74.4102
G1 X114.741 Y100.688 E74.42707
G1 X115.117 Y101.131 E74.44446
G1 X115.396 Y101.561 E74.4598
G1 X115.643 Y102.066 E74.47663
G1 X115.828 Y102.618 E74.49406
G1 X115.891 Y102.88 E74.50212
G1 X111.802 Y98.792 E74.6752
G1 X111.084 Y98.537 E74.69801
G1 X110.961 Y98.516 E74.70175
G1 X116.094 Y103.649 E74.91904
G1 X116.29 Y104.173 E74.93579
G1 X116.558 Y104.678 E74.9529
G1 X110.308 Y98.429 E75.21747
G1 X109.747 Y98.434 E75.23426
G1 X117.445 Y106.131 E75.56012
G1 X117.861 Y107.051 E75.59034
G1 X117.89 Y107.142 E75.5932
G1 X109.244 Y98.496 E75.95922
G1 X108.787 Y98.605 E75.97328
G1 X118.149 Y107.966 E76.36958
G1 X118.289 Y108.673 E76.39116
G1 X108.366 Y98.75 E76.81123
G1 X107.982 Y98.931 E76.82394
G1 X118.366 Y109.315 E77.26352
G1 X118.393 Y109.908 E77.28129
G1 X107.599 Y99.113 E77.73826
G1 X107.188 Y99.269 E77.75142
G1 X118.373 Y110.454 E78.22492
G1 X118.331 Y110.977 E78.24062
G1 X106.76 Y99.406 E78.73046
G1 X106.303 Y99.515 E78.74452
G1 X118.263 Y111.475 E79.25083
G1 X118.159 Y111.937 E79.26501
G1 X105.799 Y99.576 E79.78827
G1 X105.256 Y99.599 E79.80453
G1 X118.045 Y112.388 E80.34593
G1 X117.902 Y112.811 E80.3593
G1 X104.657 Y99.566 E80.92
G1 X104.127 Y99.487 E80.93604
G1 X103.968 Y99.443 E80.94098
G1 X117.75 Y113.224 E81.5244
G1 X117.569 Y113.609 E81.53713
G1 X103.118 Y99.158 E82.14889
G1 X102.359 Y98.802 E82.17399
G1 X102.097 Y98.703 E82.18237
G1 X117.383 Y113.989 E82.82948
G1 X117.172 Y114.344 E82.84184
G1 X101.3 Y98.478 E83.51362
G1 X100.752 Y98.418 E83.53013
G1 X100.682 Y98.42 E83.53222
G1 X116.952 Y114.689 E84.22096
G1 X116.733 Y115.036 E84.23325
G1 X100.135 Y98.438 E84.93589
G1 X99.641 Y98.509 E84.95083
G1 X116.514 Y115.383 E85.66514
G1 X116.325 Y115.759 E85.67774
G1 X99.198 Y98.632 E86.40278
G1 X98.791 Y98.791 E86.41586
G1 X116.148 Y116.148 E87.15064
G1 X116.022 Y116.588 E87.16434
G1 X98.403 Y98.968 E87.91023
G1 X98.033 Y99.164 E87.92276
G1 X115.896 Y117.028 E88.67898
G1 X115.777 Y117.474 E88.6928
G1 X97.662 Y99.359 E89.45967
G1 X97.298 Y99.561 E89.47213
G1 X115.638 Y117.9 E90.2485
G1 X115.465 Y118.294 E90.26138
G1 X96.947 Y99.776 E91.04531
G1 X96.604 Y99.999 E91.05755
G1 X115.254 Y118.648 E91.84705
G1 X115.016 Y118.976 E91.85918
G1 X96.281 Y100.241 E92.65229
G1 X95.97 Y100.496 E92.66433
G1 X114.754 Y119.28 E93.45952
G1 X114.471 Y119.562 E93.47148
G1 X95.687 Y100.778 E94.26666
G1 X95.433 Y101.09 E94.27871
G1 X114.156 Y119.812 E95.07129
G1 X113.826 Y120.049 E95.08345
G1 X95.204 Y101.426 E95.8718
G1 X94.998 Y101.786 E95.88422
G1 X113.484 Y120.272 E96.66679
G1 X113.127 Y120.481 E96.67918
G1 X94.827 Y102.181 E97.45387
G1 X94.699 Y102.618 E97.4675
G1 X112.758 Y120.677 E98.232
G1 X112.379 Y120.864 E98.24465
G1 X94.577 Y103.062 E98.99827
G1 X94.45 Y103.501 E99.01195
G1 X112 Y121.051 E99.7549
G1 X111.604 Y121.221 E99.7678
G1 X94.318 Y103.934 E100.49959
G1 X94.136 Y104.318 E100.51231
G1 X111.193 Y121.376 E101.23441
G1 X110.739 Y121.488 E101.24841
G1 X93.938 Y104.686 E101.95967
G1 X93.714 Y105.028 E101.97191
G1 X110.236 Y121.55 E102.67134
G1 X109.675 Y121.554 E102.68813
G1 X93.491 Y105.37 E103.37325
G1 X93.28 Y105.725 E103.38561
G1 X109.027 Y121.472 E104.05223
G1 X108.512 Y121.335 E104.06819
G1 X108.193 Y121.204 E104.07851
G1 X93.072 Y106.083 E104.71863
G1 X92.886 Y106.462 E104.73127
G1 X107.163 Y120.739 E105.33566
G1 X106.421 Y120.512 E105.35889
G1 X106.36 Y120.503 E105.36073
G1 X92.72 Y106.862 E105.93818
G1 X92.565 Y107.273 E105.95133
G1 X105.691 Y120.399 E106.50699
G1 X105.105 Y120.378 E106.52455
G1 X92.429 Y107.702 E107.06116
G1 X92.314 Y108.154 E107.07512
G1 X104.577 Y120.416 E107.59424
G1 X104.086 Y120.491 E107.6091
G1 X92.222 Y108.627 E108.11135
G1 X92.153 Y109.124 E108.12637
G1 X103.624 Y120.594 E108.61195
G1 X103.217 Y120.753 E108.62503
G1 X92.12 Y109.656 E109.0948
G1 X92.109 Y110.211 E109.11142
G1 X102.81 Y120.912 E109.56443
G1 X102.416 Y121.084 E109.57729
G1 X92.152 Y110.819 E110.01182
G1 X92.249 Y111.483 E110.03191
G1 X102.027 Y121.261 E110.44585
G1 X101.599 Y121.398 E110.4593
G1 X92.406 Y112.205 E110.84847
G1 X92.636 Y112.943 E110.87161
G1 X92.679 Y113.043 E110.87486
G1 X101.134 Y121.499 E111.23281
G1 X100.624 Y121.554 E111.24817
G1 X93.206 Y114.136 E111.5622
G1 X94.108 Y115.604 E111.61377
G1 X100.045 Y121.541 E111.8651
G1 X99.371 Y121.432 E111.88554
G1 X94.473 Y116.535 E112.09287
G1 X94.672 Y117.299 E112.1165
G1 X98.47 Y121.098 E112.2773
G1 X98.117 Y120.923 E112.2891
G1 X97.065 Y120.307 E112.32559
G1 X96.409 Y119.867 E112.34924
G1 X95.902 Y119.445 E112.36898
G1 X95.514 Y119.024 E112.38612
G1 X95.197 Y118.575 E112.40257
G1 X94.982 Y118.175 E112.41617
G1 X97.184 Y120.377 E112.50938
G0 F600 X97.184 Y120.377 Z0.846
G0 F9000 X97.09 Y99.682
;TIME_ELAPSED:129.066689
;LAYER:-3
;TYPE:SUPPORT-INTERFACE
G1 F1200 X96.582 Y100.013 E112.52753
G1 X96.048 Y100.418 E112.5476
G1 X95.654 Y100.809 E112.56421
G1 X95.312 Y101.246 E112.58082
G1 X94.943 Y101.915 E112.60369
G1 X97.297 Y99.561 E112.70335
G1 X97.448 Y99.472 E112.70859
G1 X98.514 Y98.909 E112.74468
G1 X94.661 Y102.762 E112.90779
G1 X94.435 Y103.554 E112.93244
G1 X99.419 Y98.57 E113.14343
G1 X100.115 Y98.44 E113.16463
G1 X94.048 Y104.506 E113.42144
G1 X94.029 Y104.547 E113.42279
G1 X93.428 Y105.469 E113.45574
G1 X93.122 Y105.998 E113.47403
G1 X100.701 Y98.419 E113.79488
G1 X101.217 Y98.469 E113.81039
G1 X92.658 Y107.028 E114.17272
G1 X92.389 Y107.862 E114.19896
G1 X101.682 Y98.569 E114.59236
G1 X102.11 Y98.707 E114.60582
G1 X92.227 Y108.59 E115.0242
G1 X92.137 Y109.246 E115.04402
G1 X102.507 Y98.876 E115.48302
G1 X102.888 Y99.061 E115.49569
G1 X92.115 Y109.834 E115.95175
G1 X92.123 Y110.392 E115.96845
G1 X103.286 Y99.229 E116.44102
G1 X103.71 Y99.37 E116.4544
G1 X92.16 Y110.921 E116.94337
G1 X92.237 Y111.409 E116.95815
G1 X104.155 Y99.491 E117.46268
G1 X104.648 Y99.564 E117.4776
G1 X92.324 Y111.888 E117.99932
G1 X92.446 Y112.331 E118.01307
G1 X105.18 Y99.597 E118.55214
G1 X105.764 Y99.579 E118.56963
G1 X92.58 Y112.763 E119.12775
G1 X92.734 Y113.174 E119.14089
G1 X106.423 Y99.485 E119.72039
G1 X107.217 Y99.257 E119.74512
G1 X92.903 Y113.571 E120.35108
G1 X93.099 Y113.941 E120.36361
G1 X108.225 Y98.815 E121.00394
G1 X108.357 Y98.753 E121.00831
G1 X109.076 Y98.53 E121.03084
G1 X93.3 Y114.305 E121.69867
G1 X93.519 Y114.653 E121.71098
G1 X109.738 Y98.434 E122.39758
G1 X110.309 Y98.428 E122.41468
G1 X93.74 Y114.997 E123.11609
G1 X93.953 Y115.349 E123.12841
G1 X110.814 Y98.489 E123.84217
G1 X111.273 Y98.595 E123.85627
G1 X94.161 Y115.708 E124.5807
G1 X94.327 Y116.107 E124.59364
G1 X111.695 Y98.739 E125.32888
G1 X112.077 Y98.922 E125.34156
G1 X94.472 Y116.528 E126.08686
G1 X94.594 Y116.971 E126.10061
G1 X112.453 Y99.113 E126.85662
G1 X112.808 Y99.323 E126.86897
G1 X94.704 Y117.427 E127.63537
G1 X94.846 Y117.851 E127.64875
G1 X113.164 Y99.533 E128.42421
G1 X113.516 Y99.747 E128.43654
G1 X95.019 Y118.243 E129.21956
G1 X95.221 Y118.607 E129.23202
G1 X113.859 Y99.97 E130.02101
G1 X114.187 Y100.206 E130.0331
G1 X95.455 Y118.939 E130.82611
G1 X95.716 Y119.243 E130.8381
G1 X114.496 Y100.464 E131.6331
G1 X114.785 Y100.74 E131.64506
G1 X95.998 Y119.527 E132.44038
G1 X96.307 Y119.783 E132.45239
G1 X115.045 Y101.046 E133.24561
G1 X115.278 Y101.379 E133.25777
G1 X96.636 Y120.02 E134.04693
G1 X96.975 Y120.247 E134.05914
G1 X115.483 Y101.739 E134.84265
G1 X115.662 Y102.126 E134.85541
G1 X97.327 Y120.461 E135.63159
G1 X97.683 Y120.67 E135.64395
G1 X115.804 Y102.549 E136.41107
G1 X115.919 Y103 E136.425
