;FLAVOR:Marlin
;TIME:11640
;Filament used: 5.04313m
;Layer height: 0.2
;MINX:78.8
;MINY:61.8
;MINZ:0.3
;MAXX:141.2
;MAXY:158.2
;MAXZ:12.1
;Generated with Cura_SteamEngine 5.0.0
M140 S40
M105
M190 S40
M104 S210
M105
M109 S210
M82 ;absolute extrusion mode
G28 ;Home
G1 Z15.0 F6000 ;Move the platform down 15mm
;Prime the extruder
G92 E0
G1 F200 E3
G92 E0
G92 E0
G92 E0
;LAYER_COUNT:60
;LAYER:0
M107
G0 F3600 X79.454 Y63.082 Z0.3
G0 X78.8 Y65.631
;TYPE:SKIRT
G1 F600 X78.809 Y64.966 E0.03318
G1 X78.856 Y64.462 E0.05843
G1 X78.982 Y63.973 E0.08363
G1 X79.183 Y63.509 E0.10885
G1 X79.454 Y63.082 E0.13409
G1 X79.789 Y62.704 E0.15928
G1 X80.18 Y62.383 E0.18452
G1 X80.617 Y62.128 E0.20977
G1 X81.088 Y61.944 E0.23499
G1 X81.582 Y61.838 E0.2602
G1 X82.24 Y61.801 E0.29308
G1 X137.339 Y61.8 E3.04198
G1 X138.037 Y61.81 E3.07681
G1 X138.54 Y61.857 E3.10201
G1 X139.03 Y61.983 E3.12725
G1 X139.494 Y62.185 E3.1525
G1 X139.92 Y62.457 E3.17772
G1 X140.298 Y62.792 E3.20292
G1 X140.618 Y63.183 E3.22812
G1 X140.873 Y63.62 E3.25336
G1 X141.056 Y64.091 E3.27857
G1 X141.163 Y64.585 E3.30379
G1 X141.199 Y65.24 E3.33652
G1 X141.2 Y154.304 E7.77994
G1 X141.191 Y155.031 E7.81621
G1 X141.145 Y155.534 E7.84141
G1 X141.02 Y156.024 E7.86664
G1 X140.819 Y156.488 E7.89187
G1 X140.548 Y156.915 E7.9171
G1 X140.213 Y157.294 E7.94234
G1 X139.823 Y157.615 E7.96754
G1 X139.387 Y157.871 E7.99276
G1 X138.916 Y158.054 E8.01797
G1 X138.422 Y158.162 E8.0432
G1 X137.76 Y158.199 E8.07628
G1 X82.666 Y158.2 E10.82493
G1 X81.968 Y158.191 E10.85975
G1 X81.464 Y158.144 E10.88501
G1 X80.974 Y158.019 E10.91024
G1 X80.51 Y157.818 E10.93547
G1 X80.084 Y157.547 E10.96065
G1 X79.705 Y157.212 E10.98589
G1 X79.384 Y156.821 E11.01113
G1 X79.129 Y156.385 E11.03633
G1 X78.945 Y155.914 E11.06156
G1 X78.838 Y155.42 E11.08677
G1 X78.801 Y154.744 E11.12055
G1 X78.8 Y65.631 E15.56642
;MESH:coin-holder.stl
G0 F3600 X81.335 Y65.631
G0 X82.43 Y65.631
G0 X82.2 Y65.2
;TYPE:WALL-OUTER
G1 F600 X82.2 Y154.8 E20.03658
G1 X137.8 Y154.8 E22.81047
G1 X137.8 Y93 E25.89369
G1 X137.8 Y65.2 E27.28064
G1 X82.2 Y65.2 E30.05453
G0 F3600 X82.2 Y65.4
G0 X82.6 Y65.6
;TYPE:WALL-INNER
G1 F600 X82.6 Y154.4 E34.48478
G1 X137.4 Y154.4 E37.21876
G1 X137.4 Y93 E40.28202
G1 X137.4 Y65.6 E41.64901
G1 X82.6 Y65.6 E44.383
G0 F3600 X83 Y66
G1 F600 X83 Y154 E48.77333
G1 X137 Y154 E51.46741
G1 X137 Y93 E54.51071
G1 X137 Y66 E55.85774
G1 X83 Y66 E58.55181
G0 F3600 X83.38 Y66.38
;TYPE:SKIN
G1 F600 X83.38 Y153.62 E62.90424
G1 X136.62 Y153.62 E65.56039
G1 X136.62 Y93 E68.58473
G1 X136.62 Y66.38 E69.91281
G1 X83.38 Y66.38 E72.56897
G0 F3600 X136.419 Y66.84
G1 F600 X136.159 Y66.58 E72.58731
G0 F3600 X135.594 Y66.58
G1 F600 X136.419 Y67.406 E72.64555
G0 F3600 X136.419 Y67.972
G1 F600 X135.028 Y66.58 E72.74373
G0 F3600 X134.462 Y66.58
G1 F600 X136.419 Y68.537 E72.88181
G0 F3600 X136.419 Y69.103
G1 F600 X133.897 Y66.58 E73.05978
G0 F3600 X133.331 Y66.58
G1 F600 X136.419 Y69.669 E73.27769
G0 F3600 X136.419 Y70.234
G1 F600 X132.765 Y66.58 E73.5355
G0 F3600 X132.199 Y66.58
G1 F600 X136.419 Y70.8 E73.83325
G0 F3600 X136.419 Y71.366
G1 F600 X131.634 Y66.58 E74.17089
G0 F3600 X131.068 Y66.58
G1 F600 X136.419 Y71.931 E74.54843
G0 F3600 X136.419 Y72.497
G1 F600 X130.502 Y66.58 E74.96591
G0 F3600 X129.937 Y66.58
G1 F600 X136.419 Y73.063 E75.42328
G0 F3600 X136.419 Y73.628
G1 F600 X129.371 Y66.58 E75.92056
G0 F3600 X128.805 Y66.58
G1 F600 X136.419 Y74.194 E76.45777
G0 F3600 X136.419 Y74.76
G1 F600 X128.24 Y66.58 E77.03488
G0 F3600 X127.674 Y66.58
G1 F600 X136.419 Y75.325 E77.65188
G0 F3600 X136.419 Y75.891
G1 F600 X127.108 Y66.58 E78.30882
G0 F3600 X126.543 Y66.58
G1 F600 X136.419 Y76.457 E79.00566
G0 F3600 X136.419 Y77.023
G1 F600 X125.977 Y66.58 E79.74244
G0 F3600 X125.411 Y66.58
G1 F600 X136.419 Y77.588 E80.51911
G0 F3600 X136.419 Y78.154
G1 F600 X124.846 Y66.58 E81.33569
G0 F3600 X124.28 Y66.58
G1 F600 X136.419 Y78.72 E82.19219
G0 F3600 X136.419 Y79.285
G1 F600 X123.714 Y66.58 E83.0886
G0 F3600 X123.149 Y66.58
G1 F600 X136.419 Y79.851 E84.0249
G0 F3600 X136.419 Y80.417
G1 F600 X122.583 Y66.58 E85.00114
G0 F3600 X122.017 Y66.58
G1 F600 X136.419 Y80.982 E86.01728
G0 F3600 X136.419 Y81.548
G1 F600 X121.451 Y66.58 E87.07336
G0 F3600 X120.886 Y66.58
G1 F600 X136.419 Y82.114 E88.16933
G0 F3600 X136.419 Y82.679
G1 F600 X120.32 Y66.58 E89.3052
G0 F3600 X119.754 Y66.58
G1 F600 X136.419 Y83.245 E90.48101
G0 F3600 X136.419 Y83.811
G1 F600 X119.189 Y66.58 E91.69671
G0 F3600 X118.623 Y66.58
G1 F600 X136.419 Y84.376 E92.95232
G0 F3600 X136.419 Y84.942
G1 F600 X118.057 Y66.58 E94.24785
G0 F3600 X117.492 Y66.58
G1 F600 X136.419 Y85.508 E95.58329
G0 F3600 X136.419 Y86.073
G1 F600 X116.926 Y66.58 E96.95863
G0 F3600 X116.36 Y66.58
G1 F600 X136.419 Y86.639 E98.3739
G0 F3600 X136.419 Y87.205
G1 F600 X115.795 Y66.58 E99.82907
G0 F3600 X115.229 Y66.58
G1 F600 X136.419 Y87.771 E101.32417
G0 F3600 X136.419 Y88.336
G1 F600 X114.663 Y66.58 E102.85918
G0 F3600 X114.098 Y66.58
G1 F600 X136.419 Y88.902 E104.43408
G0 F3600 X136.419 Y89.468
G1 F600 X113.532 Y66.58 E106.04891
G0 F3600 X112.966 Y66.58
G1 F600 X136.419 Y90.033 E107.70365
G0 F3600 X136.419 Y90.599
G1 F600 X112.4 Y66.58 E109.39832
G0 F3600 X111.835 Y66.58
G1 F600 X136.419 Y91.165 E111.13289
G0 F3600 X136.419 Y91.73
G1 F600 X111.269 Y66.58 E112.90736
G0 F3600 X110.703 Y66.58
G1 F600 X136.419 Y92.296 E114.72176
G0 F3600 X136.419 Y92.862
G1 F600 X110.138 Y66.58 E116.57606
G0 F3600 X109.572 Y66.58
G1 F600 X136.419 Y93.427 E118.47026
G0 F3600 X136.419 Y93.993
G1 F600 X109.006 Y66.58 E120.4044
G0 F3600 X108.441 Y66.58
G1 F600 X136.419 Y94.559 E122.37843
G0 F3600 X136.419 Y95.124
G1 F600 X107.875 Y66.58 E124.39237
G0 F3600 X107.309 Y66.58
G1 F600 X136.419 Y95.69 E126.44623
G0 F3600 X136.419 Y96.256
G1 F600 X106.744 Y66.58 E128.54
G0 F3600 X106.178 Y66.58
G1 F600 X136.419 Y96.822 E130.6737
G0 F3600 X136.419 Y97.387
G1 F600 X105.612 Y66.58 E132.8473
G0 F3600 X105.047 Y66.58
G1 F600 X136.419 Y97.953 E135.0608
G0 F3600 X136.419 Y98.519
G1 F600 X104.481 Y66.58 E137.31424
G0 F3600 X103.915 Y66.58
G1 F600 X136.419 Y99.084 E139.60757
G0 F3600 X136.419 Y99.65
G1 F600 X103.35 Y66.58 E141.9408
G0 F3600 X102.784 Y66.58
G1 F600 X136.419 Y100.216 E144.31397
G0 F3600 X136.419 Y100.781
G1 F600 X102.218 Y66.58 E146.72703
G0 F3600 X101.652 Y66.58
G1 F600 X136.419 Y101.347 E149.18003
G0 F3600 X136.419 Y101.913
G1 F600 X101.087 Y66.58 E151.67293
G0 F3600 X100.521 Y66.58
G1 F600 X136.419 Y102.478 E154.20573
G0 F3600 X136.419 Y103.044
G1 F600 X99.955 Y66.58 E156.77846
G0 F3600 X99.39 Y66.58
G1 F600 X136.419 Y103.61 E159.39109
G0 F3600 X136.419 Y104.175
G1 F600 X98.824 Y66.58 E162.04362
G0 F3600 X98.258 Y66.58
G1 F600 X136.419 Y104.741 E164.73609
G0 F3600 X136.419 Y105.307
G1 F600 X97.693 Y66.58 E167.46845
G0 F3600 X97.127 Y66.58
G1 F600 X136.419 Y105.872 E170.24071
G0 F3600 X136.419 Y106.438
G1 F600 X96.561 Y66.58 E173.05291
G0 F3600 X95.996 Y66.58
G1 F600 X136.419 Y107.004 E175.90501
G0 F3600 X136.419 Y107.57
G1 F600 X95.43 Y66.58 E178.79704
G0 F3600 X94.864 Y66.58
G1 F600 X136.419 Y108.135 E181.72897
G0 F3600 X136.419 Y108.701
G1 F600 X94.299 Y66.58 E184.70079
G0 F3600 X93.733 Y66.58
G1 F600 X136.419 Y109.267 E187.71256
G0 F3600 X136.419 Y109.832
G1 F600 X93.167 Y66.58 E190.76422
G0 F3600 X92.601 Y66.58
G1 F600 X136.419 Y110.398 E193.85582
G0 F3600 X136.419 Y110.964
G1 F600 X92.036 Y66.58 E196.98731
G0 F3600 X91.47 Y66.58
G1 F600 X136.419 Y111.529 E200.15871
G0 F3600 X136.419 Y112.095
G1 F600 X90.904 Y66.58 E203.37004
G0 F3600 X90.339 Y66.58
G1 F600 X136.419 Y112.661 E206.62126
G0 F3600 X136.419 Y113.226
G1 F600 X89.773 Y66.58 E209.91239
G0 F3600 X89.207 Y66.58
G1 F600 X136.419 Y113.792 E213.24345
G0 F3600 X136.419 Y114.358
G1 F600 X88.642 Y66.58 E216.61441
G0 F3600 X88.076 Y66.58
G1 F600 X136.419 Y114.923 E220.02527
G0 F3600 X136.419 Y115.489
G1 F600 X87.51 Y66.58 E223.47607
G0 F3600 X86.945 Y66.58
G1 F600 X136.419 Y116.055 E226.96676
G0 F3600 X136.419 Y116.621
G1 F600 X86.379 Y66.58 E230.49739
G0 F3600 X85.813 Y66.58
G1 F600 X136.419 Y117.186 E234.06792
G0 F3600 X136.419 Y117.752
G1 F600 X85.248 Y66.58 E237.67834
G0 F3600 X84.682 Y66.58
G1 F600 X136.419 Y118.318 E241.3287
G0 F3600 X136.419 Y118.883
G1 F600 X84.116 Y66.58 E245.01896
G0 F3600 X83.579 Y66.608
G1 F600 X136.419 Y119.449 E248.74714
G0 F3600 X136.419 Y120.015
G1 F600 X83.579 Y67.174 E252.47533
G0 F3600 X83.579 Y67.74
G1 F600 X136.419 Y120.58 E256.20347
G0 F3600 X136.419 Y121.146
G1 F600 X83.579 Y68.305 E259.93166
G0 F3600 X83.579 Y68.871
G1 F600 X136.419 Y121.712 E263.65984
G0 F3600 X136.419 Y122.277
G1 F600 X83.579 Y69.437 E267.38799
G0 F3600 X83.579 Y70.002
G1 F600 X136.419 Y122.843 E271.11617
G0 F3600 X136.419 Y123.409
G1 F600 X83.579 Y70.568 E274.84435
G0 F3600 X83.579 Y71.134
G1 F600 X136.419 Y123.974 E278.5725
G0 F3600 X136.419 Y124.54
G1 F600 X83.579 Y71.699 E282.30068
G0 F3600 X83.579 Y72.265
G1 F600 X136.419 Y125.106 E286.02886
G0 F3600 X136.419 Y125.671
G1 F600 X83.579 Y72.831 E289.75701
G0 F3600 X83.579 Y73.396
G1 F600 X136.419 Y126.237 E293.48519
G0 F3600 X136.419 Y126.803
G1 F600 X83.579 Y73.962 E297.21338
G0 F3600 X83.579 Y74.528
G1 F600 X136.419 Y127.369 E300.94156
G0 F3600 X136.419 Y127.934
G1 F600 X83.579 Y75.094 E304.66971
G0 F3600 X83.579 Y75.659
G1 F600 X136.419 Y128.5 E308.39789
G0 F3600 X136.419 Y129.066
G1 F600 X83.579 Y76.225 E312.12607
G0 F3600 X83.579 Y76.791
G1 F600 X136.419 Y129.631 E315.85422
G0 F3600 X136.419 Y130.197
G1 F600 X83.579 Y77.356 E319.5824
G0 F3600 X83.579 Y77.922
G1 F600 X136.419 Y130.763 E323.31058
G0 F3600 X136.419 Y131.328
G1 F600 X83.579 Y78.488 E327.03873
G0 F3600 X83.579 Y79.053
G1 F600 X136.419 Y131.894 E330.76691
G0 F3600 X136.419 Y132.46
G1 F600 X83.579 Y79.619 E334.4951
G0 F3600 X83.579 Y80.185
G1 F600 X136.419 Y133.025 E338.22324
G0 F3600 X136.419 Y133.591
G1 F600 X83.579 Y80.75 E341.95143
G0 F3600 X83.579 Y81.316
G1 F600 X136.419 Y134.157 E345.67961
G0 F3600 X136.419 Y134.722
G1 F600 X83.579 Y81.882 E349.40776
G0 F3600 X83.579 Y82.447
G1 F600 X136.419 Y135.288 E353.13594
G0 F3600 X136.419 Y135.854
G1 F600 X83.579 Y83.013 E356.86412
G0 F3600 X83.579 Y83.579
G1 F600 X136.419 Y136.419 E360.59227
G0 F3600 X136.419 Y136.985
G1 F600 X83.579 Y84.144 E364.32045
G0 F3600 X83.579 Y84.71
G1 F600 X136.419 Y137.551 E368.04864
G0 F3600 X136.419 Y138.117
G1 F600 X83.579 Y85.276 E371.77682
G0 F3600 X83.579 Y85.842
G1 F600 X136.419 Y138.682 E375.50497
G0 F3600 X136.419 Y139.248
G1 F600 X83.579 Y86.407 E379.23315
G0 F3600 X83.579 Y86.973
G1 F600 X136.419 Y139.814 E382.96133
G0 F3600 X136.419 Y140.379
G1 F600 X83.579 Y87.539 E386.68948
G0 F3600 X83.579 Y88.104
G1 F600 X136.419 Y140.945 E390.41766
G0 F3600 X136.419 Y141.511
G1 F600 X83.579 Y88.67 E394.14584
G0 F3600 X83.579 Y89.236
G1 F600 X136.419 Y142.076 E397.87399
G0 F3600 X136.419 Y142.642
G1 F600 X83.579 Y89.801 E401.60217
G0 F3600 X83.579 Y90.367
G1 F600 X136.419 Y143.208 E405.33036
G0 F3600 X136.419 Y143.773
G1 F600 X83.579 Y90.933 E409.0585
G0 F3600 X83.579 Y91.498
G1 F600 X136.419 Y144.339 E412.78669
G0 F3600 X136.419 Y144.905
G1 F600 X83.579 Y92.064 E416.51487
G0 F3600 X83.579 Y92.63
G1 F600 X136.419 Y145.47 E420.24302
G0 F3600 X136.419 Y146.036
G1 F600 X83.579 Y93.195 E423.9712
G0 F3600 X83.579 Y93.761
G1 F600 X136.419 Y146.602 E427.69938
G0 F3600 X136.419 Y147.168
G1 F600 X83.579 Y94.327 E431.42756
G0 F3600 X83.579 Y94.893
G1 F600 X136.419 Y147.733 E435.15571
G0 F3600 X136.419 Y148.299
G1 F600 X83.579 Y95.458 E438.88389
G0 F3600 X83.579 Y96.024
G1 F600 X136.419 Y148.865 E442.61208
G0 F3600 X136.419 Y149.43
G1 F600 X83.579 Y96.59 E446.34022
G0 F3600 X83.579 Y97.155
G1 F600 X136.419 Y149.996 E450.06841
G0 F3600 X136.419 Y150.562
G1 F600 X83.579 Y97.721 E453.79659
G0 F3600 X83.579 Y98.287
G1 F600 X136.419 Y151.127 E457.52474
G0 F3600 X136.419 Y151.693
G1 F600 X83.579 Y98.852 E461.25292
G0 F3600 X83.579 Y99.418
G1 F600 X136.419 Y152.259 E464.9811
G0 F3600 X136.419 Y152.824
G1 F600 X83.579 Y99.984 E468.70925
G0 F3600 X83.579 Y100.549
G1 F600 X136.419 Y153.39 E472.43743
G0 F3600 X135.882 Y153.418
G1 F600 X83.579 Y101.115 E476.12769
G0 F3600 X83.579 Y101.681
G1 F600 X135.316 Y153.418 E479.77802
G0 F3600 X134.751 Y153.418
G1 F600 X83.579 Y102.246 E483.38848
G0 F3600 X83.579 Y102.812
G1 F600 X134.185 Y153.418 E486.959
G0 F3600 X133.619 Y153.418
G1 F600 X83.579 Y103.378 E490.4896
G0 F3600 X83.579 Y103.943
G1 F600 X133.054 Y153.418 E493.98033
G0 F3600 X132.488 Y153.418
G1 F600 X83.579 Y104.509 E497.43112
G0 F3600 X83.579 Y105.075
G1 F600 X131.922 Y153.418 E500.84198
G0 F3600 X131.357 Y153.418
G1 F600 X83.579 Y105.641 E504.21294
G0 F3600 X83.579 Y106.206
G1 F600 X130.791 Y153.418 E507.544
G0 F3600 X130.225 Y153.418
G1 F600 X83.579 Y106.772 E510.83513
G0 F3600 X83.579 Y107.338
G1 F600 X129.66 Y153.418 E514.08636
G0 F3600 X129.094 Y153.418
G1 F600 X83.579 Y107.903 E517.29769
G0 F3600 X83.579 Y108.469
G1 F600 X128.528 Y153.418 E520.46908
G0 F3600 X127.962 Y153.418
G1 F600 X83.579 Y109.035 E523.60054
G0 F3600 X83.579 Y109.6
G1 F600 X127.397 Y153.418 E526.69214
G0 F3600 X126.831 Y153.418
G1 F600 X83.579 Y110.166 E529.7438
G0 F3600 X83.579 Y110.732
G1 F600 X126.265 Y153.418 E532.75553
G0 F3600 X125.7 Y153.418
G1 F600 X83.579 Y111.297 E535.72739
G0 F3600 X83.579 Y111.863
G1 F600 X125.134 Y153.418 E538.65932
G0 F3600 X124.568 Y153.418
G1 F600 X83.579 Y112.429 E541.55132
G0 F3600 X83.579 Y112.994
G1 F600 X124.003 Y153.418 E544.40345
G0 F3600 X123.437 Y153.418
G1 F600 X83.579 Y113.56 E547.21565
G0 F3600 X83.579 Y114.126
G1 F600 X122.871 Y153.418 E549.98791
G0 F3600 X122.306 Y153.418
G1 F600 X83.579 Y114.692 E552.72027
G0 F3600 X83.579 Y115.257
G1 F600 X121.74 Y153.418 E555.41274
G0 F3600 X121.174 Y153.418
G1 F600 X83.579 Y115.823 E558.06527
G0 F3600 X83.579 Y116.389
G1 F600 X120.609 Y153.418 E560.6779
G0 F3600 X120.043 Y153.418
G1 F600 X83.579 Y116.954 E563.25063
G0 F3600 X83.579 Y117.52
G1 F600 X119.477 Y153.418 E565.78343
G0 F3600 X118.912 Y153.418
G1 F600 X83.579 Y118.086 E568.27633
G0 F3600 X83.579 Y118.651
G1 F600 X118.346 Y153.418 E570.72933
G0 F3600 X117.78 Y153.418
G1 F600 X83.579 Y119.217 E573.14239
G0 F3600 X83.579 Y119.783
G1 F600 X117.214 Y153.418 E575.51552
G0 F3600 X116.649 Y153.418
G1 F600 X83.579 Y120.348 E577.84879
G0 F3600 X83.579 Y120.914
G1 F600 X116.083 Y153.418 E580.14212
G0 F3600 X115.517 Y153.418
G1 F600 X83.579 Y121.48 E582.39552
G0 F3600 X83.579 Y122.045
G1 F600 X114.952 Y153.418 E584.60906
G0 F3600 X114.386 Y153.418
G1 F600 X83.579 Y122.611 E586.78266
G0 F3600 X83.579 Y123.177
G1 F600 X113.82 Y153.418 E588.91632
G0 F3600 X113.255 Y153.418
G1 F600 X83.579 Y123.742 E591.01012
G0 F3600 X83.579 Y124.308
G1 F600 X112.689 Y153.418 E593.06399
G0 F3600 X112.123 Y153.418
G1 F600 X83.579 Y124.874 E595.07792
G0 F3600 X83.579 Y125.44
G1 F600 X111.558 Y153.418 E597.05196
G0 F3600 X110.992 Y153.418
G1 F600 X83.579 Y126.005 E598.98609
G0 F3600 X83.579 Y126.571
G1 F600 X110.426 Y153.418 E600.88029
G0 F3600 X109.861 Y153.418
G1 F600 X83.579 Y127.137 E602.7346
G0 F3600 X83.579 Y127.702
G1 F600 X109.295 Y153.418 E604.549
G0 F3600 X108.729 Y153.418
G1 F600 X83.579 Y128.268 E606.32347
G0 F3600 X83.579 Y128.834
G1 F600 X108.164 Y153.418 E608.05804
G0 F3600 X107.598 Y153.418
G1 F600 X83.579 Y129.399 E609.75271
G0 F3600 X83.579 Y129.965
G1 F600 X107.032 Y153.418 E611.40744
G0 F3600 X106.466 Y153.418
G1 F600 X83.579 Y130.531 E613.02224
G0 F3600 X83.579 Y131.096
G1 F600 X105.901 Y153.418 E614.59718
G0 F3600 X105.335 Y153.418
G1 F600 X83.579 Y131.662 E616.13219
G0 F3600 X83.579 Y132.228
G1 F600 X104.769 Y153.418 E617.62725
G0 F3600 X104.204 Y153.418
G1 F600 X83.579 Y132.793 E619.08246
G0 F3600 X83.579 Y133.359
G1 F600 X103.638 Y153.418 E620.49773
G0 F3600 X103.072 Y153.418
G1 F600 X83.579 Y133.925 E621.87307
G0 F3600 X83.579 Y134.491
G1 F600 X102.507 Y153.418 E623.2085
G0 F3600 X101.941 Y153.418
G1 F600 X83.579 Y135.056 E624.50404
G0 F3600 X83.579 Y135.622
G1 F600 X101.375 Y153.418 E625.75965
G0 F3600 X100.81 Y153.418
G1 F600 X83.579 Y136.188 E626.97535
G0 F3600 X83.579 Y136.753
G1 F600 X100.244 Y153.418 E628.15116
G0 F3600 X99.678 Y153.418
