;FLAVOR:Marlin
;TIME:380
;Filament used: 0.195264m
;Layer height: 0.15
;MINX:101.2
;MINY:99.583
;MINZ:0.3
;MAXX:119.55
;MAXY:121.8
;MAXZ:7.95
;Generated with Cura_SteamEngine 5.0.0
M140 S60
M105
M190 S60
M104 S200
M105
M109 S200
M82 ;absolute extrusion mode
G28 ;Home
G1 Z15.0 F6000 ;Move the platform down 15mm
;Prime the extruder
G92 E0
G1 F200 E3
G92 E0
G92 E0
G92 E0
G1 F2700 E-5
;LAYER_COUNT:52
;LAYER:0
M106 S255
G0 F1800 X102.631 Y100.983 Z0.3
G0 X101.202 Y104.917
;TYPE:SKIRT
G1 F2700 E0
G1 F600 X101.211 Y104.32 E0.02979
G1 X101.26 Y103.702 E0.06072
G1 X101.388 Y103.096 E0.09162
G1 X101.593 Y102.512 E0.1225
G1 X101.872 Y101.959 E0.1534
G1 X102.22 Y101.446 E0.18432
G1 X102.631 Y100.983 E0.21521
G1 X103.098 Y100.576 E0.24612
G1 X103.614 Y100.233 E0.27703
G1 X104.169 Y99.959 E0.30791
G1 X104.755 Y99.759 E0.3388
G1 X105.362 Y99.636 E0.3697
G1 X105.875 Y99.594 E0.39538
G1 X106.33 Y99.583 E0.41809
G1 X113.362 Y99.583 E0.76891
G1 X114.06 Y99.593 E0.80374
G1 X114.677 Y99.642 E0.83462
G1 X115.283 Y99.77 E0.86552
G1 X115.868 Y99.975 E0.89645
G1 X116.421 Y100.254 E0.92735
G1 X116.934 Y100.601 E0.95825
G1 X117.398 Y101.011 E0.98914
G1 X117.805 Y101.478 E1.02004
G1 X118.148 Y101.993 E1.05091
G1 X118.423 Y102.549 E1.08186
G1 X118.623 Y103.135 E1.11275
G1 X118.747 Y103.742 E1.14366
G1 X118.838 Y105.081 E1.21062
G1 X118.88 Y106.036 E1.25831
G1 X119.072 Y108.681 E1.39062
G1 X119.406 Y111.922 E1.55317
G1 X119.474 Y112.492 E1.5818
G1 X119.506 Y112.948 E1.60461
G1 X119.55 Y114.877 E1.70087
G1 X119.524 Y115.495 E1.73173
G1 X119.419 Y116.106 E1.76266
G1 X119.239 Y116.687 E1.79301
G1 X118.479 Y118.692 E1.89998
G1 X118.223 Y119.256 E1.93088
G1 X117.896 Y119.782 E1.96178
G1 X117.504 Y120.262 E1.9927
G1 X117.054 Y120.687 E2.02358
G1 X116.552 Y121.05 E2.05449
G1 X116.008 Y121.347 E2.08541
G1 X115.431 Y121.57 E2.11627
G1 X114.829 Y121.717 E2.14719
G1 X114.126 Y121.789 E2.18245
G1 X113.67 Y121.8 E2.2052
G1 X112.126 Y121.799 E2.28223
G1 X111.416 Y121.787 E2.31766
G1 X110.799 Y121.737 E2.34854
G1 X110.048 Y121.564 E2.38699
G1 X109.522 Y121.397 E2.41453
G1 X108.453 Y121.036 E2.47082
G1 X107.88 Y120.8 E2.50173
G1 X107.343 Y120.493 E2.53259
G1 X106.849 Y120.119 E2.56351
G1 X106.408 Y119.684 E2.59441
G1 X106.05 Y119.231 E2.62322
G1 X104.417 Y116.887 E2.76574
G1 X102.786 Y114.684 E2.90249
G1 X102.191 Y113.903 E2.95148
G1 X101.848 Y113.387 E2.98239
G1 X101.575 Y112.831 E3.01329
G1 X101.375 Y112.245 E3.04418
G1 X101.252 Y111.638 E3.07508
G1 X101.211 Y111.127 E3.10066
G1 X101.2 Y110.669 E3.12351
G1 X101.202 Y104.917 E3.41048
G0 F1800 X101.601 Y104.923
G1 F600 X101.61 Y104.326 E3.44027
G1 X101.659 Y103.735 E3.46985
G1 X101.787 Y103.156 E3.49944
G1 X101.992 Y102.599 E3.52905
G1 X102.269 Y102.075 E3.55862
G1 X102.615 Y101.593 E3.58822
G1 X103.022 Y101.162 E3.6178
G1 X103.483 Y100.79 E3.64735
G1 X103.991 Y100.483 E3.67696
G1 X104.535 Y100.247 E3.70655
G1 X105.105 Y100.086 E3.7361
G1 X105.886 Y99.994 E3.77533
G1 X106.33 Y99.983 E3.79749
G1 X113.356 Y99.983 E4.14802
G1 X114.054 Y99.993 E4.18284
G1 X114.645 Y100.042 E4.21243
G1 X115.224 Y100.169 E4.242
G1 X115.781 Y100.373 E4.2716
G1 X116.305 Y100.651 E4.30119
G1 X116.787 Y100.996 E4.33076
G1 X117.219 Y101.403 E4.36037
G1 X117.591 Y101.864 E4.38993
G1 X117.899 Y102.371 E4.41952
G1 X118.135 Y102.915 E4.44911
G1 X118.296 Y103.485 E4.47866
G1 X118.384 Y104.142 E4.51173
G1 X118.442 Y105.161 E4.56265
G1 X118.481 Y106.048 E4.60694
G1 X118.676 Y108.75 E4.7421
G1 X119.012 Y111.998 E4.90501
G1 X119.076 Y112.539 E4.93219
G1 X119.106 Y112.957 E4.95309
G1 X119.15 Y114.886 E5.04936
G1 X119.123 Y115.478 E5.07892
G1 X119.018 Y116.061 E5.10848
G1 X118.865 Y116.546 E5.13385
G1 X118.105 Y118.551 E5.24082
G1 X117.858 Y119.09 E5.2704
G1 X117.541 Y119.591 E5.29998
G1 X117.159 Y120.044 E5.32954
G1 X116.72 Y120.443 E5.35914
G1 X116.231 Y120.778 E5.38871
G1 X115.702 Y121.045 E5.41828
G1 X115.141 Y121.238 E5.44787
G1 X114.559 Y121.354 E5.47748
G1 X113.793 Y121.398 E5.51576
G1 X112.133 Y121.399 E5.59858
G1 X111.423 Y121.387 E5.63401
G1 X110.832 Y121.337 E5.6636
G1 X110.169 Y121.183 E5.69755
G1 X109.65 Y121.018 E5.72472
G1 X108.581 Y120.657 E5.78102
G1 X108.034 Y120.43 E5.81056
G1 X107.521 Y120.131 E5.84019
G1 X107.054 Y119.766 E5.86976
G1 X106.64 Y119.342 E5.89932
G1 X106.379 Y119.003 E5.92067
G1 X104.756 Y116.673 E6.06233
G1 X103.068 Y114.394 E6.20382
G1 X102.509 Y113.66 E6.24985
G1 X102.182 Y113.166 E6.27941
G1 X101.925 Y112.631 E6.30902
G1 X101.742 Y112.067 E6.3386
G1 X101.636 Y111.484 E6.36816
G1 X101.602 Y110.792 E6.40273
G1 X101.601 Y104.923 E6.69554
G0 F1800 X102.001 Y104.929
G1 F600 X102.01 Y104.332 E6.72532
G1 X102.059 Y103.768 E6.75357
G1 X102.186 Y103.218 E6.78173
G1 X102.39 Y102.69 E6.80997
G1 X102.666 Y102.197 E6.83816
G1 X103.009 Y101.747 E6.86639
G1 X103.412 Y101.351 E6.89457
G1 X103.866 Y101.015 E6.92275
G1 X104.364 Y100.746 E6.95099
G1 X104.894 Y100.551 E6.97917
G1 X105.447 Y100.432 E7.00739
G1 X106.218 Y100.385 E7.04592
G1 X113.35 Y100.383 E7.40174
G1 X114.048 Y100.393 E7.43657
G1 X114.612 Y100.441 E7.46481
G1 X115.162 Y100.568 E7.49297
G1 X115.69 Y100.772 E7.52121
G1 X116.184 Y101.047 E7.54942
G1 X116.633 Y101.39 E7.5776
G1 X117.03 Y101.792 E7.60579
G1 X117.367 Y102.247 E7.63404
G1 X117.635 Y102.744 E7.66221
G1 X117.831 Y103.274 E7.6904
G1 X117.951 Y103.827 E7.71863
G1 X118.039 Y105.127 E7.78364
G1 X118.081 Y106.056 E7.83004
G1 X118.278 Y108.789 E7.96674
G1 X118.613 Y112.031 E8.12934
G1 X118.679 Y112.586 E8.15723
G1 X118.706 Y112.966 E8.17623
G1 X118.75 Y114.895 E8.2725
G1 X118.723 Y115.459 E8.30067
G1 X118.616 Y116.015 E8.32892
G1 X118.491 Y116.404 E8.3493
G1 X117.731 Y118.409 E8.45628
G1 X117.494 Y118.922 E8.48447
G1 X117.187 Y119.396 E8.51264
G1 X116.816 Y119.823 E8.54086
G1 X116.388 Y120.193 E8.56909
G1 X115.913 Y120.499 E8.59728
G1 X115.399 Y120.735 E8.6255
G1 X114.857 Y120.896 E8.65371
G1 X114.103 Y120.989 E8.69161
G1 X113.67 Y121 E8.71322
G1 X112.139 Y120.999 E8.7896
G1 X111.429 Y120.987 E8.82503
G1 X110.866 Y120.938 E8.85322
G1 X110.29 Y120.801 E8.88276
G1 X109.778 Y120.639 E8.90955
G1 X108.709 Y120.278 E8.96584
G1 X108.188 Y120.059 E8.99404
G1 X107.702 Y119.77 E9.02225
G1 X107.262 Y119.415 E9.05045
G1 X106.877 Y119.001 E9.07866
G1 X106.707 Y118.774 E9.09281
G1 X105.073 Y116.429 E9.2354
G1 X103.422 Y114.199 E9.37383
G1 X102.827 Y113.418 E9.42281
G1 X102.517 Y112.945 E9.45103
G1 X102.277 Y112.434 E9.47919
G1 X102.111 Y111.893 E9.50743
G1 X102.011 Y111.105 E9.54705
G1 X102 Y110.669 E9.56881
G1 X102.001 Y104.929 E9.85518
G0 F1800 X102.401 Y104.935
G1 F600 X102.41 Y104.338 E9.88497
G1 X102.458 Y103.804 E9.91172
G1 X102.585 Y103.283 E9.93847
G1 X102.788 Y102.786 E9.96526
G1 X103.062 Y102.325 E9.99201
G1 X103.402 Y101.91 E10.01878
G1 X103.8 Y101.55 E10.04555
G1 X104.246 Y101.254 E10.07226
G1 X104.732 Y101.026 E10.09904
G1 X105.246 Y100.874 E10.12578
G1 X105.909 Y100.793 E10.1591
G1 X106.33 Y100.783 E10.18011
G1 X113.345 Y100.783 E10.53009
G1 X114.043 Y100.793 E10.56492
G1 X114.577 Y100.841 E10.59167
G1 X115.098 Y100.967 E10.61841
G1 X115.595 Y101.17 E10.6452
G1 X116.056 Y101.444 E10.67195
G1 X116.471 Y101.783 E10.69869
G1 X116.831 Y102.181 E10.72546
G1 X117.128 Y102.627 E10.75219
G1 X117.356 Y103.113 E10.77897
G1 X117.508 Y103.627 E10.80572
G1 X117.585 Y104.188 E10.83397
G1 X117.643 Y105.197 E10.88439
G1 X117.683 Y106.102 E10.92958
G1 X117.88 Y108.826 E11.06584
G1 X118.21 Y112.026 E11.22634
G1 X118.282 Y112.633 E11.25683
G1 X118.306 Y112.975 E11.27394
G1 X118.35 Y114.904 E11.3702
G1 X118.322 Y115.439 E11.39693
G1 X118.215 Y115.965 E11.42371
G1 X118.117 Y116.262 E11.43931
G1 X117.357 Y118.267 E11.54628
G1 X117.13 Y118.753 E11.57305
G1 X116.834 Y119.2 E11.59979
G1 X116.474 Y119.598 E11.62657
G1 X116.059 Y119.937 E11.6533
G1 X115.599 Y120.212 E11.68004
G1 X115.102 Y120.415 E11.70682
G1 X114.581 Y120.542 E11.73358
G1 X113.771 Y120.599 E11.77409
G1 X112.146 Y120.599 E11.85516
G1 X111.436 Y120.587 E11.89059
G1 X110.902 Y120.539 E11.91733
G1 X110.41 Y120.42 E11.94259
G1 X109.906 Y120.26 E11.96897
G1 X108.837 Y119.899 E12.02526
G1 X108.343 Y119.69 E12.05202
G1 X107.886 Y119.41 E12.07876
G1 X107.475 Y119.065 E12.10553
G1 X107.035 Y118.546 E12.13948
G1 X105.395 Y116.191 E12.28265
G1 X103.74 Y113.957 E12.42136
G1 X103.145 Y113.176 E12.47034
G1 X102.853 Y112.726 E12.49711
G1 X102.631 Y112.238 E12.52385
G1 X102.483 Y111.722 E12.55063
G1 X102.41 Y111.094 E12.58218
G1 X102.4 Y110.669 E12.60339
G1 X102.401 Y104.935 E12.88946
G0 F1800 X102.801 Y104.941
G1 F600 X102.81 Y104.344 E12.91924
G1 X102.858 Y103.84 E12.9445
G1 X102.984 Y103.351 E12.9697
G1 X103.186 Y102.887 E12.99494
G1 X103.458 Y102.461 E13.02016
G1 X103.794 Y102.083 E13.04539
G1 X104.185 Y101.763 E13.0706
G1 X104.622 Y101.509 E13.09582
G1 X105.093 Y101.326 E13.12103
G1 X105.588 Y101.22 E13.14628
G1 X106.24 Y101.184 E13.17886
G1 X113.339 Y101.183 E13.53303
G1 X114.037 Y101.193 E13.56786
G1 X114.54 Y101.24 E13.59306
G1 X115.03 Y101.366 E13.6183
G1 X115.494 Y101.568 E13.64355
G1 X115.92 Y101.84 E13.66877
G1 X116.298 Y102.175 E13.69396
G1 X116.618 Y102.566 E13.71917
G1 X116.873 Y103.003 E13.74441
G1 X117.056 Y103.474 E13.76962
G1 X117.186 Y104.21 E13.80691
G1 X117.243 Y105.214 E13.85708
G1 X117.283 Y106.115 E13.90208
G1 X117.481 Y108.863 E14.03953
G1 X117.813 Y112.073 E14.20053
G1 X117.885 Y112.68 E14.23103
G1 X117.906 Y112.984 E14.24623
G1 X117.95 Y114.913 E14.34249
G1 X117.922 Y115.418 E14.36773
G1 X117.743 Y116.12 E14.40387
G1 X116.983 Y118.125 E14.51085
G1 X116.767 Y118.582 E14.53606
G1 X116.482 Y119 E14.5613
G1 X116.135 Y119.367 E14.5865
G1 X115.734 Y119.675 E14.61173
G1 X115.289 Y119.916 E14.63698
G1 X114.812 Y120.084 E14.66221
G1 X114.081 Y120.19 E14.69906
G1 X113.67 Y120.2 E14.71957
G1 X112.153 Y120.2 E14.79525
G1 X111.443 Y120.188 E14.83068
G1 X110.94 Y120.139 E14.85589
G1 X110.092 Y119.9 E14.89985
G1 X108.965 Y119.52 E14.95918
G1 X108.5 Y119.321 E14.98442
G1 X108.073 Y119.051 E15.00962
G1 X107.693 Y118.717 E15.03486
G1 X107.363 Y118.317 E15.06073
G1 X105.712 Y115.947 E15.20484
G1 X104.033 Y113.68 E15.34558
G1 X103.464 Y112.933 E15.39243
G1 X103.19 Y112.508 E15.41765
G1 X102.987 Y112.045 E15.44288
G1 X102.859 Y111.556 E15.4681
G1 X102.801 Y110.759 E15.50796
G1 X102.801 Y104.941 E15.79822
G1 F2700 E10.79822
G0 F1800 X106.68 Y105.253
G0 X106.68 Y105.482
;TYPE:SUPPORT
G1 F2700 E15.79822
G1 F600 X106.68 Y104.119 E15.86622
G0 F1800 X109.347 Y104.119
G1 F600 X109.347 Y105.674 E15.9438
G0 F1800 X112.014 Y105.482
G1 F600 X112.014 Y104.119 E16.0118
G1 F2700 E11.0118
G0 F1800 X105.347 Y105.265
G0 X105.347 Y111.653
G0 X110.847 Y111.653
G0 X111.063 Y112.014
G1 F2700 E16.0118
G1 F600 X109.717 Y112.014 E16.07896
G0 F1800 X109.717 Y114.681
G1 F600 X111.063 Y114.681 E16.14611
G1 F2700 E11.14611
G0 F1800 X110.835 Y114.681
G0 X110.847 Y117.653
G0 X114.653 Y117.653
G0 X114.681 Y113.377
G1 F2700 E16.14611
G1 F600 X114.681 Y112.751 E16.17734
G0 F1800 X114.681 Y114.468
G1 F600 X114.681 Y115.373 E16.22249
G0 F1800 X114.435 Y114.681
G1 F600 X114.959 Y114.681 E16.24863
G1 F2700 E11.24863
;MESH:Joint1.stl
G0 F1800 X113.57 Y114.681
G0 X112.31 Y108.597
G1 F2700 E16.24863
G0 F1800 X111.8 Y108.597
;TYPE:WALL-OUTER
G1 F600 X111.775 Y108.694 E16.25363
G1 X111.668 Y108.786 E16.26067
G1 X111.5 Y108.798 E16.26907
G1 X108.404 Y108.8 E16.42353
G1 X108.261 Y108.742 E16.43123
G1 X108.203 Y108.601 E16.43884
G1 X108.2 Y106.118 E16.56272
G1 X106.2 Y106.118 E16.6625
G1 X106.201 Y110.799 E16.89603
G1 X111.526 Y110.801 E17.1617
G1 X111.629 Y110.846 E17.16731
G1 X111.7 Y111 E17.17577
G1 X111.7 Y116.8 E17.46513
G1 X113.8 Y116.8 E17.5699
G1 X113.8 Y107.118 E18.05294
G1 X113.8 Y106.118 E18.10283
G1 X111.8 Y106.118 E18.20261
G1 X111.8 Y108.597 E18.32628
G0 F1800 X111.775 Y108.694
G0 X111.7 Y108.759
G0 X111.627 Y109.197
;TYPE:WALL-INNER
G1 F600 X108.404 Y109.2 E18.48708
G1 X107.977 Y109.024 E18.51012
G1 X107.811 Y108.704 E18.52811
G1 X107.803 Y108.601 E18.53326
G1 X107.8 Y106.518 E18.63718
G1 X106.6 Y106.518 E18.69705
G1 X106.601 Y110.399 E18.89067
G1 X111.5 Y110.4 E19.13509
G1 X111.75 Y110.454 E19.14785
G1 X111.887 Y110.54 E19.15592
G1 X112.1 Y111 E19.18121
G1 X112.1 Y116.4 E19.45061
G1 X113.4 Y116.4 E19.51547
G1 X113.4 Y107.118 E19.97855
G1 X113.4 Y106.518 E20.00849
G1 X112.2 Y106.518 E20.06835
G1 X112.2 Y108.597 E20.17208
G1 X112.125 Y108.888 E20.18707
G1 X111.948 Y109.087 E20.20036
G1 X111.627 Y109.197 E20.21729
G0 F1800 X112.179 Y109.413
G1 F600 X111.939 Y109.539 E20.23081
G1 X111.5 Y109.598 E20.25291
G1 X108.404 Y109.6 E20.40737
G1 X107.694 Y109.307 E20.44569
G1 F592.6 X107.412 Y108.774 E20.47615
G1 F591.1 X107.403 Y108.601 E20.48492
G1 F598.5 X107.401 Y106.918 E20.56909
G1 X107 Y106.918 E20.58915
G1 X107.001 Y108.601 E20.67333
G1 F600 X107.001 Y109.593 E20.72282
G1 X107.001 Y109.999 E20.74307
G1 X108.529 Y110 E20.8193
G1 F597 X110.057 Y110.001 E20.89592
G1 F595.5 X111.585 Y110.002 E20.97272
G1 F597 X111.917 Y110.09 E20.98994
G1 F600 X112.145 Y110.234 E21.0034
G1 F564.7 X112.525 Y111 E21.04872
G1 F533.3 X112.525 Y115.975 E21.32795
G1 X112.975 Y115.975 E21.35321
G1 X112.975 Y111 E21.63244
G1 F549.2 X112.987 Y110.418 E21.66417
G1 F582.5 X113 Y109.836 E21.69408
G1 F600 X113 Y109.217 E21.72496
G1 X113 Y107.118 E21.82968
G1 X113 Y106.918 E21.83966
G1 X112.6 Y106.918 E21.85962
G1 X112.6 Y108.597 E21.94338
G1 F594.1 X112.59 Y108.77 E21.95211
G1 X112.475 Y109.082 E21.96887
G1 F600 X112.179 Y109.413 E21.99102
G0 F1800 X112.522 Y109.765
;TYPE:SKIN
G1 F354 X112.439 Y109.765 E21.99804
G1 X112.397 Y109.837 E22.00509
G1 X112.438 Y109.909 E22.0121
G1 X112.522 Y109.909 E22.0192
G1 X112.564 Y109.837 E22.02625
G0 F1800 X107.464 Y109.594
G1 F535.7 X107.436 Y109.642 E22.02936
G1 X107.38 Y109.642 E22.03248
G1 X107.353 Y109.594 E22.03556
G1 X107.381 Y109.546 E22.03867
G1 X107.436 Y109.546 E22.04174
G1 F2700 E17.04174
;MESH:NONMESH
G0 F600 X107.436 Y109.546 Z0.45
G0 F1800 X106.68 Y106.348
G0 X106.68 Y104.451
;TIME_ELAPSED:53.931186
;LAYER:1
;TYPE:SUPPORT
G1 F2700 E22.04174
G1 F1800 X106.68 Y104.952 E22.05424
G1 X106.068 Y104.952 E22.0695
G1 X106.068 Y104.451 E22.082
G1 X109.347 Y104.451 E22.1638
G1 X109.347 Y105.052 E22.17879
G1 X111.332 Y105.052 E22.2283
G1 X111.532 Y105.042 E22.2333
G1 X111.532 Y104.952 E22.23554
G1 X113.932 Y104.952 E22.29541
G1 X113.932 Y104.451 E22.30791
G1 X112.014 Y104.451 E22.35576
G1 X112.014 Y104.952 E22.36825
G1 F2700 E17.36825
G0 F5400 X112.014 Y104.645
G0 X114.653 Y104.657
G0 X114.653 Y117.653
G0 X110.847 Y117.653
G0 X110.732 Y111.768
G0 X110.119 Y111.768
G1 F2700 E22.36825
G1 F1800 X110.732 Y111.768 E22.38354
G1 X110.732 Y116.359 E22.49807
G1 X110.119 Y116.36 E22.51336
G1 X110.119 Y111.768 E22.62791
G1 F2700 E17.62791
;MESH:Joint1.stl
G0 F5400 X110.119 Y110.57
G0 X112.038 Y109.038
G1 F2700 E22.62791
G0 F5400 X111.8 Y108.6
;TYPE:WALL-OUTER
G1 F1050 X111.776 Y108.697 E22.6304
G1 X111.668 Y108.789 E22.63394
G1 X111.5 Y108.8 E22.63814
G1 X108.4 Y108.8 E22.71547
G1 X108.258 Y108.742 E22.71929
G1 X108.2 Y108.6 E22.72312
G1 X108.2 Y105.51 E22.8002
G1 X106.2 Y105.51 E22.85009
G1 X106.201 Y110.799 E22.98203
G1 X111.526 Y110.801 E23.11486
G1 X111.629 Y110.847 E23.11767
G1 X111.7 Y111 E23.12188
G1 X111.7 Y116.8 E23.26656
G1 X113.8 Y116.8 E23.31895
G1 X113.8 Y106.51 E23.57563
G1 X113.8 Y105.51 E23.60058
G1 X111.8 Y105.51 E23.65047
G1 X111.8 Y108.6 E23.72755
G0 F5400 X111.776 Y108.697
G0 X111.699 Y108.762
G0 X111.699 Y109.31
G0 X111.55 Y110.29
G0 X111.55 Y110.401
;TYPE:WALL-INNER
G1 F1050 X111.75 Y110.454 E23.73271
G1 X111.887 Y110.541 E23.73676
G1 X112.1 Y111 E23.74938
G1 X112.1 Y116.4 E23.88408
G1 X113.4 Y116.4 E23.91651
G1 X113.4 Y106.51 E24.16322
G1 X113.4 Y105.91 E24.17818
G1 X112.2 Y105.91 E24.20812
G1 X112.2 Y108.6 E24.27522
G1 X112.126 Y108.891 E24.28271
G1 X111.948 Y109.09 E24.28937
G1 X111.627 Y109.2 E24.29784
G1 X108.4 Y109.2 E24.37833
G1 X107.975 Y109.025 E24.3898
G1 X107.808 Y108.704 E24.39883
G1 X107.8 Y108.6 E24.40143
G1 X107.8 Y105.91 E24.46853
G1 X106.6 Y105.91 E24.49846
G1 X106.601 Y110.399 E24.61044
G1 X111.55 Y110.401 E24.7339
G0 F5400 X111.55 Y110.29
G0 X112.179 Y109.416
G1 F1050 X111.94 Y109.542 E24.74064
G1 X111.5 Y109.6 E24.75171
G1 X108.4 Y109.6 E24.82904
