;FLAVOR:Marlin
;TIME:532
;Filament used: 0.27983m
;Layer height: 0.2
;MINX:100.7
;MINY:103.384
;MINZ:0.3
;MAXX:119.3
;MAXY:124.133
;MAXZ:9.1
;Generated with Cura_SteamEngine 5.0.0
M140 S40
M105
M190 S40
M104 S210
M105
M109 S210
M82 ;absolute extrusion mode
G28 ;Home
G1 Z15.0 F6000 ;Move the platform down 15mm
;Prime the extruder
G92 E0
G1 F200 E3
G92 E0
G92 E0
G92 E0
;LAYER_COUNT:45
;LAYER:0
M107
G0 F3600 X102.125 Y104.789 Z0.3
G0 X100.7 Y108.794
;TYPE:SKIRT
G1 F600 X100.709 Y108.128 E0.03323
G1 X100.758 Y107.511 E0.06411
G1 X100.885 Y106.905 E0.095
G1 X101.09 Y106.32 E0.12593
G1 X101.368 Y105.766 E0.15685
G1 X101.714 Y105.253 E0.18772
G1 X102.125 Y104.789 E0.21864
G1 X102.591 Y104.382 E0.24951
G1 X103.106 Y104.038 E0.28041
G1 X103.661 Y103.763 E0.31131
G1 X104.247 Y103.562 E0.34222
G1 X104.854 Y103.438 E0.37313
G1 X105.373 Y103.395 E0.39911
G1 X105.829 Y103.384 E0.42187
G1 X107.757 Y103.385 E0.51806
G1 X108.384 Y103.394 E0.54934
G1 X111.078 Y103.396 E0.68374
G1 X111.844 Y103.385 E0.72196
G1 X113.862 Y103.385 E0.82264
G1 X114.56 Y103.395 E0.85747
G1 X115.177 Y103.444 E0.88835
G1 X115.783 Y103.572 E0.91925
G1 X116.368 Y103.777 E0.95017
G1 X116.921 Y104.056 E0.98108
G1 X117.434 Y104.403 E1.01198
G1 X117.898 Y104.813 E1.04287
G1 X118.305 Y105.28 E1.07377
G1 X118.648 Y105.795 E1.10464
G1 X118.923 Y106.351 E1.13559
G1 X119.123 Y106.937 E1.16648
G1 X119.247 Y107.544 E1.19739
G1 X119.289 Y108.06 E1.22322
G1 X119.3 Y108.515 E1.24592
G1 X119.3 Y113.194 E1.47936
G1 X119.29 Y113.896 E1.51439
G1 X119.241 Y114.514 E1.54532
G1 X119.113 Y115.12 E1.57622
G1 X118.908 Y115.704 E1.6071
G1 X118.63 Y116.258 E1.63802
G1 X118.282 Y116.77 E1.6689
G1 X117.872 Y117.234 E1.6998
G1 X115.091 Y119.684 E1.8847
G1 X113.144 Y121.499 E2.0175
G1 X112.527 Y122.108 E2.06075
G1 X111.796 Y122.803 E2.11107
G1 X111.321 Y123.2 E2.14196
G1 X110.798 Y123.532 E2.17286
G1 X110.237 Y123.794 E2.20375
G1 X109.647 Y123.982 E2.23465
G1 X109.038 Y124.093 E2.26553
G1 X108.305 Y124.131 E2.30215
G1 X106.145 Y124.133 E2.40991
G1 X105.447 Y124.124 E2.44474
G1 X104.83 Y124.076 E2.47561
G1 X104.223 Y123.949 E2.50655
G1 X103.639 Y123.745 E2.53742
G1 X103.085 Y123.467 E2.56834
G1 X102.572 Y123.12 E2.59924
G1 X102.107 Y122.711 E2.63013
G1 X101.7 Y122.244 E2.66104
G1 X101.355 Y121.73 E2.69192
G1 X101.08 Y121.175 E2.72283
G1 X100.879 Y120.589 E2.75373
G1 X100.754 Y119.982 E2.78465
G1 X100.711 Y119.454 E2.81108
G1 X100.7 Y118.991 E2.83419
G1 X100.7 Y108.794 E3.34292
G0 F3600 X101.1 Y108.8
G1 F600 X101.109 Y108.134 E3.37615
G1 X101.157 Y107.543 E3.40573
G1 X101.284 Y106.963 E3.43535
G1 X101.488 Y106.406 E3.46495
G1 X101.765 Y105.882 E3.49452
G1 X102.109 Y105.4 E3.52406
G1 X102.516 Y104.968 E3.55367
G1 X102.977 Y104.595 E3.58326
G1 X103.484 Y104.287 E3.61285
G1 X104.027 Y104.05 E3.64241
G1 X104.598 Y103.888 E3.67202
G1 X105.384 Y103.795 E3.71151
G1 X105.828 Y103.784 E3.73367
G1 X107.751 Y103.785 E3.82961
G1 X108.378 Y103.794 E3.86089
G1 X111.084 Y103.796 E3.99589
G1 X111.85 Y103.785 E4.03411
G1 X113.856 Y103.785 E4.13419
G1 X114.554 Y103.795 E4.16902
G1 X115.145 Y103.844 E4.19861
G1 X115.724 Y103.971 E4.22818
G1 X116.281 Y104.175 E4.25777
G1 X116.805 Y104.453 E4.28737
G1 X117.287 Y104.798 E4.31694
G1 X117.719 Y105.205 E4.34655
G1 X118.091 Y105.666 E4.3761
G1 X118.399 Y106.173 E4.4057
G1 X118.635 Y106.717 E4.43528
G1 X118.796 Y107.287 E4.46483
G1 X118.889 Y108.071 E4.50422
G1 X118.9 Y108.515 E4.52638
G1 X118.9 Y113.189 E4.75957
G1 X118.89 Y113.891 E4.79459
G1 X118.841 Y114.482 E4.82418
G1 X118.714 Y115.061 E4.85375
G1 X118.51 Y115.617 E4.8833
G1 X118.233 Y116.142 E4.91291
G1 X117.887 Y116.624 E4.94252
G1 X117.353 Y117.169 E4.98058
G1 X116.879 Y117.575 E5.01172
G1 X114.817 Y119.392 E5.14883
G1 X112.856 Y121.221 E5.28262
G1 X112.252 Y121.818 E5.32499
G1 X111.521 Y122.513 E5.37531
G1 X111.064 Y122.891 E5.4049
G1 X110.561 Y123.205 E5.43448
G1 X110.021 Y123.449 E5.46404
G1 X109.452 Y123.617 E5.49364
G1 X108.613 Y123.722 E5.53583
G1 X108.17 Y123.733 E5.55793
G1 X106.15 Y123.733 E5.65871
G1 X105.452 Y123.724 E5.69354
G1 X104.861 Y123.676 E5.72312
G1 X104.282 Y123.549 E5.75269
G1 X103.725 Y123.346 E5.78227
G1 X103.2 Y123.07 E5.81186
G1 X102.718 Y122.725 E5.84144
G1 X102.286 Y122.319 E5.87101
G1 X101.912 Y121.858 E5.90063
G1 X101.604 Y121.352 E5.93018
G1 X101.367 Y120.808 E5.95979
G1 X101.205 Y120.238 E5.98935
G1 X101.111 Y119.443 E6.02929
G1 X101.1 Y118.991 E6.05185
G1 X101.1 Y108.8 E6.56028
G0 F3600 X101.5 Y108.805
G1 F600 X101.509 Y108.139 E6.59351
G1 X101.557 Y107.576 E6.6217
G1 X101.683 Y107.025 E6.6499
G1 X101.886 Y106.497 E6.67812
G1 X102.162 Y106.003 E6.70635
G1 X102.504 Y105.553 E6.73455
G1 X102.906 Y105.156 E6.76273
G1 X103.36 Y104.819 E6.79094
G1 X103.857 Y104.55 E6.81914
G1 X104.387 Y104.353 E6.84735
G1 X104.94 Y104.234 E6.87557
G1 X105.712 Y104.186 E6.91416
G1 X107.745 Y104.185 E7.01558
G1 X108.372 Y104.194 E7.04687
G1 X111.09 Y104.196 E7.18247
G1 X111.856 Y104.185 E7.22069
G1 X113.85 Y104.185 E7.32017
G1 X114.548 Y104.195 E7.355
G1 X115.112 Y104.243 E7.38324
G1 X115.662 Y104.37 E7.4114
G1 X116.19 Y104.574 E7.43964
G1 X116.684 Y104.849 E7.46785
G1 X117.133 Y105.192 E7.49604
G1 X117.53 Y105.594 E7.52422
G1 X117.867 Y106.049 E7.55247
G1 X118.135 Y106.546 E7.58064
G1 X118.331 Y107.076 E7.60883
G1 X118.451 Y107.629 E7.63707
G1 X118.498 Y108.403 E7.67575
G1 X118.5 Y113.183 E7.91423
G1 X118.49 Y113.885 E7.94925
G1 X118.442 Y114.448 E7.97744
G1 X118.315 Y114.999 E8.00565
G1 X118.111 Y115.527 E8.03389
G1 X117.836 Y116.02 E8.06206
G1 X117.493 Y116.47 E8.09029
G1 X117.093 Y116.865 E8.11833
G1 X116.639 Y117.254 E8.14816
G1 X114.564 Y119.083 E8.28616
G1 X112.568 Y120.944 E8.42231
G1 X111.976 Y121.528 E8.46379
G1 X111.245 Y122.223 E8.51412
G1 X110.809 Y122.583 E8.54232
G1 X110.326 Y122.877 E8.57053
G1 X109.807 Y123.101 E8.59874
G1 X109.262 Y123.249 E8.62691
G1 X108.602 Y123.322 E8.66004
G1 X108.17 Y123.333 E8.6816
G1 X106.155 Y123.333 E8.78213
G1 X105.457 Y123.324 E8.81695
G1 X104.894 Y123.276 E8.84514
G1 X104.343 Y123.15 E8.87334
G1 X103.815 Y122.948 E8.90155
G1 X103.321 Y122.673 E8.92975
G1 X102.871 Y122.331 E8.95795
G1 X102.473 Y121.929 E8.98618
G1 X102.137 Y121.475 E9.01435
G1 X101.867 Y120.978 E9.04257
G1 X101.67 Y120.448 E9.07078
G1 X101.55 Y119.896 E9.09896
G1 X101.501 Y119.099 E9.1388
G1 X101.5 Y108.805 E9.65237
G0 F3600 X101.9 Y108.81
G1 F600 X101.909 Y108.144 E9.6856
G1 X101.956 Y107.61 E9.71235
G1 X102.082 Y107.089 E9.73909
G1 X102.285 Y106.592 E9.76587
G1 X102.558 Y106.131 E9.7926
G1 X102.897 Y105.715 E9.81937
G1 X103.294 Y105.355 E9.84611
G1 X103.74 Y105.057 E9.87287
G1 X104.226 Y104.829 E9.89965
G1 X104.74 Y104.676 E9.92641
G1 X105.407 Y104.594 E9.95994
G1 X105.828 Y104.584 E9.98095
G1 X107.74 Y104.585 E10.07634
G1 X108.367 Y104.594 E10.10762
G1 X111.096 Y104.596 E10.24377
G1 X111.862 Y104.585 E10.28199
G1 X113.845 Y104.585 E10.38092
G1 X114.543 Y104.595 E10.41575
G1 X115.077 Y104.643 E10.4425
G1 X115.598 Y104.769 E10.46924
G1 X116.095 Y104.972 E10.49603
G1 X116.556 Y105.246 E10.52278
G1 X116.971 Y105.585 E10.54951
G1 X117.331 Y105.983 E10.57629
G1 X117.628 Y106.429 E10.60302
G1 X117.856 Y106.915 E10.6298
G1 X118.008 Y107.429 E10.65655
G1 X118.09 Y108.094 E10.68997
G1 X118.1 Y108.515 E10.71098
G1 X118.1 Y113.177 E10.94357
G1 X118.09 Y113.879 E10.9786
G1 X118.042 Y114.413 E11.00535
G1 X117.916 Y114.935 E11.03214
G1 X117.713 Y115.431 E11.05888
G1 X117.439 Y115.892 E11.08563
G1 X117.1 Y116.308 E11.1124
G1 X116.356 Y116.97 E11.16209
G1 X114.29 Y118.791 E11.29948
G1 X112.296 Y120.649 E11.43546
G1 X111.701 Y121.238 E11.47723
G1 X110.97 Y121.933 E11.52755
G1 X110.554 Y122.273 E11.55435
G1 X110.093 Y122.547 E11.58111
G1 X109.597 Y122.749 E11.60783
G1 X109.076 Y122.876 E11.63458
G1 X108.272 Y122.932 E11.67479
G1 X106.161 Y122.933 E11.78011
G1 X105.463 Y122.924 E11.81494
G1 X104.928 Y122.877 E11.84173
G1 X104.407 Y122.751 E11.86847
G1 X103.91 Y122.549 E11.89524
G1 X103.449 Y122.276 E11.92197
G1 X103.033 Y121.937 E11.94874
G1 X102.672 Y121.541 E11.97547
G1 X102.374 Y121.095 E12.00223
G1 X102.146 Y120.609 E12.02902
G1 X101.993 Y120.095 E12.05577
G1 X101.91 Y119.421 E12.08965
G1 X101.9 Y118.991 E12.11111
G1 X101.9 Y108.81 E12.61904
G0 F3600 X102.3 Y108.816
G1 F600 X102.309 Y108.15 E12.65227
G1 X102.356 Y107.646 E12.67753
G1 X102.481 Y107.157 E12.70271
G1 X102.682 Y106.693 E12.72794
G1 X102.954 Y106.266 E12.75319
G1 X103.289 Y105.888 E12.77839
G1 X103.68 Y105.567 E12.80363
G1 X104.117 Y105.312 E12.82887
G1 X104.588 Y105.128 E12.8541
G1 X105.082 Y105.022 E12.87931
G1 X105.735 Y104.985 E12.91194
G1 X107.734 Y104.985 E13.01167
G1 X108.361 Y104.994 E13.04295
G1 X111.1 Y104.996 E13.1796
G1 X111.867 Y104.985 E13.21787
G1 X113.839 Y104.985 E13.31626
G1 X114.537 Y104.995 E13.35108
G1 X115.04 Y105.042 E13.37629
G1 X115.53 Y105.168 E13.40153
G1 X115.994 Y105.37 E13.42678
G1 X116.42 Y105.642 E13.45199
G1 X116.798 Y105.977 E13.47719
G1 X117.118 Y106.368 E13.5024
G1 X117.373 Y106.805 E13.52764
G1 X117.556 Y107.276 E13.55285
G1 X117.663 Y107.77 E13.57807
G1 X117.699 Y108.425 E13.61079
G1 X117.7 Y113.172 E13.84762
G1 X117.69 Y113.874 E13.88265
G1 X117.643 Y114.377 E13.90785
G1 X117.517 Y114.867 E13.9331
G1 X117.315 Y115.33 E13.9583
G1 X117.044 Y115.757 E13.98353
G1 X116.572 Y116.258 E14.01787
G1 X116.11 Y116.654 E14.04823
G1 X114.018 Y118.498 E14.18736
G1 X112.007 Y120.372 E14.32449
G1 X111.425 Y120.948 E14.36535
G1 X110.694 Y121.643 E14.41567
G1 X110.301 Y121.961 E14.44089
G1 X109.863 Y122.214 E14.46613
G1 X109.391 Y122.394 E14.49133
G1 X108.896 Y122.498 E14.51656
G1 X108.26 Y122.532 E14.54834
G1 X106.166 Y122.533 E14.65281
G1 X105.468 Y122.524 E14.68763
G1 X104.964 Y122.477 E14.71289
G1 X104.474 Y122.352 E14.73812
G1 X104.01 Y122.151 E14.76335
G1 X103.584 Y121.88 E14.78853
G1 X103.205 Y121.545 E14.81377
G1 X102.884 Y121.154 E14.83901
G1 X102.629 Y120.718 E14.86421
G1 X102.445 Y120.247 E14.88944
G1 X102.338 Y119.753 E14.91465
G1 X102.301 Y119.077 E14.94843
G1 X102.3 Y108.816 E15.46035
;MESH:Joint12.stl
G0 F3600 X104.835 Y108.816
G0 X105.93 Y108.816
G0 X107.69 Y110.933
G0 X108.2 Y110.933
;TYPE:WALL-OUTER
G1 F600 X108.2 Y108.385 E15.58747
G1 X105.7 Y108.385 E15.7122
G1 X105.7 Y119.133 E16.24842
G1 X108.3 Y119.133 E16.37813
G1 X108.3 Y113.833 E16.64255
G1 X108.372 Y113.678 E16.65108
G1 X108.499 Y113.633 E16.6578
G1 X114.3 Y113.633 E16.94721
G1 X114.3 Y109.635 E17.14667
G1 X114.3 Y108.385 E17.20904
G1 X111.8 Y108.385 E17.33376
G1 X111.8 Y110.929 E17.46068
G1 X111.742 Y111.071 E17.46834
G1 X111.601 Y111.129 E17.47594
G1 X108.497 Y111.132 E17.6308
G1 X108.283 Y111.096 E17.64163
G1 X108.202 Y110.968 E17.64918
G1 X108.2 Y110.933 E17.65093
G0 F3600 X108.2 Y110.733
G0 X107.8 Y110.933
;TYPE:WALL-INNER
G1 F600 X107.8 Y108.785 E17.7581
G1 X106.1 Y108.785 E17.84291
G1 X106.1 Y118.733 E18.33922
G1 X107.9 Y118.733 E18.42902
G1 X107.9 Y113.833 E18.67348
G1 X107.962 Y113.565 E18.68721
G1 X108.117 Y113.37 E18.69963
G1 X108.427 Y113.237 E18.71646
G1 X108.498 Y113.233 E18.72001
G1 X113.9 Y113.233 E18.98952
G1 X113.9 Y109.635 E19.16902
G1 X113.9 Y108.785 E19.21143
G1 X112.2 Y108.785 E19.29624
G1 X112.2 Y110.929 E19.40321
G1 X112.152 Y111.168 E19.41537
G1 X112.024 Y111.354 E19.42663
G1 X111.704 Y111.521 E19.44464
G1 X111.601 Y111.529 E19.4498
G1 X108.497 Y111.532 E19.60466
G1 X108.195 Y111.498 E19.61982
G1 X108.05 Y111.421 E19.62801
G1 X107.873 Y111.222 E19.6413
G1 X107.8 Y110.933 E19.65617
G0 F3600 X107.522 Y111.414
G1 F600 X107.414 Y111.105 E19.6725
G1 X107.4 Y110.933 E19.68111
G1 X107.4 Y109.185 E19.76832
G1 X106.5 Y109.185 E19.81322
G1 X106.5 Y110.933 E19.90042
G1 X106.499 Y111.676 E19.93749
G1 X106.501 Y112.422 E19.97471
G1 X106.5 Y118.333 E20.26961
G1 X107.5 Y118.333 E20.3195
G1 X107.5 Y113.833 E20.54401
G1 X107.604 Y113.387 E20.56686
G1 X107.862 Y113.062 E20.58756
G1 X108.095 Y112.918 E20.60122
G1 X108.497 Y112.833 E20.62172
G1 X113.5 Y112.833 E20.87132
G1 X113.5 Y109.635 E21.03087
G1 X113.5 Y109.185 E21.05332
G1 X112.6 Y109.185 E21.09822
G1 X112.6 Y110.929 E21.18523
G1 X112.52 Y111.327 E21.20549
G1 X112.306 Y111.638 E21.22432
G1 X111.773 Y111.915 E21.25429
G1 X111.602 Y111.929 E21.26285
G1 X108.497 Y111.932 E21.41776
G1 X108.058 Y111.874 E21.43985
G1 X107.816 Y111.747 E21.45349
G1 X107.522 Y111.414 E21.47565
G0 F3600 X106.96 Y111.182
;TYPE:SKIN
G1 F434.8 X106.95 Y110.956 E21.49122
G1 F443.6 X106.95 Y109.635 E21.58036
G0 F3600 X107.563 Y112.027
G1 F600 X107.215 Y111.635 E21.60651
G1 F499 X106.96 Y111.182 E21.6377
G1 X106.881 Y111.762 E21.67281
G1 F600 X106.881 Y113.219 E21.7455
G1 F458 X107.004 Y113.757 E21.78157
G1 X107.248 Y113.261 E21.8177
G1 F600 X107.59 Y112.801 E21.8463
G1 X107.978 Y112.558 E21.86914
G1 F508.5 X108.458 Y112.382 E21.89923
G1 X107.962 Y112.239 E21.92962
G1 F600 X107.563 Y112.027 E21.95217
G0 F3600 X108.458 Y112.382
G1 F440.4 X111.621 Y112.381 E22.16717
G1 F431.7 X111.848 Y112.371 E22.18293
G0 F3600 X112.619 Y111.948
G1 F446.9 X111.928 Y112.339 E22.23611
G1 F428.6 X111.848 Y112.371 E22.24212
G1 F442 X112.656 Y112.394 E22.29687
G1 F461.5 X113.06 Y112.393 E22.32307
G1 X113.06 Y111.598 E22.37463
G1 F445.3 X113.041 Y111.182 E22.40263
G1 X112.9 Y111.549 E22.42906
G1 F461.5 X112.619 Y111.948 E22.46071
G0 F3600 X113.041 Y111.182
G1 F437.2 X113.05 Y110.929 E22.47805
G1 F444.4 X113.05 Y109.635 E22.5652
G0 F3600 X112.238 Y111.566
G0 X110.605 Y111.564
G0 X107.004 Y113.757
G1 F372.7 X107 Y113.831 E22.57115
G1 F375 X107 Y117.833 E22.89061
G0 F3600 X107.258 Y112.915
G1 F600 X107.081 Y112.738 E22.9031
G0 F3600 X107.521 Y112.613
G1 F600 X107.081 Y112.172 E22.93418
;MESH:NONMESH
G0 X107.081 Y112.172 Z0.5
G0 F3600 X107.69 Y110.933
G0 X108.2 Y110.933
;TIME_ELAPSED:49.307199
;LAYER:1
M106 S255
;TYPE:WALL-OUTER
;MESH:Joint12.stl
G1 F720 X108.2 Y107.681 E23.04234
G1 X105.7 Y107.681 E23.12549
G1 X105.7 Y119.133 E23.50638
G1 X108.3 Y119.133 E23.59286
G1 X108.3 Y113.833 E23.76914
G1 X108.372 Y113.678 E23.77482
G1 X108.499 Y113.633 E23.7793
G1 X114.3 Y113.633 E23.97225
G1 X114.3 Y108.931 E24.12864
G1 X114.3 Y107.681 E24.17021
G1 X111.8 Y107.681 E24.25336
G1 X111.8 Y110.93 E24.36142
G1 X111.742 Y111.072 E24.36652
G1 X111.601 Y111.13 E24.3716
G1 X108.498 Y111.132 E24.4748
G1 X108.283 Y111.096 E24.48205
G1 X108.202 Y110.968 E24.48709
G1 X108.2 Y110.933 E24.48826
G0 F5400 X108.2 Y110.733
G0 X107.8 Y110.933
;TYPE:WALL-INNER
G1 F1110 X107.8 Y108.081 E24.58311
G1 X106.1 Y108.081 E24.63966
G1 X106.1 Y118.733 E24.99394
G1 X107.9 Y118.733 E25.05381
G1 X107.9 Y113.833 E25.21679
G1 X107.962 Y113.565 E25.22594
G1 X108.117 Y113.37 E25.23422
G1 X108.427 Y113.237 E25.24544
G1 X108.499 Y113.233 E25.24784
G1 X113.9 Y113.233 E25.42748
G1 X113.9 Y108.931 E25.57056
G1 X113.9 Y108.081 E25.59883
G1 X112.2 Y108.081 E25.65538
G1 X112.2 Y110.93 E25.75013
G1 X112.152 Y111.169 E25.75824
G1 X112.024 Y111.355 E25.76575
G1 X111.704 Y111.522 E25.77776
G1 X111.601 Y111.53 E25.78119
G1 X108.498 Y111.532 E25.8844
G1 X108.195 Y111.498 E25.89454
G1 X108.05 Y111.421 E25.9
G1 X107.873 Y111.222 E25.90886
G1 X107.8 Y110.933 E25.91877
G0 F5400 X107.522 Y111.414
G1 F1110 X107.414 Y111.105 E25.92966
G1 X107.4 Y110.933 E25.9354
G1 X107.4 Y108.481 E26.01695
G1 X106.5 Y108.481 E26.04689
G1 X106.5 Y110.933 E26.12844
G1 X106.499 Y111.676 E26.15315
G1 X106.501 Y112.422 E26.17797
G1 X106.5 Y118.333 E26.37457
G1 X107.5 Y118.333 E26.40783
G1 X107.5 Y113.833 E26.5575
G1 X107.604 Y113.387 E26.57273
G1 X107.862 Y113.062 E26.58653
G1 X108.095 Y112.918 E26.59564
G1 X108.498 Y112.833 E26.60934
G1 X111.601 Y112.832 E26.71255
G1 X112.8 Y112.833 E26.75242
G1 X113.5 Y112.833 E26.77571
G1 X113.5 Y108.931 E26.90549
G1 X113.5 Y108.481 E26.92045
G1 X112.6 Y108.481 E26.95039
G1 X112.6 Y110.93 E27.03184
G1 X112.52 Y111.328 E27.04535
G1 X112.306 Y111.638 E27.05787
G1 X111.773 Y111.916 E27.07787
G1 X111.601 Y111.93 E27.08361
G1 X108.498 Y111.932 E27.18681
G1 X108.058 Y111.874 E27.20157
G1 X107.816 Y111.747 E27.21066
G1 X107.522 Y111.414 E27.22544
G0 F5400 X106.96 Y111.182
;TYPE:SKIN
G1 F434.8 X106.95 Y110.956 E27.23582
G1 F443.6 X106.95 Y108.931 E27.32692
G0 F5400 X107.563 Y112.027
G1 F600 X107.215 Y111.635 E27.34435
G1 F499 X106.96 Y111.182 E27.36514
