;FLAVOR:Marlin
;TIME:500
;Filament used: 0.259275m
;Layer height: 0.15
;MINX:100.768
;MINY:96.565
;MINZ:0.3
;MAXX:118.863
;MAXY:120.523
;MAXZ:9.6
;Generated with Cura_SteamEngine 5.0.0
M140 S60
M105
M190 S60
M104 S200
M105
M109 S200
M82 ;absolute extrusion mode
G28 ;Home
G1 Z15.0 F6000 ;Move the platform down 15mm
;Prime the extruder
G92 E0
G1 F200 E3
G92 E0
G92 E0
G92 E0
G1 F2700 E-5
;LAYER_COUNT:63
;LAYER:0
M106 S255
G0 F1800 X101.973 Y98.487 Z0.3
G0 X100.768 Y101.735
;TYPE:SKIRT
G1 F2700 E0
G1 F600 X100.779 Y101.142 E0.02959
G1 X100.869 Y100.556 E0.05917
G1 X101.037 Y99.988 E0.08872
G1 X101.28 Y99.447 E0.11831
G1 X101.594 Y98.943 E0.14793
G1 X101.973 Y98.487 E0.17752
G1 X102.409 Y98.086 E0.20707
G1 X102.895 Y97.746 E0.23666
G1 X103.423 Y97.476 E0.26625
G1 X103.982 Y97.278 E0.29583
G1 X104.756 Y97.136 E0.33509
G1 X105.213 Y97.095 E0.35798
G1 X113.229 Y96.598 E0.75867
G1 X113.9 Y96.565 E0.79219
G1 X114.493 Y96.576 E0.82178
G1 X115.079 Y96.667 E0.85136
G1 X115.647 Y96.835 E0.88091
G1 X116.188 Y97.078 E0.9105
G1 X116.691 Y97.392 E0.94009
G1 X117.147 Y97.771 E0.96967
G1 X117.549 Y98.207 E0.99926
G1 X117.888 Y98.694 E1.02886
G1 X118.158 Y99.222 E1.05844
G1 X118.355 Y99.781 E1.08801
G1 X118.501 Y100.594 E1.12922
G1 X118.601 Y101.805 E1.18985
G1 X118.83 Y105.561 E1.37758
G1 X118.863 Y106.281 E1.41354
G1 X118.851 Y106.873 E1.44308
G1 X118.758 Y107.459 E1.47268
G1 X118.588 Y108.027 E1.50226
G1 X118.292 Y108.659 E1.53708
G1 X117.98 Y109.206 E1.5685
G1 X117.184 Y110.556 E1.64669
G1 X115.879 Y112.923 E1.78153
G1 X114.699 Y115.206 E1.90975
G1 X114.434 Y115.736 E1.93931
G1 X114.18 Y116.178 E1.96474
G1 X112.644 Y118.524 E2.10464
G1 X112.287 Y118.997 E2.13421
G1 X111.869 Y119.418 E2.16381
G1 X111.398 Y119.779 E2.19341
G1 X110.883 Y120.073 E2.223
G1 X110.334 Y120.295 E2.25254
G1 X109.759 Y120.441 E2.28214
G1 X109.086 Y120.512 E2.3159
G1 X108.641 Y120.523 E2.33811
G1 X106.621 Y120.523 E2.43889
G1 X105.923 Y120.514 E2.47371
G1 X105.332 Y120.466 E2.5033
G1 X104.753 Y120.339 E2.53287
G1 X104.196 Y120.136 E2.56245
G1 X103.671 Y119.86 E2.59204
G1 X103.189 Y119.515 E2.62161
G1 X102.757 Y119.109 E2.65119
G1 X102.383 Y118.648 E2.6808
G1 X102.075 Y118.142 E2.71036
G1 X101.838 Y117.598 E2.73996
G1 X101.676 Y117.028 E2.76952
G1 X101.582 Y116.245 E2.80887
G1 X101.556 Y115.375 E2.85229
G1 X101.415 Y112.299 E3.00592
G1 X101.372 Y111.592 E3.04125
G1 X101.324 Y110.595 E3.09105
G1 X101.155 Y107.889 E3.22632
G1 X101.078 Y106.858 E3.2779
G1 X100.801 Y102.4 E3.50074
G1 X100.768 Y101.735 E3.53395
G0 F1800 X101.168 Y101.715
G1 F600 X101.18 Y101.15 E3.56215
G1 X101.271 Y100.592 E3.59036
G1 X101.441 Y100.053 E3.61855
G1 X101.684 Y99.543 E3.64674
G1 X101.997 Y99.072 E3.67495
G1 X102.374 Y98.65 E3.70318
G1 X102.806 Y98.285 E3.7314
G1 X103.285 Y97.985 E3.75959
G1 X103.801 Y97.756 E3.78776
G1 X104.345 Y97.601 E3.81598
G1 X105.116 Y97.504 E3.85475
G1 X113.249 Y96.998 E4.26129
G1 X113.92 Y96.965 E4.29481
G1 X114.485 Y96.977 E4.323
G1 X115.043 Y97.069 E4.35122
G1 X115.582 Y97.238 E4.3794
G1 X116.092 Y97.482 E4.4076
G1 X116.563 Y97.795 E4.43582
G1 X116.984 Y98.172 E4.46401
G1 X117.349 Y98.604 E4.49223
G1 X117.648 Y99.083 E4.5204
G1 X117.878 Y99.6 E4.54863
G1 X118.032 Y100.144 E4.57684
G1 X118.102 Y100.627 E4.60118
G1 X118.202 Y101.829 E4.66136
G1 X118.431 Y105.579 E4.8488
G1 X118.464 Y106.299 E4.88475
G1 X118.45 Y106.864 E4.91295
G1 X118.356 Y107.422 E4.94118
G1 X118.185 Y107.96 E4.96935
G1 X117.944 Y108.461 E4.99708
G1 X117.635 Y109.003 E5.02821
G1 X116.832 Y110.366 E5.10713
G1 X115.538 Y112.711 E5.24076
G1 X114.368 Y114.975 E5.3679
G1 X114.077 Y115.557 E5.40036
G1 X113.846 Y115.959 E5.42349
G1 X112.31 Y118.305 E5.56339
G1 X111.967 Y118.755 E5.59162
G1 X111.565 Y119.152 E5.61981
G1 X111.111 Y119.489 E5.64801
G1 X110.613 Y119.758 E5.67625
G1 X110.083 Y119.954 E5.70444
G1 X109.531 Y120.074 E5.73263
G1 X108.753 Y120.121 E5.77151
G1 X106.626 Y120.123 E5.87763
G1 X105.928 Y120.114 E5.91246
G1 X105.365 Y120.066 E5.94065
G1 X104.814 Y119.94 E5.96884
G1 X104.286 Y119.738 E5.99705
G1 X103.792 Y119.463 E6.02526
G1 X103.342 Y119.121 E6.05345
G1 X102.944 Y118.719 E6.08168
G1 X102.608 Y118.265 E6.10986
G1 X102.338 Y117.768 E6.13807
G1 X102.141 Y117.238 E6.16628
G1 X102.021 Y116.686 E6.19447
G1 X101.958 Y115.427 E6.25736
G1 X101.811 Y112.21 E6.41802
G1 X101.772 Y111.572 E6.44991
G1 X101.727 Y110.632 E6.49686
G1 X101.554 Y107.859 E6.63547
G1 X101.478 Y106.833 E6.6868
G1 X101.201 Y102.38 E6.90939
G1 X101.168 Y101.715 E6.94261
G0 F1800 X101.567 Y101.695
G1 F600 X101.581 Y101.159 E6.96936
G1 X101.674 Y100.631 E6.99611
G1 X101.844 Y100.123 E7.02283
G1 X102.088 Y99.645 E7.04961
G1 X102.4 Y99.209 E7.07636
G1 X102.774 Y98.824 E7.10314
G1 X103.2 Y98.499 E7.12987
G1 X103.67 Y98.241 E7.15662
G1 X104.174 Y98.056 E7.1834
G1 X104.83 Y97.932 E7.21671
G1 X105.263 Y97.894 E7.23839
G1 X113.268 Y97.397 E7.63853
G1 X113.939 Y97.364 E7.67205
G1 X114.475 Y97.378 E7.6988
G1 X115.003 Y97.471 E7.72555
G1 X115.512 Y97.642 E7.75234
G1 X115.989 Y97.886 E7.77907
G1 X116.425 Y98.198 E7.80582
G1 X116.81 Y98.572 E7.83259
G1 X117.135 Y98.999 E7.85937
G1 X117.393 Y99.469 E7.88612
G1 X117.578 Y99.972 E7.91285
G1 X117.704 Y100.661 E7.9478
G1 X117.802 Y101.854 E8.00752
G1 X118.031 Y105.597 E8.19461
G1 X118.064 Y106.317 E8.23056
G1 X118.049 Y106.853 E8.25732
G1 X117.954 Y107.381 E8.28408
G1 X117.782 Y107.889 E8.31084
G1 X117.317 Y108.753 E8.35979
G1 X116.48 Y110.176 E8.44215
G1 X115.175 Y112.542 E8.57696
G1 X114.01 Y114.796 E8.70354
G1 X113.719 Y115.378 E8.73601
G1 X113.511 Y115.74 E8.75684
G1 X111.975 Y118.086 E8.89673
G1 X111.649 Y118.512 E8.9235
G1 X111.263 Y118.884 E8.95024
G1 X110.826 Y119.195 E8.977
G1 X110.347 Y119.437 E9.00378
G1 X109.838 Y119.606 E9.03053
G1 X109.064 Y119.713 E9.06951
G1 X108.641 Y119.723 E9.09062
G1 X106.632 Y119.723 E9.19085
G1 X105.934 Y119.714 E9.22568
G1 X105.399 Y119.667 E9.25247
G1 X104.878 Y119.541 E9.27922
G1 X104.381 Y119.339 E9.30598
G1 X103.92 Y119.066 E9.33271
G1 X103.504 Y118.727 E9.35948
G1 X103.143 Y118.331 E9.38622
G1 X102.845 Y117.885 E9.41298
G1 X102.617 Y117.399 E9.43976
G1 X102.464 Y116.885 E9.46652
G1 X102.382 Y116.222 E9.49985
G1 X102.358 Y115.408 E9.54047
G1 X102.214 Y112.249 E9.69824
G1 X102.171 Y111.553 E9.73303
G1 X102.123 Y110.556 E9.78283
G1 X101.95 Y107.784 E9.92139
G1 X101.877 Y106.809 E9.97017
G1 X101.6 Y102.36 E10.19256
G1 X101.567 Y101.695 E10.22578
G0 F1800 X101.967 Y101.676
G1 F600 X101.982 Y101.17 E10.25104
G1 X102.076 Y100.674 E10.27622
G1 X102.248 Y100.198 E10.30147
G1 X102.492 Y99.755 E10.32671
G1 X102.802 Y99.356 E10.35191
G1 X103.172 Y99.012 E10.37712
G1 X103.592 Y98.729 E10.40239
G1 X104.05 Y98.517 E10.42756
G1 X104.537 Y98.379 E10.45282
G1 X105.19 Y98.301 E10.48563
G1 X113.288 Y97.797 E10.89042
G1 X113.959 Y97.764 E10.92394
G1 X114.464 Y97.779 E10.94914
G1 X114.961 Y97.874 E10.97439
G1 X115.436 Y98.045 E10.99957
G1 X115.879 Y98.289 E11.02481
G1 X116.278 Y98.6 E11.05004
G1 X116.622 Y98.97 E11.07525
G1 X116.904 Y99.39 E11.10049
G1 X117.117 Y99.849 E11.12573
G1 X117.254 Y100.335 E11.15092
G1 X117.305 Y100.694 E11.16902
G1 X117.403 Y101.878 E11.22829
G1 X117.632 Y105.615 E11.41508
G1 X117.665 Y106.335 E11.45104
G1 X117.648 Y106.841 E11.47629
G1 X117.552 Y107.337 E11.5015
G1 X117.378 Y107.812 E11.52674
G1 X116.97 Y108.555 E11.56903
G1 X116.143 Y109.959 E11.65032
G1 X114.819 Y112.359 E11.78707
G1 X113.633 Y114.655 E11.916
G1 X113.361 Y115.199 E11.94634
G1 X113.176 Y115.521 E11.96487
G1 X111.64 Y117.867 E12.10476
G1 X111.331 Y118.267 E12.12998
G1 X110.962 Y118.613 E12.15522
G1 X110.544 Y118.896 E12.1804
G1 X110.086 Y119.111 E12.20564
G1 X109.6 Y119.25 E12.23086
G1 X109.052 Y119.313 E12.25838
G1 X108.641 Y119.323 E12.27889
G1 X106.637 Y119.323 E12.37887
G1 X105.939 Y119.314 E12.4137
G1 X105.435 Y119.267 E12.43895
G1 X104.945 Y119.142 E12.46418
G1 X104.481 Y118.941 E12.48941
G1 X104.055 Y118.67 E12.5146
G1 X103.676 Y118.335 E12.53984
G1 X103.355 Y117.944 E12.56507
G1 X103.1 Y117.508 E12.59027
G1 X102.916 Y117.037 E12.6155
G1 X102.809 Y116.543 E12.64072
G1 X102.61 Y112.173 E12.85897
G1 X102.571 Y111.534 E12.8909
G1 X102.525 Y110.582 E12.93846
G1 X102.349 Y107.759 E13.07957
G1 X102.276 Y106.784 E13.12835
G1 X102 Y102.341 E13.35044
G1 X101.967 Y101.676 E13.38366
G1 F2700 E8.38366
G0 F1800 X104.877 Y101.346
;TYPE:SUPPORT
G1 F2700 E13.38366
G1 F600 X114.424 Y101.346 E13.85996
G0 F1800 X112.014 Y100.816
G1 F600 X112.014 Y102.476 E13.94277
G0 F1800 X109.347 Y102.794
G1 F600 X109.347 Y100.982 E14.03318
G0 F1800 X106.68 Y101.147
G1 F600 X106.68 Y102.806 E14.11594
G1 F2700 E9.11594
G0 F1800 X106.666 Y102.578
G0 X104.575 Y102.718
G0 X104.887 Y107.735
G0 X109.347 Y108.739
G1 F2700 E14.11594
G1 F600 X109.347 Y114.123 E14.38455
G0 F1800 X109.234 Y114.681
G1 F600 X105.706 Y114.681 E14.56056
G0 F1800 X106.68 Y116.387
G1 F600 X106.68 Y110.339 E14.8623
G0 F1800 X108.38 Y109.347
G1 F600 X110.505 Y109.347 E14.96832
G0 F1800 X110.666 Y112.014
G1 F600 X105.54 Y112.014 E15.22405
G1 F2700 E10.22405
;MESH:Joint12.stl
G0 F1800 X105.963 Y107.679
G0 X105.895 Y106.594
G0 X107.64 Y106.215
G1 F2700 E15.22405
G0 F1800 X108.15 Y106.184
;TYPE:WALL-OUTER
G1 F600 X107.975 Y103.364 E15.36502
G1 X105.48 Y103.516 E15.48972
G1 X105.685 Y106.83 E15.65537
G1 X107.688 Y106.705 E15.7555
G1 F645.2 X108.382 Y106.689 E15.78771
G1 F693.6 X109.195 Y106.638 E15.82286
G1 F689.7 X110.009 Y106.586 E15.85827
G1 F685.7 X110.822 Y106.535 E15.89383
G1 F681.8 X111.636 Y106.483 E15.92964
G1 F638.3 X112.273 Y106.419 E15.95966
G1 F600 X114.267 Y106.294 E16.05934
G1 X114.14 Y104.234 E16.1623
G1 X114.063 Y102.986 E16.22469
G1 X111.57 Y103.139 E16.3493
G1 X111.744 Y105.951 E16.48986
G1 F641.7 X111.556 Y106.138 E16.50223
G1 F689.7 X109.959 Y106.24 E16.57168
G1 F693.6 X108.361 Y106.343 E16.64079
G1 F645.2 X108.15 Y106.184 E16.65305
G0 F1800 X108.138 Y105.985
G0 X107.75 Y106.209
;TYPE:WALL-INNER
G1 F600 X107.601 Y103.788 E16.77406
G1 X105.904 Y103.891 E16.85888
G1 X106.059 Y106.406 E16.98459
G1 X107.848 Y106.294 E17.07402
G1 X107.75 Y106.209 E17.08049
G1 F2700 E12.08049
G0 F1800 X107.64 Y106.215
G0 X108.96 Y105.476
G0 X110.85 Y105.355
G0 X111.972 Y105.937
G1 F2700 E17.08049
G0 F1800 X112.144 Y105.927
G1 F600 X112.066 Y106.031 E17.08698
G1 X113.843 Y105.92 E17.1758
G1 X113.74 Y104.258 E17.25888
G1 X113.688 Y103.41 E17.30127
G1 X111.994 Y103.514 E17.38594
G1 X112.144 Y105.927 E17.50656
G0 F1800 X112.252 Y105.921
G0 X112.418 Y103.889
G1 F600 X112.524 Y105.601 E17.59213
G1 X113.419 Y105.546 E17.63687
G1 X113.341 Y104.282 E17.70005
G1 X113.313 Y103.834 E17.72245
G1 X112.418 Y103.889 E17.76718
G1 F2700 E12.76718
G0 F1800 X110.755 Y103.991
G0 X108.886 Y104.105
G0 X107.814 Y104.172
G0 X106.328 Y104.266
G1 F2700 E17.76718
G1 F600 X106.433 Y105.982 E17.85295
G1 X107.332 Y105.925 E17.89789
G1 X107.226 Y104.212 E17.98352
G1 X106.328 Y104.266 E18.0284
G0 F1800 X106.806 Y104.688
;TYPE:SKIN
G1 F444.4 X106.854 Y105.505 E18.08352
G1 F2700 E13.08352
G0 F1800 X107.892 Y105.438
G0 X108.964 Y105.371
G0 X110.834 Y105.256
G0 X111.906 Y105.189
G0 X112.943 Y105.126
G1 F2700 E18.08352
G1 F447.8 X112.894 Y104.309 E18.13824
G1 F2700 E13.13824
;MESH:NONMESH
G0 F600 X112.894 Y104.309 Z0.45
G0 F1800 X111.804 Y103.349
G0 X110.719 Y103.416
G0 X106.68 Y101.481
;TIME_ELAPSED:46.501119
;LAYER:1
;TYPE:SUPPORT
G1 F2700 E18.13824
G1 F1800 X106.68 Y102.215 E18.15655
G1 X105.271 Y102.302 E18.19176
G1 X105.225 Y101.572 E18.21001
G1 X109.347 Y101.315 E18.31303
G1 X109.347 Y102.149 E18.33384
G1 X111.23 Y102.032 E18.3809
G1 X111.224 Y101.934 E18.38335
G1 X114.119 Y101.753 E18.45571
G1 X114.073 Y101.022 E18.47398
G1 X112.014 Y101.149 E18.52544
G1 X112.014 Y101.885 E18.5438
G1 F2700 E13.5438
G0 F5400 X111.996 Y101.6
G0 X114.821 Y101.435
G0 X115.309 Y109.289
G0 X109.372 Y109.668
G0 X109.347 Y109.273
G1 F2700 E18.5438
G1 F1800 X109.347 Y113.774 E18.65607
G1 X110.436 Y113.709 E18.68329
G1 X110.165 Y109.223 E18.7954
G1 X108.911 Y109.301 E18.82674
G1 X109 Y110.724 E18.8623
G1 X108.802 Y110.737 E18.86725
G1 X108.939 Y112.953 E18.92264
G1 X105.944 Y113.143 E18.9975
G1 X106.039 Y114.676 E19.03581
G1 X106.039 Y116.055 E19.07021
G1 X106.68 Y116.055 E19.0862
G1 X106.68 Y113.096 E19.16001
G1 F2700 E14.16001
;MESH:Joint12.stl
G0 F5400 X106.563 Y111.276
G0 X106.494 Y110.205
G0 X108.383 Y106.865
G1 F2700 E19.16001
G0 F5400 X108.351 Y106.357
;TYPE:WALL-OUTER
G1 F1050 X108.242 Y106.327 E19.16283
G1 X108.154 Y106.204 E19.16661
G1 X108.149 Y106.17 E19.16746
G1 X107.935 Y102.718 E19.25374
G1 X105.44 Y102.871 E19.31609
G1 X105.787 Y108.481 E19.4563
G1 X105.91 Y110.451 E19.50554
G1 X108.502 Y110.286 E19.57033
G1 X108.426 Y109.053 E19.60115
G1 X108.489 Y108.903 E19.6052
G1 X108.613 Y108.85 E19.60857
G1 X114.404 Y108.491 E19.7533
G1 X114.101 Y103.588 E19.87584
G1 X114.023 Y102.341 E19.90701
G1 X111.53 Y102.494 E19.96931
G1 X111.743 Y105.939 E20.05541
G1 X111.693 Y106.086 E20.05929
G1 X111.556 Y106.152 E20.06308
G1 X108.351 Y106.357 E20.14319
G0 F5400 X108.242 Y106.327
G0 X108.192 Y106.257
G0 X107.749 Y106.195
;TYPE:WALL-INNER
G1 F1050 X107.561 Y103.142 E20.21949
G1 X105.864 Y103.246 E20.26191
G1 X106.284 Y110.027 E20.43138
G1 X108.078 Y109.912 E20.47623
G1 X108.026 Y109.088 E20.49682
G1 X108.078 Y108.803 E20.50405
G1 X108.216 Y108.611 E20.50995
G1 X108.517 Y108.459 E20.51836
G1 X108.587 Y108.451 E20.52012
G1 X111.688 Y108.258 E20.59762
G1 X112.88 Y108.186 E20.62741
G1 X113.98 Y108.117 E20.6549
G1 X113.701 Y103.612 E20.7675
G1 X113.649 Y102.765 E20.78866
G1 X111.954 Y102.869 E20.83103
G1 X112.143 Y105.914 E20.90713
G1 X112.109 Y106.158 E20.91328
G1 X111.991 Y106.352 E20.91894
G1 X111.683 Y106.536 E20.92789
G1 X111.582 Y106.552 E20.93044
G1 X108.388 Y106.757 E21.01028
G1 X108.18 Y106.734 E21.0155
G1 X108.03 Y106.666 E21.01961
G1 X107.841 Y106.478 E21.02626
G1 X107.749 Y106.195 E21.03368
G0 F5400 X107.64 Y106.201
G0 X107.713 Y108.639
G1 F1050 X107.943 Y108.318 E21.04353
G1 X108.167 Y108.16 E21.05037
G1 X108.561 Y108.052 E21.06056
G1 X111.664 Y107.859 E21.13811
G1 X112.855 Y107.787 E21.16788
G1 X113.556 Y107.743 E21.1854
G1 X113.302 Y103.637 E21.28802
G1 X113.274 Y103.189 E21.29922
G1 X112.378 Y103.244 E21.32161
G1 X112.542 Y105.889 E21.38772
G1 X112.486 Y106.295 E21.39794
G1 X112.289 Y106.618 E21.40738
G1 X111.776 Y106.925 E21.42229
G1 X111.607 Y106.951 E21.42656
G1 X108.414 Y107.156 E21.50637
G1 X108.067 Y107.118 E21.51508
G1 X107.817 Y107.005 E21.52192
G1 X107.503 Y106.692 E21.53298
G1 X107.376 Y106.391 E21.54113
G1 X107.35 Y106.22 E21.54544
G1 X107.186 Y103.566 E21.61177
G1 X106.288 Y103.621 E21.63422
G1 X106.452 Y106.274 E21.70052
G1 X106.658 Y109.602 E21.7837
G1 X107.654 Y109.538 E21.8086
G1 X107.626 Y109.065 E21.82042
G1 X107.713 Y108.639 E21.83126
G0 F5400 X108.491 Y107.602
;TYPE:SKIN
G1 F767.8 X108.529 Y107.601 E21.83256
G1 X109.311 Y107.552 E21.85929
G1 F765 X110.093 Y107.503 E21.88611
G1 F762.3 X110.876 Y107.454 E21.91307
G1 F759.5 X111.658 Y107.405 E21.94009
G1 F744.7 X111.884 Y107.381 E21.94809
G0 F5400 X112.559 Y106.963
G1 F774.9 X111.963 Y107.343 E21.97198
G1 F739.4 X111.884 Y107.381 E21.97508
G1 F766.4 X112.679 Y107.356 E22.00226
G1 F804.6 X113.087 Y107.332 E22.01557
G1 X113.038 Y106.528 E22.04179
G1 F779.2 X112.996 Y106.119 E22.05561
G1 X112.881 Y106.49 E22.06867
G1 F804.6 X112.559 Y106.963 E22.08729
G0 F5400 X112.996 Y106.119
G1 F769.2 X112.99 Y105.86 E22.09612
G1 F782.1 X112.855 Y103.664 E22.1698
G0 F5400 X112.219 Y106.549
G0 X107.751 Y106.833
G0 X106.766 Y104.042
G1 F779.2 X106.901 Y106.244 E22.24395
G1 F765 X106.928 Y106.5 E22.25276
G0 F5400 X107.583 Y107.3
G1 F1050 X107.209 Y106.928 E22.26592
G1 F875 X106.928 Y106.5 E22.28125
G1 X106.883 Y107.075 E22.29851
G1 F1050 X106.97 Y108.495 E22.334
G1 F800 X107.127 Y109.009 E22.3516
G1 X107.354 Y108.522 E22.36919
G1 F1050 X107.658 Y108.069 E22.3828
G1 X108.032 Y107.806 E22.3942
G1 F886.1 X108.491 Y107.602 E22.40905
G1 X107.998 Y107.49 E22.424
G1 F1050 X107.583 Y107.3 E22.43538
G0 F5400 X107.197 Y107.197
G1 F1050 X107.097 Y107.297 E22.43891
G0 F5400 X107.491 Y107.468
G1 F1050 X107.13 Y107.829 E22.45165
G0 F5400 X107.352 Y108.173
G1 F1050 X107.163 Y108.362 E22.45831
G1 F2700 E17.45831
;MESH:NONMESH
