;FLAVOR:Marlin
;TIME:2890
;Filament used: 1.64508m
;Layer height: 0.15
;MINX:88.699
;MINY:90.491
;MINZ:0.3
;MAXX:117.8
;MAXY:129.509
;MAXZ:25.95
;Generated with Cura_SteamEngine 5.0.0
M140 S60
M105
M190 S60
M104 S200
M105
M109 S200
M82 ;absolute extrusion mode
G28 ;Home
G1 Z15.0 F6000 ;Move the platform down 15mm
;Prime the extruder
G92 E0
G1 F200 E3
G92 E0
G92 E0
G92 E0
G1 F2700 E-5
;LAYER_COUNT:172
;LAYER:0
M106 S255
;MESH:Dr.Stick_A_t3.stl
G0 F1800 X88.923 Y101.139 Z0.3
;TYPE:WALL-OUTER
G1 F2700 E0
G1 F600 X88.76 Y101.551 E0.0221
G1 X88.7 Y102.131 E0.0512
G1 X88.7 Y117.551 E0.8205
G1 X88.707 Y118.144 E0.85009
G1 X88.796 Y118.574 E0.872
G1 X88.993 Y118.978 E0.89442
G1 X89.278 Y119.318 E0.91656
G1 X89.637 Y119.577 E0.93864
G1 X90.051 Y119.74 E0.96084
G1 X90.63 Y119.8 E0.98988
G1 X98.49 Y119.8 E1.38202
G1 X99.073 Y119.704 E1.41149
G1 X99.478 Y119.507 E1.43396
G1 X99.818 Y119.222 E1.4561
G1 X100.078 Y118.861 E1.47829
G1 X100.24 Y118.449 E1.50038
G1 X100.3 Y117.869 E1.52947
G1 X100.3 Y102.477 E2.29738
G1 X100.293 Y101.856 E2.32836
G1 X100.203 Y101.423 E2.35043
G1 X100.008 Y101.022 E2.37267
G1 X99.722 Y100.682 E2.39484
G1 X99.361 Y100.422 E2.41703
G1 X98.949 Y100.26 E2.43912
G1 X98.37 Y100.2 E2.46816
G1 X90.476 Y100.201 E2.862
G1 X89.924 Y100.297 E2.88995
G1 X89.522 Y100.493 E2.91226
G1 X89.182 Y100.778 E2.93439
G1 X88.923 Y101.139 E2.95656
G0 F1800 X88.85 Y101.325
G0 X89.1 Y102.131
;TYPE:WALL-INNER
G1 F600 X89.1 Y117.547 E3.72567
G1 X89.107 Y118.101 E3.75331
G1 X89.178 Y118.444 E3.77078
G1 X89.331 Y118.758 E3.78821
G1 X89.552 Y119.022 E3.80539
G1 X89.831 Y119.223 E3.82254
G1 X90.152 Y119.35 E3.83977
G1 X90.63 Y119.4 E3.86374
G1 X98.474 Y119.4 E4.25508
G1 X98.936 Y119.326 E4.27843
G1 X99.258 Y119.169 E4.2963
G1 X99.522 Y118.948 E4.31347
G1 X99.724 Y118.667 E4.33074
G1 X99.85 Y118.348 E4.34785
G1 X99.9 Y117.869 E4.37188
G1 X99.9 Y102.477 E5.13979
G1 X99.893 Y101.9 E5.16858
G1 X99.821 Y101.553 E5.18626
G1 X99.67 Y101.241 E5.20355
G1 X99.448 Y100.978 E5.22072
G1 X99.168 Y100.776 E5.23795
G1 X98.848 Y100.65 E5.2551
G1 X98.37 Y100.6 E5.27908
G1 X90.493 Y100.601 E5.67207
G1 X90.054 Y100.679 E5.69431
G1 X89.742 Y100.831 E5.71163
G1 X89.478 Y101.052 E5.7288
G1 X89.277 Y101.332 E5.746
G1 X89.15 Y101.652 E5.76318
G1 X89.1 Y102.131 E5.7872
G0 F1800 X89.5 Y102.131
G1 F600 X89.5 Y117.543 E6.55611
G1 X89.507 Y118.058 E6.58181
G1 X89.615 Y118.43 E6.60113
G1 X89.827 Y118.727 E6.61934
G1 X90.138 Y118.915 E6.63747
G1 X90.558 Y119 E6.65885
G1 X98.458 Y119 E7.05298
G1 X98.798 Y118.948 E7.07014
G1 X99.132 Y118.753 E7.08943
G1 X99.37 Y118.474 E7.10773
G1 X99.477 Y118.107 E7.1268
G1 X99.5 Y117.869 E7.13873
G1 X99.5 Y102.477 E7.90664
G1 X99.494 Y101.943 E7.93328
G1 X99.385 Y101.571 E7.95262
G1 X99.174 Y101.274 E7.9708
G1 X98.861 Y101.085 E7.98904
G1 X98.442 Y101 E8.01037
G1 X90.509 Y101.001 E8.40615
G1 X90.184 Y101.06 E8.42263
G1 X89.868 Y101.247 E8.44095
G1 X89.631 Y101.526 E8.45921
G1 X89.524 Y101.876 E8.47747
G1 X89.5 Y102.131 E8.49025
G0 F1800 X89.88 Y102.169
;TYPE:SKIN
G1 F600 X89.88 Y117.544 E9.25731
G1 X89.913 Y118.101 E9.28515
G1 X90.021 Y118.346 E9.29851
G1 X90.188 Y118.503 E9.30994
G1 X90.592 Y118.62 E9.33093
G1 X98.435 Y118.619 E9.72222
G1 X98.667 Y118.585 E9.73391
G1 X98.946 Y118.407 E9.75042
G1 X99.075 Y118.13 E9.76567
G1 X99.12 Y117.833 E9.78066
G1 X99.118 Y102.182 E10.56149
G1 X99.074 Y101.81 E10.58018
G1 X98.913 Y101.559 E10.59505
G1 X98.641 Y101.41 E10.61053
G1 X98.315 Y101.38 E10.62686
G1 X90.544 Y101.38 E11.01456
G1 X90.318 Y101.423 E11.02603
G1 X90.057 Y101.59 E11.04149
G1 X89.925 Y101.871 E11.05698
G1 X89.88 Y102.169 E11.07202
G0 F1800 X98.185 Y101.579
G1 F600 X98.919 Y102.313 E11.1238
G0 F1800 X98.919 Y102.879
G1 F600 X97.619 Y101.579 E11.21553
G0 F1800 X97.053 Y101.579
G1 F600 X98.919 Y103.444 E11.34715
G0 F1800 X98.919 Y104.01
G1 F600 X96.488 Y101.579 E11.51867
G0 F1800 X95.922 Y101.579
G1 F600 X98.919 Y104.576 E11.73012
G0 F1800 X98.919 Y105.141
G1 F600 X95.356 Y101.579 E11.98148
G0 F1800 X94.791 Y101.579
G1 F600 X98.919 Y105.707 E12.27273
G0 F1800 X98.919 Y106.273
G1 F600 X94.225 Y101.579 E12.60392
G0 F1800 X93.659 Y101.579
G1 F600 X98.919 Y106.838 E12.975
G0 F1800 X98.919 Y107.404
G1 F600 X93.094 Y101.579 E13.38599
G0 F1800 X92.528 Y101.579
G1 F600 X98.919 Y107.97 E13.83691
G0 F1800 X98.919 Y108.535
G1 F600 X91.962 Y101.579 E14.32772
G0 F1800 X91.397 Y101.579
G1 F600 X98.919 Y109.101 E14.85844
G0 F1800 X98.919 Y109.667
G1 F600 X90.831 Y101.579 E15.42909
G0 F1800 X90.339 Y101.652
G1 F600 X98.919 Y110.233 E16.0345
G0 F1800 X98.919 Y110.799
G1 F600 X90.111 Y101.99 E16.65598
G0 F1800 X90.079 Y102.524
G1 F600 X98.919 Y111.365 E17.27973
G0 F1800 X98.919 Y111.93
G1 F600 X90.079 Y103.09 E17.90344
G0 F1800 X90.079 Y103.656
G1 F600 X98.919 Y112.496 E18.52715
G0 F1800 X98.919 Y113.062
G1 F600 X90.079 Y104.221 E19.15089
G0 F1800 X90.079 Y104.787
G1 F600 X98.919 Y113.627 E19.7746
G0 F1800 X98.919 Y114.193
G1 F600 X90.08 Y105.353 E20.39828
G0 F1800 X90.08 Y105.919
G1 F600 X98.919 Y114.759 E21.02195
G0 F1800 X98.919 Y115.324
G1 F600 X90.08 Y106.485 E21.64559
G0 F1800 X90.08 Y107.051
G1 F600 X98.919 Y115.89 E22.26923
G0 F1800 X98.919 Y116.456
G1 F600 X90.08 Y107.616 E22.8929
G0 F1800 X90.08 Y108.182
G1 F600 X98.919 Y117.021 E23.51654
G0 F1800 X98.919 Y117.587
G1 F600 X90.081 Y108.748 E24.14015
G0 F1800 X90.081 Y109.314
G1 F600 X98.864 Y118.098 E24.75987
G0 F1800 X98.574 Y118.373
G1 F600 X90.081 Y109.88 E25.3591
G0 F1800 X90.081 Y110.445
G1 F600 X98.054 Y118.419 E25.92167
G0 F1800 X97.488 Y118.419
G1 F600 X90.081 Y111.011 E26.44431
G0 F1800 X90.081 Y111.577
G1 F600 X96.923 Y118.419 E26.92705
G0 F1800 X96.357 Y118.419
G1 F600 X90.081 Y112.143 E27.36986
G0 F1800 X90.081 Y112.709
G1 F600 X95.791 Y118.419 E27.77273
G0 F1800 X95.226 Y118.419
G1 F600 X90.081 Y113.274 E28.13573
G0 F1800 X90.081 Y113.84
G1 F600 X94.66 Y118.419 E28.45881
G0 F1800 X94.094 Y118.419
G1 F600 X90.081 Y114.406 E28.74195
G0 F1800 X90.082 Y114.972
G1 F600 X93.529 Y118.419 E28.98515
G0 F1800 X92.963 Y118.419
G1 F600 X90.082 Y115.538 E29.18842
G0 F1800 X90.082 Y116.104
G1 F600 X92.397 Y118.419 E29.35176
G0 F1800 X91.831 Y118.419
G1 F600 X90.082 Y116.669 E29.47519
G0 F1800 X90.082 Y117.235
G1 F600 X91.266 Y118.419 E29.55873
G0 F1800 X90.7 Y118.419
G1 F600 X90.082 Y117.801 E29.60233
G1 X90.012 Y117.731
G1 F2700 E24.60233
;MESH:Dr.Stick_B_t3.stl
G0 F1800 X98.483 Y119.571
G0 X98.93 Y120.63
G0 X102.185 Y119.573
G0 X103.28 Y119.573
G0 X103.563 Y121.798
G1 F2700 E29.60233
G0 F1800 X103.052 Y121.81
;TYPE:WALL-OUTER
G1 F600 X103.087 Y122.334 E29.62853
G1 X103.149 Y122.841 E29.65402
G1 X103.257 Y123.381 E29.68149
G1 X103.448 Y124.027 E29.7151
G1 X103.706 Y124.652 E29.74883
G1 X104.02 Y125.248 E29.78244
G1 X104.395 Y125.812 E29.81623
G1 X104.818 Y126.337 E29.84987
G1 X105.331 Y126.858 E29.88635
G1 X105.852 Y127.285 E29.91995
G1 X106.412 Y127.66 E29.95358
G1 X107.007 Y127.982 E29.98733
G1 X107.628 Y128.243 E30.02094
G1 X108.275 Y128.439 E30.05467
G1 X108.937 Y128.577 E30.0884
G1 X109.608 Y128.647 E30.12206
G1 X110.336 Y128.65 E30.15838
G1 X111.007 Y128.585 E30.19201
G1 X111.67 Y128.453 E30.22574
G1 X112.317 Y128.262 E30.2594
G1 X112.942 Y128.004 E30.29313
G1 X113.54 Y127.689 E30.32685
G1 X114.102 Y127.315 E30.36053
G1 X114.627 Y126.892 E30.39417
G1 X115.148 Y126.379 E30.43065
G1 X115.573 Y125.86 E30.46411
G1 X116.119 Y125.001 E30.51489
G1 X116.409 Y124.394 E30.54845
G1 X116.64 Y123.759 E30.58217
G1 X116.806 Y123.105 E30.61583
G1 X116.909 Y122.438 E30.6495
G1 X116.948 Y121.759 E30.68343
G1 X116.948 Y98.307 E31.85346
G1 X116.923 Y97.737 E31.88192
G1 X116.845 Y97.128 E31.91255
G1 X116.74 Y96.63 E31.93794
G1 X116.595 Y96.121 E31.96435
G1 X116.376 Y95.54 E31.99532
G1 X116.143 Y95.044 E32.02266
G1 X115.799 Y94.465 E32.05626
G1 X115.4 Y93.918 E32.09004
G1 X114.951 Y93.416 E32.12364
G1 X114.413 Y92.922 E32.16008
G1 X113.874 Y92.522 E32.19357
G1 X113.294 Y92.172 E32.22737
G1 X112.684 Y91.881 E32.26109
G1 X112.036 Y91.647 E32.29546
G1 X111.395 Y91.484 E32.32846
G1 X110.728 Y91.381 E32.36213
G1 X110.053 Y91.343 E32.39586
G1 X109.459 Y91.367 E32.42552
G1 X108.782 Y91.453 E32.45956
G1 X108.213 Y91.582 E32.48867
G1 X107.713 Y91.737 E32.51479
G1 X107.22 Y91.929 E32.54118
G1 X106.754 Y92.147 E32.56685
G1 X106.175 Y92.491 E32.60045
G1 X105.629 Y92.89 E32.63419
G1 X105.126 Y93.339 E32.66783
G1 X104.632 Y93.877 E32.70427
G1 X104.23 Y94.418 E32.73789
G1 X103.882 Y94.996 E32.77155
G1 X103.591 Y95.606 E32.80527
G1 X103.36 Y96.241 E32.83898
G1 X103.194 Y96.895 E32.87264
G1 X103.091 Y97.562 E32.90632
G1 X103.053 Y98.241 E32.94024
G1 X103.052 Y102.594 E33.15742
G1 X103.052 Y121.81 E34.11611
G0 F1800 X103.065 Y122.009
G0 X103.568 Y121.998
G0 X107.692 Y121.734
G0 X108.203 Y121.715
G1 F600 X108.287 Y121.166 E34.14381
G1 X108.532 Y120.671 E34.17137
G1 X108.92 Y120.272 E34.19914
G1 X109.4 Y120.016 E34.22628
G1 X109.95 Y119.913 E34.25419
G1 X110.382 Y119.954 E34.27584
G1 X110.895 Y120.15 E34.30324
G1 X111.326 Y120.496 E34.33081
G1 X111.635 Y120.961 E34.35867
G1 X111.785 Y121.486 E34.38591
G1 X111.778 Y122 E34.41155
G1 X111.61 Y122.512 E34.43844
G1 X111.29 Y122.963 E34.46603
G1 X111.246 Y123.006 E34.4691
G1 X110.838 Y123.302 E34.49424
G1 X110.313 Y123.482 E34.52193
G1 X109.77 Y123.492 E34.54903
G1 X109.263 Y123.347 E34.57534
G1 X108.779 Y123.031 E34.60418
G1 X108.502 Y122.703 E34.62559
G1 X108.285 Y122.25 E34.65065
G1 X108.203 Y121.715 E34.67766
G0 F1800 X108.233 Y121.518
G0 X107.703 Y121.483
G0 X108.112 Y111.727
G0 X108.481 Y111.374
G1 F600 X108.155 Y110.893 E34.70665
G1 X107.98 Y110.334 E34.73587
G1 X107.968 Y109.754 E34.76481
G1 X108.119 Y109.192 E34.79384
G1 X108.423 Y108.695 E34.82291
G1 X108.856 Y108.302 E34.85208
G1 X109.38 Y108.047 E34.88116
G1 X109.954 Y107.952 E34.91018
G1 X110.533 Y108.024 E34.93929
G1 X111.067 Y108.253 E34.96828
G1 X111.518 Y108.625 E34.99745
G1 X111.844 Y109.106 E35.02644
G1 X112.02 Y109.664 E35.05563
G1 X112.032 Y110.246 E35.08467
G1 X111.881 Y110.808 E35.1137
G1 X111.577 Y111.305 E35.14277
G1 X111.144 Y111.698 E35.17194
G1 X110.62 Y111.953 E35.20102
G1 X110.106 Y112.038 E35.22701
G1 X109.467 Y111.976 E35.25904
G1 X109.308 Y111.914 E35.26755
G1 X108.884 Y111.717 E35.29088
G1 X108.481 Y111.374 E35.31728
G0 F1800 X108.369 Y111.209
G0 X107.956 Y111.539
G0 X107.575 Y110.608
G0 X108.129 Y99.639
G0 X108.536 Y99.332
G1 F600 X108.291 Y98.845 E35.34448
G1 X108.203 Y98.295 E35.37227
G1 X108.287 Y97.746 E35.39997
G1 X108.532 Y97.251 E35.42753
G1 X108.921 Y96.852 E35.45533
G1 X109.4 Y96.596 E35.48243
G1 X109.95 Y96.493 E35.51034
G1 X110.246 Y96.516 E35.52516
G1 X110.73 Y96.648 E35.55018
G1 X111.167 Y96.921 E35.57589
G1 X111.514 Y97.322 E35.60235
G1 X111.738 Y97.827 E35.62991
G1 X111.795 Y98.38 E35.65764
G1 X111.683 Y98.921 E35.68521
G1 X111.412 Y99.404 E35.71284
G1 X111.005 Y99.781 E35.74052
G1 X110.503 Y100.016 E35.76817
G1 X109.957 Y100.087 E35.79564
G1 X109.411 Y99.989 E35.82331
G1 X108.922 Y99.73 E35.85092
G1 X108.536 Y99.332 E35.87858
G0 F1800 X108.447 Y99.154
G0 X107.996 Y99.435
G0 X107.693 Y98.355
G0 X107.807 Y98.352
;TYPE:WALL-INNER
G1 F600 X107.874 Y97.783 E35.90717
G1 X107.951 Y97.506 E35.92151
G1 X108.195 Y97.033 E35.94806
G1 X108.64 Y96.568 E35.98017
G1 X109.217 Y96.24 E36.01329
G1 X109.884 Y96.099 E36.0473
G1 X110.296 Y96.116 E36.06787
G1 X110.83 Y96.254 E36.09539
G1 X111.281 Y96.519 E36.12148
G1 X111.499 Y96.687 E36.13521
G1 X111.847 Y97.097 E36.16204
G1 X112.107 Y97.671 E36.19348
G1 X112.193 Y98.346 E36.22743
G1 X112.073 Y99.009 E36.26104
G1 X111.758 Y99.605 E36.29468
G1 X111.271 Y100.079 E36.32858
G1 X110.73 Y100.352 E36.35881
G1 X110.489 Y100.43 E36.37145
G1 X109.99 Y100.486 E36.3965
G1 X109.333 Y100.381 E36.4297
G1 X108.729 Y100.08 E36.46337
G1 X108.244 Y99.606 E36.4972
G1 X107.931 Y99.019 E36.53039
G1 X107.807 Y98.352 E36.56423
G0 F1800 X107.693 Y98.355
G0 X103.561 Y98.665
G0 X103.453 Y98.664
G1 F600 X103.452 Y102.594 E36.7603
G1 X103.452 Y121.801 E37.71854
G1 X103.51 Y122.551 E37.75607
G1 X103.617 Y123.145 E37.78619
G1 X103.794 Y123.786 E37.81936
G1 X104.029 Y124.387 E37.85156
G1 X104.255 Y124.837 E37.87668
G1 X104.569 Y125.353 E37.90681
G1 X105.049 Y125.986 E37.94645
G1 X105.519 Y126.479 E37.98043
G1 X105.932 Y126.833 E38.00757
G1 X106.505 Y127.241 E38.04266
G1 X106.947 Y127.495 E38.06809
G1 X107.637 Y127.813 E38.106
G1 X108.278 Y128.022 E38.13964
G1 X108.768 Y128.133 E38.1647
G1 X109.524 Y128.235 E38.20276
G1 X110.208 Y128.25 E38.23689
G1 X110.728 Y128.211 E38.26291
G1 X111.477 Y128.084 E38.30081
G1 X112.075 Y127.916 E38.3318
G1 X112.615 Y127.707 E38.36069
G1 X113.235 Y127.398 E38.39525
G1 X113.783 Y127.047 E38.42772
G1 X114.232 Y126.697 E38.45612
G1 X114.769 Y126.19 E38.49296
G1 X115.165 Y125.727 E38.52336
G1 X115.482 Y125.257 E38.55164
G1 X115.769 Y124.807 E38.57827
G1 X116.039 Y124.239 E38.60965
G1 X116.257 Y123.641 E38.6414
G1 X116.414 Y123.025 E38.67312
G1 X116.511 Y122.396 E38.70487
G1 X116.544 Y121.81 E38.73415
G1 X116.548 Y120.664 E38.79132
G1 X116.548 Y98.307 E39.90672
G1 X116.523 Y97.758 E39.93414
G1 X116.449 Y97.186 E39.96291
G1 X116.303 Y96.527 E39.99659
G1 X116.097 Y95.911 E40.02899
G1 X115.891 Y95.447 E40.05432
G1 X115.612 Y94.934 E40.08345
G1 X115.229 Y94.363 E40.11776
G1 X114.777 Y93.822 E40.15293
G1 X114.385 Y93.439 E40.18027
G1 X113.991 Y93.106 E40.20601
G1 X113.562 Y92.801 E40.23227
G1 X113.104 Y92.525 E40.25895
G1 X112.53 Y92.251 E40.29068
G1 X111.918 Y92.03 E40.32314
G1 X111.315 Y91.876 E40.35419
G1 X110.686 Y91.779 E40.38594
G1 X110.051 Y91.743 E40.41767
G1 X109.365 Y91.773 E40.45193
G1 X108.84 Y91.849 E40.4784
G1 X108.309 Y91.97 E40.50557
G1 X107.621 Y92.194 E40.54166
G1 X107.036 Y92.457 E40.57366
G1 X106.54 Y92.738 E40.6021
G1 X105.967 Y93.138 E40.63697
G1 X105.488 Y93.552 E40.66855
G1 X105.065 Y93.996 E40.69915
G1 X104.745 Y94.395 E40.72467
G1 X104.376 Y94.952 E40.758
G1 X104.049 Y95.575 E40.7931
G1 X103.84 Y96.09 E40.82083
G1 X103.638 Y96.771 E40.85627
G1 X103.511 Y97.46 E40.89122
G1 X103.467 Y97.988 E40.91766
G1 X103.453 Y98.664 E40.95139
G0 F1800 X103.561 Y98.665
G0 X107.63 Y109.041
G0 X107.734 Y109.082
G1 F600 X108.085 Y108.481 E40.98611
G1 X108.592 Y108.002 E41.02091
G1 X109.21 Y107.685 E41.05556
G1 X109.894 Y107.556 E41.09029
G1 X110.589 Y107.628 E41.12515
G1 X111.229 Y107.887 E41.15959
G1 X111.777 Y108.321 E41.19447
G1 X112.178 Y108.886 E41.22903
G1 X112.403 Y109.549 E41.26396
G1 X112.432 Y110.243 E41.29862
G1 X112.266 Y110.918 E41.3333
G1 X111.915 Y111.519 E41.36802
G1 X111.408 Y111.998 E41.40282
G1 X110.79 Y112.315 E41.43747
G1 X110.166 Y112.434 E41.46916
G1 X109.787 Y112.425 E41.48808
G1 X109.252 Y112.326 E41.51522
G1 X109.146 Y112.28 E41.52099
G1 X108.625 Y112.022 E41.54999
G1 X108.222 Y111.678 E41.57643
G1 X107.821 Y111.113 E41.61099
G1 X107.596 Y110.448 E41.64602
G1 X107.568 Y109.757 E41.68052
G1 X107.734 Y109.082 E41.7152
G0 F1800 X107.63 Y109.041
G0 X107.529 Y109.931
G0 X108.084 Y120.427
G0 X108.176 Y120.488
G1 F600 X108.638 Y119.988 E41.74916
G1 X109.218 Y119.66 E41.7824
G1 X109.884 Y119.519 E41.81637
G1 X110.435 Y119.554 E41.84391
G1 X110.978 Y119.745 E41.87263
G1 X111.529 Y120.135 E41.90631
G1 X111.937 Y120.678 E41.94019
G1 X112.159 Y121.312 E41.97371
G1 X112.18 Y121.974 E42.00675
G1 X112.101 Y122.307 E42.02383
G1 X111.904 Y122.805 E42.05055
G1 X111.586 Y123.233 E42.07715
G1 X111.481 Y123.33 E42.08428
G1 X111.054 Y123.639 E42.11057
G1 X110.439 Y123.862 E42.14321
G1 X109.77 Y123.892 E42.17662
G1 X109.145 Y123.729 E42.20885
G1 X108.957 Y123.641 E42.2192
G1 X108.512 Y123.331 E42.24626
G1 X108.183 Y122.948 E42.27145
G1 X107.931 Y122.44 E42.29974
G1 X107.807 Y121.772 E42.33364
G1 X107.893 Y121.098 E42.36753
G1 X108.176 Y120.488 E42.40108
G0 F1800 X108.084 Y120.427
G0 X107.405 Y121.785
G1 F600 X107.415 Y121.515 E42.41456
G1 X107.499 Y121.03 E42.43912
G1 X107.595 Y120.743 E42.45422
G1 X107.82 Y120.306 E42.47874
G1 X108.005 Y120.052 E42.49442
G1 X108.478 Y119.601 E42.52702
G1 X109.035 Y119.304 E42.55852
G1 X109.443 Y119.187 E42.57969
G1 X109.964 Y119.111 E42.60596
G1 X110.516 Y119.162 E42.63362
G1 X111.114 Y119.369 E42.66519
G1 X111.385 Y119.518 E42.68062
G1 X111.774 Y119.819 E42.70516
