;FLAVOR:Marlin
;TIME:109
;Filament used: 0.0524866m
;Layer height: 0.2
;MINX:94.944
;MINY:101.618
;MINZ:0.3
;MAXX:125.047
;MAXY:125.044
;MAXZ:1.1
;Generated with Cura_SteamEngine 5.0.0
M140 S40
M105
M190 S40
M104 S210
M105
M109 S210
M82 ;absolute extrusion mode
G28 ;Home
G1 Z15.0 F6000 ;Move the platform down 15mm
;Prime the extruder
G92 E0
G1 F200 E3
G92 E0
G92 E0
G92 E0
;LAYER_COUNT:5
;LAYER:0
M107
G0 F3600 X103.792 Y104.349 Z0.3
G0 X100.576 Y107.692
;TYPE:SKIRT
G1 F600 X102.471 Y105.762 E0.13494
G1 X103.792 Y104.349 E0.23145
G1 X104.354 Y103.806 E0.27043
G1 X104.772 Y103.448 E0.29789
G1 X105.294 Y103.06 E0.33034
G1 X106.006 Y102.624 E0.37199
G1 X106.519 Y102.373 E0.40049
G1 X107.255 Y102.082 E0.43997
G1 X107.981 Y101.868 E0.47773
G1 X108.865 Y101.696 E0.52266
G1 X109.429 Y101.638 E0.55095
G1 X109.977 Y101.618 E0.57831
G1 X110.569 Y101.637 E0.60786
G1 X111.478 Y101.742 E0.65351
G1 X111.98 Y101.849 E0.67912
G1 X112.823 Y102.102 E0.72303
G1 X113.604 Y102.426 E0.76521
G1 X114.05 Y102.66 E0.79034
G1 X114.751 Y103.095 E0.8315
G1 X115.233 Y103.453 E0.86145
G1 X115.97 Y104.111 E0.91074
G1 X116.876 Y105.083 E0.97704
G1 X118.744 Y107.031 E1.11169
G1 X120.703 Y108.962 E1.24892
G1 X122.575 Y110.716 E1.3769
G1 X123.075 Y111.253 E1.41351
G1 X123.395 Y111.667 E1.43962
G1 X123.864 Y112.374 E1.48194
G1 X124.143 Y112.88 E1.51077
G1 X124.451 Y113.557 E1.54788
G1 X124.753 Y114.464 E1.59557
G1 X124.918 Y115.226 E1.63447
G1 X124.996 Y115.795 E1.66312
G1 X125.047 Y116.683 E1.7075
G1 X124.991 Y117.61 E1.75383
G1 X124.917 Y118.105 E1.7788
G1 X124.805 Y118.629 E1.80553
G1 X124.667 Y119.127 E1.83131
G1 X124.484 Y119.654 E1.85915
G1 X124.273 Y120.157 E1.88636
G1 X124.026 Y120.655 E1.91409
G1 X123.556 Y121.426 E1.95914
G1 X122.997 Y122.156 E2.00501
G1 X122.374 Y122.798 E2.04964
G1 X121.843 Y123.246 E2.0843
G1 X121.349 Y123.607 E2.11483
G1 X120.912 Y123.883 E2.14062
G1 X120.216 Y124.247 E2.1798
G1 X119.708 Y124.465 E2.20738
G1 X118.999 Y124.713 E2.24485
G1 X118.226 Y124.901 E2.28454
G1 X117.61 Y124.993 E2.31562
G1 X116.588 Y125.044 E2.36667
G1 X112.871 Y124.879 E2.55229
G1 X110.185 Y124.833 E2.68632
G1 X107.475 Y124.865 E2.82153
G1 X103.678 Y125.035 E3.01115
G1 X103.08 Y125.036 E3.04099
G1 X102.297 Y124.976 E3.08017
G1 X101.553 Y124.845 E3.11785
G1 X100.926 Y124.68 E3.1502
G1 X100.393 Y124.501 E3.17825
G1 X99.827 Y124.265 E3.20885
G1 X99.145 Y123.914 E3.24711
G1 X98.625 Y123.588 E3.27773
G1 X98.2 Y123.277 E3.30401
G1 X97.698 Y122.858 E3.33663
G1 X97.117 Y122.287 E3.37727
G1 X96.582 Y121.628 E3.41962
G1 X96.127 Y120.938 E3.46085
G1 X95.848 Y120.432 E3.48968
G1 X95.535 Y119.743 E3.52744
G1 X95.234 Y118.832 E3.5753
G1 X95.074 Y118.096 E3.61288
G1 X94.993 Y117.506 E3.64259
G1 X94.944 Y116.656 E3.68507
G1 X94.993 Y115.772 E3.72924
G1 X95.171 Y114.75 E3.78099
G1 X95.313 Y114.223 E3.80822
G1 X95.491 Y113.697 E3.83593
G1 X95.855 Y112.862 E3.88137
G1 X96.146 Y112.332 E3.91154
G1 X96.43 Y111.893 E3.93762
G1 X96.982 Y111.169 E3.98304
G1 X97.454 Y110.667 E4.01742
G1 X98.594 Y109.596 E4.09546
G1 X100.576 Y107.692 E4.23258
G0 F3600 X96.149 Y116.333
G1 F600 X96.251 Y115.446 E4.27712
G1 X96.471 Y114.535 E4.32388
G1 X96.787 Y113.7 E4.36842
G1 X97.061 Y113.149 E4.39912
G1 X97.404 Y112.594 E4.43167
G1 X97.875 Y111.97 E4.47067
G1 X98.275 Y111.541 E4.49994
G1 X99.441 Y110.446 E4.57974
G1 X101.432 Y108.532 E4.71752
G1 X103.336 Y106.594 E4.85307
G1 X104.669 Y105.168 E4.95045
G1 X105.179 Y104.678 E4.98574
G1 X105.701 Y104.245 E5.01957
G1 X106.278 Y103.852 E5.0544
G1 X106.975 Y103.483 E5.09375
G1 X107.633 Y103.221 E5.12908
G1 X108.234 Y103.041 E5.16038
G1 X109.009 Y102.887 E5.1998
G1 X109.76 Y102.822 E5.23741
G1 X110.466 Y102.833 E5.27264
G1 X111.246 Y102.919 E5.31179
G1 X111.876 Y103.062 E5.34402
G1 X112.451 Y103.243 E5.37409
G1 X113.11 Y103.52 E5.40976
G1 X113.842 Y103.934 E5.45171
G1 X114.278 Y104.231 E5.47803
G1 X114.796 Y104.65 E5.51127
G1 X115.092 Y104.929 E5.53157
G1 X116.006 Y105.909 E5.59842
G1 X117.9 Y107.885 E5.73498
G1 X119.849 Y109.806 E5.87151
G1 X121.755 Y111.592 E6.00182
G1 X122.172 Y112.045 E6.03254
G1 X122.687 Y112.755 E6.0763
G1 X122.967 Y113.223 E6.10351
G1 X123.206 Y113.696 E6.12995
G1 X123.465 Y114.344 E6.16476
G1 X123.686 Y115.169 E6.20737
G1 X123.775 Y115.688 E6.23364
G1 X123.836 Y116.301 E6.26438
G1 X123.838 Y117.035 E6.301
G1 X123.73 Y117.927 E6.34582
G1 X123.511 Y118.807 E6.39107
G1 X123.167 Y119.693 E6.43848
G1 X122.752 Y120.462 E6.48208
G1 X122.34 Y121.063 E6.51843
G1 X121.852 Y121.632 E6.55583
G1 X121.297 Y122.144 E6.5935
G1 X120.853 Y122.489 E6.62155
G1 X120.32 Y122.84 E6.65339
G1 X119.743 Y123.145 E6.68595
G1 X119.235 Y123.363 E6.71353
G1 X118.634 Y123.57 E6.74525
G1 X117.975 Y123.727 E6.77904
G1 X117.464 Y123.802 E6.80481
G1 X116.55 Y123.844 E6.85046
G1 X112.909 Y123.68 E7.03229
G1 X110.157 Y123.634 E7.16961
G1 X107.437 Y123.665 E7.30532
G1 X103.455 Y123.839 E7.50417
G1 X102.793 Y123.82 E7.53721
G1 X102.091 Y123.731 E7.57252
G1 X101.578 Y123.617 E7.59873
G1 X101.048 Y123.46 E7.62631
G1 X100.307 Y123.165 E7.6661
G1 X99.761 Y122.884 E7.69674
G1 X99.318 Y122.609 E7.72275
G1 X98.685 Y122.127 E7.76245
G1 X98.247 Y121.73 E7.79194
G1 X97.812 Y121.26 E7.82389
G1 X97.3 Y120.55 E7.86756
G1 X97.024 Y120.089 E7.89437
G1 X96.784 Y119.614 E7.92092
G1 X96.52 Y118.951 E7.95652
G1 X96.304 Y118.138 E7.99849
G1 X96.216 Y117.63 E8.02421
G1 X96.154 Y117.004 E8.05559
G1 X96.149 Y116.333 E8.08907
G0 F3600 X95.75 Y116.326
G1 F600 X95.855 Y115.39 E8.13606
G1 X96.085 Y114.431 E8.18526
G1 X96.417 Y113.548 E8.23233
G1 X96.707 Y112.962 E8.26495
G1 X97.079 Y112.36 E8.30025
G1 X97.578 Y111.703 E8.34141
G1 X98.002 Y111.25 E8.37237
G1 X99.137 Y110.184 E8.45005
G1 X101.135 Y108.263 E8.58833
G1 X103.04 Y106.324 E8.72395
G1 X104.376 Y104.895 E8.82154
G1 X104.904 Y104.387 E8.8581
G1 X105.467 Y103.921 E8.89456
G1 X106.079 Y103.505 E8.93148
G1 X106.823 Y103.113 E8.97343
G1 X107.507 Y102.841 E9.01016
G1 X108.15 Y102.65 E9.04362
G1 X108.961 Y102.49 E9.08486
G1 X109.471 Y102.437 E9.11044
G1 X110.5 Y102.434 E9.16178
G1 X111.324 Y102.527 E9.20315
G1 X111.977 Y102.675 E9.23656
G1 X112.575 Y102.863 E9.26783
G1 X113.274 Y103.155 E9.30562
G1 X114.048 Y103.59 E9.34992
G1 X114.509 Y103.905 E9.37778
G1 X115.052 Y104.342 E9.41255
G1 X115.385 Y104.657 E9.43542
G1 X116.265 Y105.601 E9.4998
G1 X118.187 Y107.606 E9.63837
G1 X120.14 Y109.531 E9.77518
G1 X122.028 Y111.3 E9.90426
G1 X122.473 Y111.781 E9.93695
G1 X123.017 Y112.529 E9.9831
G1 X123.314 Y113.024 E10.0119
G1 X123.565 Y113.52 E10.03963
G1 X123.839 Y114.203 E10.07634
G1 X124.075 Y115.078 E10.12156
G1 X124.171 Y115.627 E10.14936
G1 X124.234 Y116.267 E10.18145
G1 X124.238 Y117.044 E10.22021
G1 X124.125 Y117.986 E10.26755
G1 X123.896 Y118.913 E10.31518
G1 X123.536 Y119.848 E10.36517
G1 X123.099 Y120.662 E10.41126
G1 X122.665 Y121.296 E10.44959
G1 X122.148 Y121.901 E10.4893
G1 X121.56 Y122.446 E10.5293
G1 X121.094 Y122.809 E10.55877
G1 X120.518 Y123.188 E10.59316
G1 X119.901 Y123.512 E10.62793
G1 X119.393 Y123.73 E10.65551
G1 X118.756 Y123.951 E10.68915
G1 X118.059 Y124.118 E10.72491
G1 X117.513 Y124.199 E10.75245
G1 X116.563 Y124.244 E10.7999
G1 X112.885 Y124.079 E10.98358
G1 X110.19 Y124.033 E11.11805
G1 X107.429 Y124.066 E11.25581
G1 X103.451 Y124.239 E11.45446
G1 X102.753 Y124.218 E11.4893
G1 X102.01 Y124.123 E11.52667
G1 X101.469 Y124.002 E11.55432
G1 X100.914 Y123.837 E11.58321
G1 X100.429 Y123.655 E11.60906
G1 X99.934 Y123.431 E11.63616
G1 X99.32 Y123.086 E11.6713
G1 X98.882 Y122.79 E11.69767
G1 X98.434 Y122.438 E11.7261
G1 X97.975 Y122.023 E11.75697
G1 X97.512 Y121.524 E11.79093
G1 X96.969 Y120.776 E11.83704
G1 X96.677 Y120.288 E11.86542
G1 X96.425 Y119.79 E11.89326
G1 X96.146 Y119.091 E11.93081
G1 X95.915 Y118.229 E11.97533
G1 X95.821 Y117.692 E12.00253
G1 X95.756 Y117.038 E12.03532
G1 X95.75 Y116.326 E12.07084
G0 F3600 X95.344 Y116.663
G1 F600 X95.389 Y115.828 E12.11256
G1 X95.557 Y114.854 E12.16187
G1 X95.699 Y114.327 E12.1891
G1 X95.861 Y113.849 E12.21428
G1 X96.209 Y113.049 E12.25781
G1 X96.486 Y112.542 E12.28663
G1 X97.01 Y111.771 E12.33314
G1 X97.488 Y111.204 E12.37014
G1 X97.728 Y110.958 E12.38728
G1 X98.863 Y109.892 E12.46497
G1 X100.855 Y107.977 E12.60282
G1 X102.765 Y106.032 E12.73883
G1 X104.084 Y104.622 E12.83515
G1 X104.629 Y104.097 E12.87291
G1 X105.026 Y103.756 E12.89902
G1 X105.527 Y103.385 E12.93012
G1 X106.205 Y102.971 E12.96975
G1 X106.671 Y102.743 E12.99563
G1 X107.381 Y102.462 E13.03373
G1 X108.065 Y102.259 E13.06932
G1 X108.913 Y102.093 E13.11243
G1 X109.45 Y102.037 E13.13937
G1 X109.973 Y102.018 E13.16548
G1 X110.535 Y102.036 E13.19353
G1 X111.401 Y102.134 E13.23701
G1 X112.078 Y102.288 E13.27165
G1 X112.699 Y102.483 E13.30413
G1 X113.439 Y102.791 E13.34411
G1 X114.253 Y103.247 E13.39066
G1 X114.741 Y103.579 E13.42011
G1 X115.307 Y104.035 E13.45637
G1 X115.677 Y104.384 E13.48175
G1 X116.554 Y105.324 E13.54589
G1 X118.474 Y107.327 E13.68431
G1 X120.412 Y109.237 E13.82006
G1 X122.302 Y111.008 E13.94928
G1 X122.774 Y111.517 E13.98392
G1 X123.346 Y112.303 E14.03241
G1 X123.661 Y112.824 E14.06279
G1 X123.925 Y113.344 E14.09188
G1 X124.214 Y114.062 E14.1305
G1 X124.363 Y114.555 E14.15619
G1 X124.523 Y115.288 E14.19362
G1 X124.598 Y115.83 E14.22092
G1 X124.647 Y116.674 E14.2631
G1 X124.595 Y117.55 E14.30688
G1 X124.521 Y118.045 E14.33185
G1 X124.282 Y119.02 E14.38193
G1 X124.116 Y119.499 E14.40722
G1 X123.905 Y120.002 E14.43444
G1 X123.68 Y120.455 E14.45967
G1 X123.231 Y121.193 E14.50277
G1 X122.701 Y121.887 E14.54634
G1 X122.111 Y122.496 E14.58864
G1 X121.603 Y122.926 E14.62184
G1 X121.129 Y123.273 E14.65115
G1 X120.454 Y123.684 E14.69058
G1 X119.55 Y124.098 E14.74018
G1 X118.877 Y124.332 E14.77573
G1 X118.142 Y124.509 E14.81345
G1 X117.561 Y124.596 E14.84276
G1 X116.575 Y124.644 E14.89201
G1 X115.616 Y124.604 E14.93989
G1 X112.86 Y124.479 E15.07753
G1 X110.188 Y124.433 E15.21086
G1 X107.452 Y124.465 E15.34737
G1 X103.66 Y124.635 E15.53674
G1 X103.083 Y124.636 E15.56553
G1 X102.338 Y124.578 E15.60281
G1 X101.634 Y124.454 E15.63847
G1 X101.035 Y124.295 E15.66939
G1 X100.527 Y124.124 E15.69613
G1 X99.987 Y123.898 E15.72534
G1 X99.35 Y123.571 E15.76106
G1 X98.856 Y123.262 E15.79013
G1 X98.451 Y122.965 E15.81519
G1 X97.97 Y122.565 E15.8464
G1 X97.418 Y122.024 E15.88496
G1 X96.913 Y121.403 E15.92489
G1 X96.474 Y120.739 E15.9646
G1 X96.208 Y120.256 E15.99211
G1 X95.91 Y119.604 E16.02788
G1 X95.623 Y118.741 E16.07325
G1 X95.469 Y118.034 E16.10935
G1 X95.391 Y117.472 E16.13766
G1 X95.344 Y116.663 E16.17809
;MESH:b003-TPU.stl
G0 F3600 X100.976 Y112.625
G0 X101.831 Y112.235
G0 X105.621 Y111.605
G0 X106.638 Y111.203
G0 X106.238 Y110.51
;TYPE:WALL-OUTER
G1 F600 X106.339 Y111.01 E16.20354
G1 X106.507 Y111.487 E16.22877
G1 X106.805 Y112.051 E16.26059
G1 X107.122 Y112.476 E16.28704
G1 X107.563 Y112.91 E16.31791
G1 X107.974 Y113.211 E16.34333
G1 X108.439 Y113.462 E16.36969
G1 X109.024 Y113.668 E16.40063
G1 X109.525 Y113.767 E16.42611
G1 X110.057 Y113.799 E16.4527
G1 X110.952 Y113.677 E16.49777
G1 X111.549 Y113.469 E16.52931
G1 X111.998 Y113.231 E16.55466
G1 X112.414 Y112.932 E16.58022
G1 X112.785 Y112.582 E16.60567
G1 X113.106 Y112.185 E16.63114
G1 X113.371 Y111.75 E16.65655
G1 X113.58 Y111.269 E16.68271
G1 X113.718 Y110.764 E16.70883
G1 X113.791 Y110.266 E16.73394
G1 X113.784 Y109.687 E16.76283
G1 X113.677 Y109.058 E16.79466
G1 X113.466 Y108.453 E16.82663
G1 X113.226 Y108 E16.85221
G1 X112.929 Y107.584 E16.87771
G1 X112.579 Y107.215 E16.90308
G1 X112.187 Y106.898 E16.92823
G1 X111.733 Y106.622 E16.95474
G1 X111.221 Y106.41 E16.98239
G1 X110.538 Y106.243 E17.01746
G1 X110.036 Y106.204 E17.04258
G1 X109.523 Y106.233 E17.06822
G1 X109.021 Y106.333 E17.09376
G1 X108.543 Y106.495 E17.11894
G1 X107.974 Y106.788 E17.15087
G1 X107.559 Y107.09 E17.17647
G1 X107.196 Y107.439 E17.2016
G1 X106.806 Y107.949 E17.23363
G1 X106.559 Y108.397 E17.25915
G1 X106.375 Y108.874 E17.28466
G1 X106.257 Y109.366 E17.3099
G1 X106.205 Y109.89 E17.33617
G1 X106.238 Y110.51 E17.36714
G0 F3600 X106.277 Y110.706
G0 X107.198 Y110.927
G1 F600 X107.094 Y110.402 E17.39385
G1 X107.056 Y110.172 E17.40548
G1 X107.09 Y109.507 E17.4387
G1 X107.252 Y108.928 E17.46869
G1 X107.481 Y108.466 E17.49442
G1 X107.787 Y108.053 E17.52006
G1 X108.166 Y107.691 E17.54621
G1 X108.665 Y107.369 E17.57584
G1 X109.249 Y107.158 E17.60682
G1 X110.04 Y107.053 E17.64663
G1 X110.35 Y107.073 E17.66212
G1 X110.97 Y107.214 E17.69385
G1 X111.627 Y107.54 E17.73044
G1 X112.17 Y108.003 E17.76604
G1 X112.51 Y108.455 E17.79426
G1 X112.783 Y109.022 E17.82565
G1 X112.911 Y109.527 E17.85164
G1 X112.949 Y110.092 E17.8799
G1 X112.889 Y110.603 E17.90556
G1 X112.717 Y111.153 E17.93431
G1 X112.377 Y111.748 E17.9685
G1 X112.044 Y112.129 E17.99375
G1 X111.494 Y112.543 E18.02809
G1 X110.836 Y112.828 E18.06387
G1 X110.32 Y112.931 E18.09012
G1 X109.638 Y112.928 E18.12414
G1 X108.957 Y112.759 E18.15915
G1 X108.427 Y112.483 E18.18896
G1 X108.152 Y112.281 E18.20599
G1 X107.773 Y111.938 E18.23149
G1 X107.439 Y111.462 E18.2605
G1 X107.198 Y110.927 E18.28977
G0 F3600 X107.16 Y110.731
G0 X106.669 Y110.483
;TYPE:WALL-INNER
G1 F528.6 X106.798 Y111.058 E18.32314
G1 F545.5 X107.036 Y111.597 E18.35548
G1 F544.2 X107.412 Y112.16 E18.39272
G1 F528.6 X107.863 Y112.601 E18.42843
G1 F519.5 X108.225 Y112.862 E18.45415
G1 F529.8 X108.714 Y113.114 E18.48523
G1 F536.9 X109.502 Y113.333 E18.53083
G1 F524 X110.039 Y113.364 E18.56156
G1 F522.9 X110.853 Y113.262 E18.60852
G1 X111.376 Y113.07 E18.64042
G1 F520.6 X111.772 Y112.868 E18.66598
G1 F535.7 X112.28 Y112.479 E18.70173
G1 F544.2 X112.667 Y112.061 E18.73306
G1 F531 X112.987 Y111.551 E18.767
G1 F520.6 X113.175 Y111.125 E18.79378
G1 F534.5 X113.312 Y110.644 E18.82179
G1 F545.5 X113.369 Y110.086 E18.85257
G1 F532.2 X113.353 Y109.691 E18.87481
G1 F522.9 X113.256 Y109.132 E18.90729
G1 X113.061 Y108.598 E18.93983
G1 F525.2 X112.852 Y108.202 E18.96535
G1 F534.5 X112.539 Y107.784 E18.9946
G1 F536.9 X111.946 Y107.247 E19.0392
G1 F524 X111.511 Y106.995 E19.06792
G1 F519.5 X111.007 Y106.785 E19.09938
G1 F529.8 X110.43 Y106.656 E19.13279
G1 F531 X110 Y106.629 E19.15708
G1 F535.7 X109.343 Y106.697 E19.19398
G1 F532.2 X108.684 Y106.901 E19.23279
G1 F519.5 X108.174 Y107.17 E19.26601
G1 F521.7 X107.815 Y107.434 E19.29158
G1 F533.3 X107.416 Y107.836 E19.32337
G1 F539.3 X107.096 Y108.285 E19.35397
G1 X106.862 Y108.765 E19.38361
G1 F540.5 X106.691 Y109.359 E19.41784
G1 F528.6 X106.635 Y109.929 E19.45027
G1 F516.1 X106.669 Y110.483 E19.48246
;MESH:b003-TPU.stl(1)
G0 F3600 X106.575 Y110.492
G0 X110.049 Y113.35
G0 X110.857 Y114.586
G0 X112.152 Y115.462
G0 X113.204 Y115.768
G0 X113.387 Y116.962
G0 X112.884 Y117.004
;TYPE:WALL-OUTER
G1 F600 X112.977 Y117.58 E19.51157
G1 X113.133 Y118.064 E19.53694
G1 X113.352 Y118.523 E19.56232
G1 X113.632 Y118.948 E19.58771
G1 X113.966 Y119.335 E19.61321
G1 X114.352 Y119.674 E19.63884
G1 X114.77 Y119.953 E19.66391
G1 X115.225 Y120.173 E19.68913
G1 X115.719 Y120.338 E19.71511
G1 X116.215 Y120.431 E19.74029
G1 X116.733 Y120.449 E19.76615
G1 X117.349 Y120.377 E19.79709
G1 X117.677 Y120.315 E19.81374
G1 X118.356 Y120.059 E19.84995
G1 X118.794 Y119.804 E19.87523
G1 X119.195 Y119.49 E19.90064
G1 X119.635 Y119.024 E19.93262
G1 X119.924 Y118.604 E19.95805
G1 X120.153 Y118.157 E19.98311
G1 X120.326 Y117.657 E20.0095
G1 X120.426 Y117.139 E20.03582
G1 X120.455 Y116.562 E20.06465
G1 X120.409 Y116.053 E20.09015
G1 X120.294 Y115.561 E20.11535
G1 X120.094 Y115.056 E20.14245
G1 X119.804 Y114.531 E20.17237
G1 X119.4 Y114.032 E20.20441
G1 X119.022 Y113.686 E20.22997
G1 X118.603 Y113.399 E20.25531
G1 X118.149 Y113.169 E20.2807
G1 X117.664 Y113 E20.30632
G1 X117.17 Y112.899 E20.33148
G1 X116.614 Y112.87 E20.35926
G1 X115.914 Y112.937 E20.39434
G1 X115.405 Y113.077 E20.42068
G1 X114.899 Y113.304 E20.44834
G1 X114.403 Y113.608 E20.47737
G1 X114.024 Y113.942 E20.50257
G1 X113.606 Y114.409 E20.53384
G1 X113.322 Y114.854 E20.56018
G1 X113.104 Y115.35 E20.58721
G1 X112.934 Y115.934 E20.61755
G1 X112.869 Y116.457 E20.64385
G1 X112.884 Y117.004 E20.67115
G0 F3600 X112.915 Y117.201
G0 X113.406 Y117.127
G0 X113.224 Y116.274
G0 X113.732 Y116.311
