;FLAVOR:Marlin
;TIME:6943
;Filament used: 4.17765m
;Layer height: 0.18
;MINX:74.885
;MINY:75.54
;MINZ:0.216
;MAXX:146.233
;MAXY:146.867
;MAXZ:13.416
;Generated with Cura_SteamEngine 5.0.0
M140 S100
M105
M190 S100
M104 S250
M105
M109 S250
M82 ;absolute extrusion mode
G28 ;Home
G1 Z15.0 F6000 ;Move the platform down 15mm
;Prime the extruder
G92 E0
G1 F200 E3
G92 E0
G92 E0
G92 E0
G1 F2700 E-5
;LAYER_COUNT:69
;LAYER:-6
M107
G0 F9000 X89.717 Y77.468 Z0.216
;TYPE:SUPPORT-INTERFACE
G1 F2700 E0
G1 F900 X89.414 Y77.956 E0.04127
G1 X89.17 Y78.485 E0.08312
G1 X88.998 Y79.037 E0.12466
G1 X88.891 Y79.622 E0.16738
G1 X88.817 Y80.38 E0.2221
G1 X88.675 Y81.044 E0.27088
G1 X88.449 Y81.687 E0.31984
G1 X88.145 Y82.301 E0.36906
G1 X87.761 Y82.876 E0.41874
G1 X87.316 Y83.384 E0.46726
G1 X86.808 Y83.838 E0.5162
G1 X86.247 Y84.222 E0.56504
G1 X85.548 Y84.567 E0.62104
G1 X84.895 Y84.916 E0.67424
G1 X84.425 Y85.257 E0.71595
G1 X84.038 Y85.602 E0.7532
G1 X82.304 Y87.336 E0.92937
G1 X81.924 Y87.754 E0.96996
G1 X81.606 Y88.162 E1.00712
G1 X81.27 Y88.713 E1.05349
G1 X81.041 Y89.241 E1.09483
G1 X80.888 Y89.76 E1.1337
G1 X80.79 Y90.376 E1.17852
G1 X80.755 Y90.976 E1.22169
G1 X80.754 Y92.772 E1.35072
G1 X80.751 Y94.908 E1.50418
G1 X80.658 Y95.893 E1.57526
G1 X80.49 Y96.553 E1.62418
G1 X80.241 Y97.187 E1.67312
G1 X79.911 Y97.787 E1.72231
G1 X79.509 Y98.34 E1.77143
G1 X79.086 Y98.792 E1.8159
G1 X78.722 Y99.154 E1.85278
G1 X78.342 Y99.578 E1.89369
G1 X78.028 Y100.032 E1.93335
G1 X77.756 Y100.572 E1.97678
G1 X77.554 Y101.064 E2.01499
G1 X77.345 Y101.575 E2.05466
G1 X77.069 Y102.101 E2.09733
G1 X76.692 Y102.644 E2.14482
G1 X76.249 Y103.134 E2.19228
G1 X75.909 Y103.535 E2.23005
G1 X75.556 Y104.042 E2.27443
G1 X75.283 Y104.574 E2.31739
G1 X75.084 Y105.123 E2.35934
G1 X74.964 Y105.656 E2.39859
G1 X74.9 Y106.231 E2.44016
G1 X74.885 Y107.252 E2.51351
G1 X74.885 Y113.479 E2.96087
G1 X74.95 Y114.131 E3.00795
G1 X75.007 Y114.604 E3.04217
G1 X75.153 Y115.121 E3.08077
G1 X75.384 Y115.661 E3.12296
G1 X75.674 Y116.16 E3.16443
G1 X76.026 Y116.62 E3.20604
G1 X76.603 Y117.244 E3.2671
G1 X77.004 Y117.793 E3.31594
G1 X77.336 Y118.392 E3.36514
G1 X77.555 Y118.951 E3.40827
G1 X77.835 Y119.614 E3.45998
G1 X78.164 Y120.178 E3.50689
G1 X78.509 Y120.623 E3.54734
G1 X79.217 Y121.497 E3.62815
G1 X79.567 Y122.094 E3.67786
G1 X79.832 Y122.72 E3.7267
G1 X80.017 Y123.378 E3.7758
G1 X80.117 Y124.053 E3.82483
G1 X80.117 Y124.604 E3.86441
G1 X80.113 Y125.155 E3.904
G1 X80.141 Y125.731 E3.94543
G1 X80.243 Y126.308 E3.98752
G1 X80.441 Y126.946 E4.03551
G1 X80.744 Y127.682 E4.0927
G1 X81.003 Y128.22 E4.13559
G1 X81.251 Y128.669 E4.17244
G1 X81.557 Y129.11 E4.211
G1 X82.028 Y129.641 E4.262
G1 X82.568 Y130.241 E4.31999
G1 X82.943 Y130.801 E4.36841
G1 X83.245 Y131.408 E4.41712
G1 X83.45 Y131.99 E4.46144
G1 X83.615 Y132.723 E4.51542
G1 X83.671 Y133.439 E4.56702
G1 X83.745 Y134.289 E4.62832
G1 X83.87 Y134.834 E4.66849
G1 X84.071 Y135.372 E4.70975
G1 X84.339 Y135.89 E4.75165
G1 X84.679 Y136.379 E4.79443
G1 X85.012 Y136.767 E4.83117
G1 X85.494 Y137.258 E4.8806
G1 X86.103 Y137.771 E4.9378
G1 X86.576 Y138.064 E4.97778
G1 X87.464 Y138.49 E5.04853
G1 X88.026 Y138.844 E5.09625
G1 X88.57 Y139.288 E5.1467
G1 X89.039 Y139.79 E5.19605
G1 X89.429 Y140.323 E5.2435
G1 X89.754 Y140.908 E5.29158
G1 X90.007 Y141.541 E5.34055
G1 X90.159 Y142.117 E5.38335
G1 X90.314 Y142.63 E5.42185
G1 X90.569 Y143.23 E5.46869
G1 X90.869 Y143.733 E5.51076
G1 X91.22 Y144.185 E5.55187
G1 X91.631 Y144.593 E5.59348
G1 X92.069 Y144.937 E5.63349
G1 X92.587 Y145.269 E5.67769
G1 X93.054 Y145.52 E5.71578
G1 X93.627 Y145.799 E5.76157
G1 X94.175 Y146.014 E5.80386
G1 X94.754 Y146.163 E5.84681
G1 X95.339 Y146.233 E5.88914
G1 X95.919 Y146.231 E5.93081
G1 X96.491 Y146.154 E5.97227
G1 X97.063 Y146.003 E6.01477
G1 X97.554 Y145.816 E6.05252
G1 X98.585 Y145.359 E6.13354
G1 X99.22 Y145.152 E6.18152
G1 X99.877 Y145.026 E6.22958
G1 X100.555 Y144.981 E6.2784
G1 X101.236 Y145.022 E6.32741
G1 X101.906 Y145.149 E6.3764
G1 X102.559 Y145.361 E6.42572
G1 X103.175 Y145.65 E6.47461
G1 X103.708 Y145.991 E6.52006
G1 X104.3 Y146.35 E6.5698
G1 X104.85 Y146.588 E6.61286
G1 X105.386 Y146.743 E6.65294
G1 X105.977 Y146.838 E6.69595
G1 X106.507 Y146.867 E6.73408
G1 X113.479 Y146.866 E7.23496
G1 X114.134 Y146.801 E7.28225
G1 X114.604 Y146.744 E7.31626
G1 X115.121 Y146.598 E7.35486
G1 X115.661 Y146.367 E7.39705
G1 X116.16 Y146.077 E7.43852
G1 X116.619 Y145.725 E7.48007
G1 X117.247 Y145.144 E7.54153
G1 X117.799 Y144.743 E7.59055
G1 X118.397 Y144.413 E7.63962
G1 X118.864 Y144.231 E7.67563
G1 X119.36 Y144.03 E7.71408
G1 X119.909 Y143.755 E7.75819
G1 X120.392 Y143.429 E7.80005
G1 X120.828 Y143.047 E7.8417
G1 X121.209 Y142.617 E7.88297
G1 X121.531 Y142.159 E7.92319
G1 X122.141 Y141.255 E8.00154
G1 X122.603 Y140.751 E8.05066
G1 X123.125 Y140.311 E8.09971
G1 X123.702 Y139.938 E8.14907
G1 X124.323 Y139.641 E8.19852
G1 X124.978 Y139.423 E8.24811
G1 X125.666 Y139.292 E8.29843
G1 X126.324 Y139.25 E8.3458
G1 X129.148 Y139.248 E8.54868
G1 X129.648 Y139.203 E8.58475
G1 X130.341 Y139.089 E8.6352
G1 X130.85 Y138.925 E8.67362
G1 X131.383 Y138.678 E8.71582
G1 X131.889 Y138.36 E8.75876
G1 X132.304 Y138.032 E8.79676
G1 X132.817 Y137.578 E8.84597
G1 X133.372 Y137.187 E8.89475
G1 X133.987 Y136.859 E8.94482
G1 X134.607 Y136.626 E8.99241
G1 X135.271 Y136.464 E9.04151
G1 X135.955 Y136.388 E9.09095
G1 X136.636 Y136.4 E9.13988
G1 X137.313 Y136.496 E9.18901
G1 X137.971 Y136.677 E9.23803
G1 X138.641 Y136.957 E9.2902
G1 X139.13 Y137.135 E9.32759
G1 X139.725 Y137.282 E9.37162
G1 X140.262 Y137.353 E9.41053
G1 X141.07 Y137.377 E9.46861
G1 X141.583 Y137.354 E9.5055
G1 X142.238 Y137.289 E9.55279
G1 X142.76 Y137.153 E9.59154
G1 X143.288 Y136.942 E9.63239
G1 X143.799 Y136.661 E9.67428
G1 X144.275 Y136.312 E9.71669
G1 X144.696 Y135.912 E9.75841
G1 X145.06 Y135.466 E9.79977
G1 X145.374 Y134.96 E9.84255
G1 X145.614 Y134.439 E9.88376
G1 X145.785 Y133.891 E9.925
G1 X145.891 Y133.307 E9.96764
G1 X145.93 Y132.783 E10.00539
G1 X146.233 Y117.998 E11.0678
G1 X146.232 Y117.905 E11.07448
G1 X146.19 Y117.252 E11.12149
G1 X146.08 Y116.642 E11.16602
G1 X145.898 Y116.084 E11.20819
G1 X145.565 Y115.345 E11.26642
G1 X145.35 Y114.701 E11.31519
G1 X145.221 Y114.035 E11.36393
G1 X145.178 Y113.408 E11.40908
G1 X145.174 Y112.394 E11.48193
G1 X145.173 Y106.521 E11.90386
G1 X145.108 Y105.867 E11.95107
G1 X145.051 Y105.396 E11.98516
G1 X144.905 Y104.879 E12.02375
G1 X144.674 Y104.339 E12.06595
G1 X144.384 Y103.84 E12.10741
G1 X144.032 Y103.381 E12.14897
G1 X143.454 Y102.756 E12.21012
G1 X143.05 Y102.206 E12.25915
G1 X142.718 Y101.608 E12.30829
G1 X142.419 Y100.844 E12.36723
G1 X142.211 Y100.375 E12.40409
G1 X141.894 Y99.829 E12.44945
G1 X141.538 Y99.37 E12.49118
G1 X141.17 Y98.984 E12.52949
G1 X140.723 Y98.561 E12.57371
G1 X140.297 Y98.052 E12.62139
G1 X139.935 Y97.488 E12.66954
G1 X139.641 Y96.872 E12.71857
G1 X139.425 Y96.227 E12.76744
G1 X139.327 Y95.731 E12.80376
G1 X139.264 Y94.958 E12.85948
G1 X139.238 Y94.381 E12.90098
G1 X139.178 Y93.595 E12.95761
G1 X139.077 Y92.912 E13.00721
G1 X138.909 Y92.149 E13.06334
G1 X138.69 Y91.407 E13.11892
G1 X138.418 Y90.694 E13.17374
G1 X138.092 Y89.992 E13.22935
G1 X137.726 Y89.33 E13.28369
G1 X137.289 Y88.665 E13.34086
G1 X136.841 Y88.078 E13.39391
G1 X136.37 Y87.541 E13.44523
G1 X135.79 Y86.971 E13.50365
G1 X135.221 Y86.486 E13.55736
G1 X134.573 Y86.013 E13.615
G1 X134.023 Y85.666 E13.66172
G1 X133.374 Y85.319 E13.71459
G1 X132.605 Y84.924 E13.7767
G1 X132.185 Y84.639 E13.81316
G1 X131.526 Y84.082 E13.87515
G1 X131.077 Y83.568 E13.92418
G1 X130.694 Y83 E13.9734
G1 X130.39 Y82.387 E14.02256
G1 X130.164 Y81.747 E14.07132
G1 X130.022 Y81.079 E14.12038
G1 X129.872 Y79.553 E14.23054
G1 X129.741 Y79.042 E14.26844
G1 X129.527 Y78.504 E14.31003
G1 X129.241 Y77.989 E14.35235
G1 X128.896 Y77.519 E14.39424
G1 X128.494 Y77.095 E14.43622
G1 X128.047 Y76.73 E14.47768
G1 X127.551 Y76.419 E14.51973
G1 X127.015 Y76.174 E14.56207
G1 X126.476 Y76.007 E14.60261
G1 X125.888 Y75.9 E14.64555
G1 X125.367 Y75.861 E14.68308
G1 X110.581 Y75.559 E15.74556
G1 X109.834 Y75.602 E15.79931
G1 X109.23 Y75.709 E15.84338
G1 X108.633 Y75.805 E15.88682
G1 X107.967 Y75.833 E15.93471
G1 X93.661 Y75.54 E16.9627
G1 X93.104 Y75.581 E17.00282
G1 X92.553 Y75.636 E17.0426
G1 X92.032 Y75.77 E17.08125
G1 X91.491 Y75.986 E17.1231
G1 X90.984 Y76.264 E17.16464
G1 X90.507 Y76.616 E17.20723
G1 X90.087 Y77.014 E17.2488
G1 X89.717 Y77.468 E17.29088
G0 F9000 X89.669 Y78.355
G1 F900 X145.325 Y134.011 E22.94551
G0 F9000 X144.529 Y135.478
G1 F900 X89.235 Y80.184 E28.56337
G0 F9000 X88.756 Y81.967
G1 F900 X143.274 Y136.486 E34.10244
G0 F9000 X141.486 Y136.96
G1 F900 X87.876 Y83.35 E39.5492
G0 F9000 X86.672 Y84.41
G1 F900 X138.861 Y136.598 E44.85154
G0 F9000 X135.987 Y135.987
G1 F900 X85.212 Y85.212 E50.01027
G0 F9000 X83.971 Y86.233
G1 F900 X134.117 Y136.38 E55.10514
G0 F9000 X132.665 Y137.191
G1 F900 X82.839 Y87.365 E60.16745
G0 F9000 X81.796 Y88.584
G1 F900 X131.415 Y138.204 E65.20878
G0 F9000 X129.738 Y138.789
G1 F900 X81.201 Y90.252 E70.14013
G0 F9000 X81.153 Y92.466
G1 F900 X127.535 Y138.848 E74.85253
G0 F9000 X125.365 Y138.941
G1 F900 X81.148 Y94.725 E79.34492
G0 F9000 X80.859 Y96.698
G1 F900 X123.671 Y139.51 E83.69461
G0 F9000 X122.344 Y140.446
G1 F900 X80.101 Y98.202 E87.98654
G0 F9000 X79.038 Y99.402
G1 F900 X121.341 Y141.706 E92.28457
G0 F9000 X120.336 Y142.964
G1 F900 X78.118 Y100.745 E96.57396
G0 F9000 X77.409 Y102.299
G1 F900 X118.897 Y143.788 E100.78918
G0 F9000 X117.389 Y144.542
G1 F900 X76.409 Y103.562 E104.95274
G0 F9000 X75.56 Y104.975
G1 F900 X116.157 Y145.573 E109.07744
G0 F9000 X114.638 Y146.317
G1 F900 X75.284 Y106.963 E113.07579
G0 F9000 X75.284 Y109.226
G1 F900 X112.524 Y146.465 E116.85932
G0 F9000 X110.261 Y146.465
G1 F900 X75.284 Y111.488 E120.41297
G0 F9000 X75.308 Y113.775
G1 F900 X107.999 Y146.465 E123.73432
G0 F9000 X105.639 Y146.368
G1 F900 X77.828 Y118.557 E126.55991
G0 F9000 X80.425 Y123.417
G1 F900 X101.712 Y144.704 E128.72267
G0 F9000 X99.446 Y144.701
G1 F900 X80.57 Y125.825 E130.64046
G0 F9000 X83.493 Y131.01
G1 F900 X97.765 Y145.282 E132.0905
G0 F9000 X96.023 Y145.804
G1 F900 X84.111 Y133.892 E133.30075
G0 F9000 X90.842 Y142.885
G1 F900 X92.994 Y145.037 E133.5194
G0 F9000 X145.545 Y131.968
G1 F900 X90.631 Y77.055 E139.09859
G0 F9000 X92.044 Y76.205
G1 F900 X145.59 Y129.751 E144.53886
G0 F9000 X145.635 Y127.533
G1 F900 X94.05 Y75.948 E149.77988
G0 F9000 X96.36 Y75.995
G1 F900 X145.68 Y125.316 E154.79083
G0 F9000 X145.726 Y123.098
G1 F900 X98.669 Y76.042 E159.57176
G0 F9000 X100.979 Y76.089
G1 F900 X145.771 Y120.881 E164.12262
G0 F9000 X145.816 Y118.663
G1 F900 X103.289 Y76.137 E168.4433
G0 F9000 X105.6 Y76.184
G1 F900 X145.424 Y116.008 E172.48941
G0 F9000 X144.777 Y113.099
G1 F900 X107.91 Y76.231 E176.23514
G0 F9000 X109.938 Y75.997
G1 F900 X144.776 Y110.835 E179.77468
G0 F9000 X144.775 Y108.571
G1 F900 X112.195 Y75.992 E183.08475
G0 F9000 X114.506 Y76.039
G1 F900 X144.756 Y106.29 E186.15819
G0 F9000 X142.255 Y101.526
G1 F900 X116.816 Y76.086 E188.74284
G0 F9000 X119.126 Y76.134
G1 F900 X138.966 Y95.974 E190.75858
G0 F9000 X138.752 Y93.497
G1 F900 X121.436 Y76.181 E192.51788
G0 F9000 X123.746 Y76.228
G1 F900 X129.995 Y82.477 E193.15278
G0 F9000 X129.485 Y79.705
G1 F900 X126.137 Y76.356 E193.49298
G0 F9000 X133.194 Y85.677
G1 F900 X137.751 Y90.233 E193.95592
G0 F600 X137.751 Y90.233 Z0.486
G0 F9000 X144.02 Y136.002
;TIME_ELAPSED:186.152765
;LAYER:-5
;TYPE:SUPPORT
G1 F900 X144.398 Y135.642 E194.0028
G1 X144.518 Y135.495 E194.01984
G1 X143.988 Y136.025 E194.08715
G1 X143.565 Y136.335 E194.13424
G1 X143.118 Y136.58 E194.18002
G1 X142.361 Y136.852 E194.25226
G1 X141.834 Y136.943 E194.30028
G1 X141.642 Y136.957 E194.31757
G1 X145.502 Y133.097 E194.80779
G1 X145.521 Y132.943 E194.82172
G1 X145.548 Y131.637 E194.93903
G1 X140.237 Y136.948 E195.61353
G1 X139.77 Y136.895 E195.65573
G1 X139.278 Y136.773 E195.70125
G1 X139.07 Y136.701 E195.72102
G1 X145.578 Y130.193 E196.54753
G1 X145.608 Y128.749 E196.67724
G1 X138.073 Y136.284 E197.63418
G1 X137.485 Y136.036 E197.69149
G1 X137.484 Y136.127 E197.69966
G1 X136.907 Y136.036 E197.75212
G1 X145.638 Y127.304 E198.86101
G1 X145.668 Y125.86 E198.99072
G1 X135.494 Y136.034 E200.28281
G1 X134.517 Y136.231 E200.37231
G1 X133.831 Y136.487 E200.43807
G1 X133.397 Y136.716 E200.48214
G1 X145.698 Y124.416 E202.0443
G1 X145.729 Y122.971 E202.17409
G1 X129.929 Y138.771 E204.18069
G1 X129.254 Y138.842 E204.24164
G1 X128.436 Y138.849 E204.3151
G1 X145.758 Y121.527 E206.51499
G1 X145.789 Y120.082 E206.64478
G1 X127.022 Y138.849 E209.02819
G1 X126.314 Y138.849 E209.09177
G1 X125.608 Y138.893 E209.15529
G1 X125.553 Y138.904 E209.16033
G1 X145.819 Y118.638 E211.7341
G1 X145.832 Y118.001 E211.79132
G1 X145.791 Y117.292 E211.85509
G1 X145.784 Y117.258 E211.85821
G1 X123.366 Y139.677 E214.70536
G1 X122.91 Y139.969 E214.75398
G1 X122.347 Y140.44 E214.8199
G1 X121.845 Y140.98 E214.88611
G1 X121.367 Y141.663 E214.96097
G0 F9000 X119.926 Y143.282
G1 F900 X120.359 Y142.95 E215.00997
G1 X120.717 Y142.597 E215.05512
G1 X121.064 Y142.153 E215.10573
G1 X121.346 Y141.697 E215.15387
G1 X119.522 Y143.52 E215.38546
G1 X119.238 Y143.656 E215.41374
G1 X118.248 Y144.036 E215.50896
G1 X117.603 Y144.389 E215.57499
G1 X116.982 Y144.842 E215.64402
G1 X116.36 Y145.42 E215.72027
G1 X115.93 Y145.75 E215.76895
G1 X115.807 Y145.821 E215.7817
G1 X145.486 Y116.142 E219.55093
G1 X145.183 Y115.471 E219.61704
G1 X145.074 Y115.141 E219.64825
G1 X113.769 Y146.445 E223.62392
G1 X113.453 Y146.465 E223.65235
G1 X112.334 Y146.466 E223.75284
G1 X144.811 Y113.989 E227.87741
G1 X144.773 Y113.354 E227.93454
G1 X144.772 Y112.614 E228.00099
G1 X110.92 Y146.466 E232.30018
G1 X109.506 Y146.466 E232.42717
G1 X144.772 Y111.2 E236.90594
G1 X144.772 Y109.786 E237.03292
G1 X108.091 Y146.466 E241.69133
G1 X106.677 Y146.466 E241.81831
G1 X144.772 Y108.371 E246.65637
G1 X144.772 Y106.957 E246.78335
G1 X105.399 Y146.33 E251.78371
G1 X104.727 Y146.11 E251.84721
G1 X104.381 Y145.934 E251.88207
G1 X144.68 Y105.635 E257.00003
G1 X144.526 Y105.007 E257.05809
G1 X144.337 Y104.564 E257.10135
G1 X103.512 Y145.388 E262.28605
G1 X102.729 Y144.995 E262.36472
G1 X102.55 Y144.936 E262.38165
G1 X143.778 Y103.708 E267.61759
G1 X143.149 Y103.018 E267.70144
G1 X143.109 Y102.963 E267.70754
G1 X101.425 Y144.647 E273.0014
G1 X100.582 Y144.578 E273.07736
G1 X100.047 Y144.611 E273.12549
G1 X142.541 Y102.117 E278.52222
G1 X142.343 Y101.756 E278.55919
G1 X142.104 Y101.14 E278.61853
G1 X98.12 Y145.124 E284.20449
G1 X97.244 Y145.51 E284.29045
G1 X96.672 Y145.702 E284.34463
G1 X96.143 Y145.805 E284.39303
G1 X96.015 Y145.814 E284.40456
G1 X141.649 Y100.181 E290.2
G1 X141.417 Y99.834 E290.23748
G1 X141.021 Y99.394 E290.29064
G1 X94.683 Y145.733 E296.17562
G1 X94.084 Y145.559 E296.23163
G1 X93.649 Y145.352 E296.27489
G1 X140.291 Y98.71 E302.19842
G1 X140.136 Y98.567 E302.21735
G1 X140.175 Y98.528 E302.22231
G1 X139.966 Y98.28 E302.25143
G1 X139.709 Y97.878 E302.29428
G1 X92.713 Y144.874 E308.26276
G1 X92.382 Y144.676 E308.29739
G1 X91.88 Y144.292 E308.35415
G1 X139.237 Y96.936 E314.36841
G1 X139.029 Y96.302 E314.42834
G1 X138.936 Y95.822 E314.47224
G1 X91.216 Y143.543 E320.53273
G1 X90.92 Y143.061 E320.58353
G1 X90.729 Y142.615 E320.6271
G1 X138.839 Y94.505 E326.73705
G1 X138.781 Y93.65 E326.81401
G1 X138.718 Y93.212 E326.85375
G1 X90.417 Y141.513 E332.98796
G1 X90.127 Y140.758 E333.06059
G1 X89.997 Y140.519 E333.08503
G1 X138.463 Y92.053 E339.24019
G1 X138.165 Y91.138 E339.32661
G1 X138.105 Y90.996 E339.34046
G1 X89.441 Y139.661 E345.52083
G1 X88.836 Y138.99 E345.60197
G1 X88.76 Y138.928 E345.61078
G1 X137.657 Y90.03 E351.82074
G1 X137.163 Y89.188 E351.90841
G1 X137.131 Y89.142 E351.91344
G1 X87.949 Y138.324 E358.15954
G1 X87.655 Y138.136 E358.19088
G1 X87.027 Y137.832 E358.25354
G1 X136.526 Y88.333 E364.5399
G1 X135.856 Y87.589 E364.62981
G1 X86.147 Y137.298 E370.94284
G1 X85.661 Y136.862 E371.00147
G1 X85.422 Y136.609 E371.03273
G1 X135.113 Y86.918 E377.34347
G1 X134.671 Y86.569 E377.39404
G1 X134.299 Y86.317 E377.43439
G1 X84.783 Y135.833 E383.72291
