;FLAVOR:Marlin
;TIME:2019
;Filament used: 1.35154m
;Layer height: 0.18
;MINX:91.044
;MINY:96.222
;MINZ:0.432
;MAXX:124.999
;MAXY:123.28
;MAXZ:13.272
;Generated with Cura_SteamEngine 5.0.0
M140 S100
M105
M190 S100
M104 S230
M105
M109 S230
M82 ;absolute extrusion mode
G28 ;Home
G1 Z15.0 F6000 ;Move the platform down 15mm
;Prime the extruder
G92 E0
G1 F200 E3
G92 E0
G92 E0
G92 E0
G1 F2700 E-5
;LAYER_COUNT:66
;LAYER:-7
M107
G0 F9000 X93.419 Y102.098 Z0.432
;TYPE:SUPPORT-INTERFACE
G1 F2700 E0
G1 F900 X92.985 Y102.667 E0.10282
G1 X92.596 Y103.288 E0.20811
G1 X92.292 Y103.891 E0.30514
G1 X92.039 Y104.539 E0.40509
G1 X91.849 Y105.163 E0.49882
G1 X91.737 Y105.695 E0.57693
G1 X91.653 Y106.305 E0.66541
G1 X91.06 Y111.348 E1.39499
G1 X91.045 Y111.989 E1.48712
G1 X91.044 Y112.408 E1.54732
G1 X91.126 Y112.957 E1.62708
G1 X91.283 Y113.514 E1.71023
G1 X91.514 Y114.054 E1.79462
G1 X91.804 Y114.553 E1.87755
G1 X92.154 Y115.008 E1.96003
G1 X92.76 Y115.639 E2.08574
G1 X93.152 Y116.134 E2.17646
G1 X93.508 Y116.718 E2.27473
G1 X93.783 Y117.322 E2.37009
G1 X94.041 Y117.873 E2.45751
G1 X94.346 Y118.348 E2.53862
G1 X94.72 Y118.796 E2.62247
G1 X95.155 Y119.199 E2.70767
G1 X95.693 Y119.581 E2.80248
G1 X96.18 Y119.862 E2.88327
G1 X97.137 Y120.346 E3.03736
G1 X97.952 Y120.663 E3.163
G1 X98.519 Y120.897 E3.25114
G1 X99.115 Y121.235 E3.34959
G1 X99.684 Y121.664 E3.45198
G1 X100.17 Y122.007 E3.53745
G1 X100.693 Y122.284 E3.62248
G1 X101.292 Y122.51 E3.71447
G1 X101.822 Y122.723 E3.79654
G1 X102.467 Y123.004 E3.89763
G1 X103.014 Y123.161 E3.9794
G1 X103.6 Y123.253 E4.06463
G1 X104.123 Y123.28 E4.13988
G1 X115.947 Y123.227 E5.83881
G1 X116.452 Y123.189 E5.91158
G1 X117.272 Y123.05 E6.03108
G1 X118.108 Y122.725 E6.15995
G1 X118.599 Y122.438 E6.24167
G1 X119.055 Y122.088 E6.32427
G1 X119.473 Y121.674 E6.4088
G1 X119.831 Y121.217 E6.49221
G1 X120.123 Y120.729 E6.57392
G1 X120.383 Y120.164 E6.66329
G1 X120.69 Y119.611 E6.75417
G1 X121.093 Y119.057 E6.8526
G1 X121.495 Y118.627 E6.93718
G1 X122.085 Y118.126 E7.04839
G1 X122.606 Y117.799 E7.13678
G1 X123.191 Y117.409 E7.2378
G1 X123.629 Y117.028 E7.32121
G1 X124.009 Y116.602 E7.40323
G1 X124.345 Y116.113 E7.48848
G1 X124.613 Y115.592 E7.57266
G1 X124.803 Y115.062 E7.65356
G1 X124.934 Y114.492 E7.7376
G1 X124.996 Y113.811 E7.83585
G1 X124.999 Y106.428 E8.89667
G1 X124.962 Y105.92 E8.96985
G1 X124.878 Y105.233 E9.0693
G1 X124.728 Y104.7 E9.14886
G1 X124.502 Y104.173 E9.23125
G1 X124.211 Y103.674 E9.31425
G1 X123.863 Y103.22 E9.39644
G1 X123.449 Y102.802 E9.48097
G1 X122.985 Y102.438 E9.5657
G1 X122.25 Y101.953 E9.69223
G1 X121.731 Y101.508 E9.79046
G1 X121.334 Y101.072 E9.87519
G1 X120.885 Y100.445 E9.986
G1 X120.566 Y99.838 E10.08452
G1 X120.377 Y99.358 E10.15864
G1 X120.158 Y98.863 E10.23642
G1 X119.865 Y98.351 E10.32118
G1 X119.51 Y97.881 E10.40581
G1 X119.102 Y97.465 E10.48953
G1 X118.649 Y97.106 E10.57258
G1 X118.16 Y96.811 E10.65464
G1 X117.619 Y96.572 E10.73962
G1 X117.084 Y96.412 E10.81985
G1 X116.499 Y96.316 E10.90503
G1 X115.897 Y96.278 E10.9917
G1 X104.159 Y96.222 E12.67828
G1 X103.62 Y96.258 E12.7559
G1 X103.117 Y96.331 E12.82893
G1 X102.476 Y96.502 E12.92425
G1 X101.988 Y96.709 E13.00042
G1 X101.473 Y97.007 E13.08591
G1 X101.007 Y97.362 E13.17008
G1 X100.633 Y97.711 E13.24358
G1 X100.006 Y98.355 E13.37273
G1 X99.463 Y98.774 E13.47127
G1 X98.887 Y99.113 E13.56731
G1 X98.269 Y99.376 E13.66381
G1 X97.442 Y99.603 E13.78703
G1 X96.943 Y99.753 E13.8619
G1 X96.28 Y99.996 E13.96336
G1 X95.606 Y100.321 E14.07087
G1 X94.999 Y100.685 E14.17257
G1 X94.406 Y101.125 E14.27866
G1 X93.891 Y101.588 E14.37817
G1 X93.419 Y102.098 E14.47801
G0 F9000 X93.543 Y102.594
G1 F900 X113.781 Y122.832 E18.59037
G0 F9000 X116.032 Y122.82
G1 F900 X94.652 Y101.44 E22.93477
G0 F9000 X96.033 Y100.559
G1 F900 X117.864 Y122.389 E27.37072
G0 F9000 X119.158 Y121.42
G1 F900 X97.687 Y99.95 E31.73352
G0 F9000 X99.32 Y99.32
G1 F900 X120.012 Y120.012 E35.93812
G0 F9000 X120.918 Y118.656
G1 F900 X100.589 Y98.326 E40.06907
G0 F9000 X101.796 Y97.271
G1 F900 X122.14 Y117.615 E44.20296
G0 F9000 X123.433 Y116.645
G1 F900 X103.463 Y96.674 E48.26096
G0 F9000 X105.679 Y96.628
G1 F900 X124.307 Y115.256 E52.04616
G0 F9000 X124.595 Y113.282
G1 F900 X107.953 Y96.639 E55.42791
G0 F9000 X110.227 Y96.65
G1 F900 X124.596 Y111.02 E58.34778
G0 F9000 X124.597 Y108.758
G1 F900 X112.5 Y96.661 E60.80589
G0 F9000 X114.774 Y96.672
G1 F900 X124.598 Y106.496 E62.80212
G0 F9000 X120.095 Y99.73
G1 F900 X117.219 Y96.854 E63.38652
G0 F9000 X92.684 Y103.997
G1 F900 X111.529 Y122.842 E67.21582
G0 F9000 X109.276 Y122.853
G1 F900 X92.139 Y105.715 E70.69815
G0 F9000 X91.887 Y107.727
G1 F900 X107.025 Y122.864 E73.77408
G0 F9000 X104.773 Y122.875
G1 F900 X91.65 Y109.752 E76.44067
G0 F9000 X91.445 Y111.81
G1 F900 X102.007 Y122.371 E78.58676
G0 F9000 X97.385 Y120.012
G1 F900 X93.77 Y116.397 E79.32133
G0 F600 X93.77 Y116.397 Z0.702
G0 F9000 X92.788 Y103.787
;TIME_ELAPSED:41.403180
;LAYER:-6
;TYPE:SUPPORT
G1 F900 X96.033 Y100.542 E79.73344
G1 X95.622 Y100.755 E79.77501
G1 X95.037 Y101.131 E79.83746
G1 X94.509 Y101.549 E79.89794
G1 X94.101 Y101.928 E79.94795
G1 X93.631 Y102.453 E80.01123
G1 X93.306 Y102.886 E80.05985
G1 X92.978 Y103.405 E80.11498
G1 X92.582 Y104.202 E80.1949
G1 X92.396 Y104.69 E80.2418
G1 X92.184 Y105.462 E80.31369
G1 X92.11 Y105.879 E80.35173
G1 X98.169 Y99.82 E81.12122
G1 X99.058 Y99.474 E81.20689
G1 X99.69 Y99.103 E81.2727
G1 X100.171 Y98.731 E81.3273
G1 X100.194 Y98.754 E81.33022
G1 X101.058 Y97.843 E81.44298
G1 X101.474 Y97.481 E81.4925
G1 X101.914 Y97.189 E81.53992
G1 X102.367 Y96.964 E81.58534
G1 X102.478 Y96.925 E81.59591
G1 X91.914 Y107.489 E82.93753
G1 X91.726 Y109.091 E83.08238
G1 X104.197 Y96.621 E84.66613
G1 X105.604 Y96.627 E84.79249
G1 X91.538 Y110.694 E86.57893
G1 X91.458 Y111.369 E86.63997
G1 X91.443 Y112.202 E86.71479
G1 X107.012 Y96.634 E88.69198
G1 X108.419 Y96.64 E88.81833
G1 X91.665 Y113.395 E90.94615
G1 X91.865 Y113.866 E90.9921
G1 X92.139 Y114.335 E91.04088
G1 X109.827 Y96.648 E93.28719
G1 X111.234 Y96.654 E93.41354
G1 X92.793 Y115.095 E95.75554
G1 X93.445 Y115.858 E95.84567
G1 X112.642 Y96.661 E98.28369
G1 X114.049 Y96.668 E98.41004
G1 X93.964 Y116.753 E100.96083
G1 X94.254 Y117.412 E101.02549
G1 X94.427 Y117.704 E101.05596
G1 X115.457 Y96.674 E103.72677
G1 X116.111 Y96.678 E103.7855
G1 X116.736 Y96.739 E103.84189
G1 X116.793 Y96.752 E103.84714
G1 X95.028 Y118.517 E106.61129
G1 X95.186 Y118.696 E106.63273
G1 X95.59 Y119.03 E106.67981
G1 X95.797 Y119.163 E106.7019
G1 X117.859 Y97.101 E109.50377
G1 X118.192 Y97.274 E109.53747
G1 X118.633 Y97.578 E109.58557
G1 X118.719 Y97.654 E109.59588
G1 X96.698 Y119.675 E112.39254
G1 X97.162 Y119.916 E112.43949
G1 X97.67 Y120.118 E112.48858
G1 X119.399 Y98.389 E115.24816
G1 X119.789 Y98.999 E115.31318
G1 X119.917 Y99.285 E115.34132
G1 X98.673 Y120.529 E118.0393
G1 X99.342 Y120.903 E118.10813
G1 X99.553 Y121.063 E118.13191
G1 X120.309 Y100.308 E120.76785
G1 X120.341 Y100.39 E120.77576
G1 X120.393 Y100.373 E120.78067
G1 X120.883 Y101.148 E120.86301
G1 X100.37 Y121.661 E123.46816
G1 X100.839 Y121.91 E123.51584
G1 X101.344 Y122.101 E123.56433
G1 X121.558 Y101.887 E126.1315
G1 X121.76 Y102.061 E126.15544
G1 X121.729 Y102.112 E126.1608
G1 X122.351 Y102.508 E126.22702
G1 X102.343 Y122.516 E128.76803
G1 X103.103 Y122.772 E128.84004
G1 X103.448 Y122.825 E128.87139
G1 X123.177 Y103.096 E131.37697
G1 X123.554 Y103.473 E131.42485
G1 X123.839 Y103.848 E131.46714
G1 X104.811 Y122.876 E133.88369
G1 X106.232 Y122.87 E134.0113
G1 X124.324 Y104.777 E136.30905
G1 X124.49 Y105.326 E136.36055
G1 X124.564 Y105.952 E136.41716
G1 X107.652 Y122.864 E138.56498
G1 X109.073 Y122.857 E138.69259
G1 X124.598 Y107.332 E140.66426
G1 X124.597 Y108.747 E140.79133
G1 X110.493 Y122.851 E142.58254
G1 X111.914 Y122.844 E142.71015
G1 X124.596 Y110.162 E144.32076
G1 X124.595 Y111.577 E144.44783
G1 X113.335 Y122.838 E145.87791
G1 X114.755 Y122.832 E146.00543
G1 X124.595 Y112.992 E147.25511
G1 X124.595 Y113.807 E147.32829
G1 X124.539 Y114.424 E147.38393
G1 X124.528 Y114.473 E147.38844
G1 X116.192 Y122.809 E148.44711
G1 X116.956 Y122.717 E148.51621
G1 X117.432 Y122.58 E148.5607
G1 X117.918 Y122.373 E148.60813
G1 X118.214 Y122.201 E148.63888
G1 X119.615 Y120.8 E148.8168
G1 X119.496 Y121 E148.8377
G1 X118.977 Y121.618 E148.91018
G1 X118.37 Y122.11 E148.98034
G0 F600 X118.37 Y122.11 Z0.882
G0 F9000 X94.677 Y118.45
;TIME_ELAPSED:93.377132
;LAYER:-5
;TYPE:SUPPORT-INTERFACE
G1 F1200 X95.062 Y118.854 E148.99705
G1 X95.248 Y119.007 E149.00426
G1 X94.639 Y118.397 E149.03006
G1 X94.345 Y117.994 E149.04499
G1 X94.066 Y117.484 E149.06239
G1 X93.889 Y117.082 E149.07554
G1 X96.723 Y119.916 E149.19551
G1 X97.729 Y120.356 E149.22838
G1 X93.031 Y115.659 E149.42724
G1 X92.509 Y115.098 E149.45018
G1 X92.121 Y114.654 E149.46783
G1 X91.81 Y114.187 E149.48463
G1 X91.563 Y113.692 E149.50119
G1 X91.528 Y113.59 E149.50441
G1 X98.716 Y120.778 E149.80871
G1 X99.231 Y121.07 E149.82643
G1 X100.055 Y121.694 E149.85737
G1 X100.418 Y121.914 E149.87007
G1 X91.305 Y112.801 E150.25586
G1 X91.235 Y112.166 E150.27498
G1 X101.409 Y122.34 E150.70568
G1 X101.901 Y122.538 E150.72155
G1 X102.385 Y122.75 E150.73737
G1 X91.247 Y111.612 E151.20888
G1 X91.29 Y111.089 E151.22459
G1 X103.187 Y122.986 E151.72823
G1 X103.83 Y123.064 E151.74761
G1 X91.349 Y110.583 E152.27598
G1 X91.409 Y110.076 E152.29126
G1 X104.41 Y123.078 E152.84165
G1 X104.973 Y123.075 E152.85851
G1 X91.468 Y109.57 E153.43022
G1 X91.527 Y109.064 E153.44547
G1 X105.537 Y123.073 E154.03853
G1 X106.099 Y123.07 E154.05536
G1 X91.587 Y108.557 E154.66972
G1 X91.646 Y108.051 E154.68497
G1 X106.662 Y123.067 E155.32064
G1 X107.226 Y123.065 E155.33753
G1 X91.706 Y107.545 E155.99454
G1 X91.766 Y107.039 E156.00979
G1 X107.789 Y123.062 E156.6881
G1 X108.352 Y123.06 E156.70495
G1 X91.825 Y106.533 E157.40459
G1 X91.884 Y106.027 E157.41984
G1 X108.915 Y123.057 E158.1408
G1 X109.478 Y123.054 E158.15765
G1 X91.966 Y105.542 E158.89899
G1 X92.08 Y105.09 E158.91294
G1 X110.042 Y123.052 E159.67333
G1 X110.604 Y123.05 E159.69016
G1 X92.203 Y104.648 E160.46915
G1 X92.355 Y104.234 E160.48235
G1 X111.168 Y123.047 E161.27877
G1 X111.731 Y123.045 E161.29562
G1 X92.528 Y103.842 E162.10855
G1 X92.722 Y103.47 E162.12111
G1 X112.294 Y123.042 E162.94965
G1 X112.857 Y123.04 E162.9665
G1 X92.929 Y103.111 E163.81014
G1 X93.15 Y102.766 E163.82241
G1 X113.42 Y123.037 E164.68052
G1 X113.984 Y123.035 E164.69741
G1 X93.389 Y102.44 E165.56926
G1 X93.651 Y102.136 E165.58127
G1 X114.547 Y123.032 E166.46587
G1 X115.11 Y123.03 E166.48272
G1 X93.916 Y101.836 E167.37993
G1 X94.207 Y101.561 E167.39192
G1 X115.673 Y123.027 E168.30064
G1 X116.218 Y123.006 E168.31697
G1 X94.507 Y101.295 E169.23606
G1 X94.824 Y101.046 E169.24813
G1 X116.723 Y122.946 E170.17521
G1 X117.197 Y122.854 E170.18966
G1 X95.159 Y100.816 E171.1226
G1 X95.503 Y100.595 E171.13484
G1 X117.625 Y122.716 E172.07132
G1 X118.019 Y122.545 E172.08417
G1 X95.874 Y100.399 E173.02166
G1 X96.259 Y100.218 E173.0344
G1 X118.377 Y122.337 E173.97075
G1 X118.709 Y122.103 E173.9829
G1 X96.659 Y100.053 E174.91635
G1 X97.087 Y99.915 E174.92981
G1 X119.018 Y121.846 E175.85822
G1 X119.3 Y121.563 E175.87018
G1 X97.524 Y99.786 E176.79205
G1 X97.97 Y99.667 E176.80587
G1 X119.554 Y121.251 E177.71959
G1 X119.782 Y120.913 E177.7318
G1 X98.405 Y99.536 E178.63675
G1 X98.801 Y99.366 E178.64965
G1 X119.985 Y120.551 E179.54646
G1 X120.162 Y120.162 E179.55926
G1 X99.174 Y99.174 E180.44775
G1 X99.531 Y98.965 E180.46013
G1 X120.359 Y119.793 E181.34185
G1 X120.566 Y119.435 E181.35422
G1 X99.855 Y98.724 E182.23099
G1 X100.17 Y98.473 E182.24304
G1 X120.806 Y119.109 E183.11663
G1 X121.059 Y118.796 E183.12868
G1 X100.448 Y98.185 E184.00121
G1 X100.726 Y97.898 E184.01317
G1 X121.335 Y118.506 E184.8856
G1 X121.631 Y118.237 E184.89757
G1 X101.013 Y97.618 E185.77042
G1 X101.314 Y97.355 E185.78238
G1 X121.942 Y117.982 E186.65561
G1 X122.285 Y117.76 E186.66784
G1 X101.65 Y97.125 E187.54139
G1 X102.01 Y96.919 E187.5538
G1 X122.634 Y117.543 E188.42688
G1 X122.976 Y117.319 E188.43912
G1 X102.396 Y96.739 E189.31034
G1 X102.817 Y96.595 E189.32366
G1 X123.286 Y117.063 E190.19016
G1 X123.577 Y116.789 E190.20212
G1 X103.287 Y96.498 E191.06108
G1 X103.796 Y96.442 E191.07641
G1 X123.844 Y116.49 E191.92511
G1 X124.075 Y116.155 E191.93729
G1 X104.342 Y96.422 E192.77265
G1 X104.909 Y96.424 E192.78963
G1 X124.283 Y115.798 E193.60979
G1 X124.465 Y115.414 E193.62251
G1 X105.478 Y96.427 E194.42629
G1 X106.046 Y96.43 E194.44329
G1 X124.614 Y114.998 E195.22934
G1 X124.719 Y114.537 E195.24349
G1 X106.615 Y96.433 E196.00989
G1 X107.183 Y96.435 E196.02689
G1 X124.776 Y114.028 E196.77166
G1 X124.795 Y113.482 E196.78802
G1 X107.751 Y96.438 E197.50954
G1 X108.32 Y96.44 E197.52658
G1 X124.795 Y112.916 E198.22404
G1 X124.796 Y112.351 E198.24095
G1 X108.888 Y96.443 E198.91439
G1 X109.457 Y96.446 E198.93142
G1 X124.796 Y111.785 E199.58077
G1 X124.797 Y111.22 E199.59768
G1 X110.025 Y96.449 E200.22301
G1 X110.594 Y96.452 E200.24004
G1 X124.797 Y110.655 E200.8413
G1 X124.797 Y110.089 E200.85824
G1 X111.162 Y96.454 E201.43546
G1 X111.73 Y96.457 E201.45246
G1 X124.797 Y109.524 E202.00563
G1 X124.797 Y108.958 E202.02257
G1 X112.299 Y96.459 E202.55167
G1 X112.867 Y96.462 E202.56868
G1 X124.798 Y108.393 E203.07375
G1 X124.798 Y107.828 E203.09067
G1 X113.436 Y96.465 E203.57168
G1 X114.003 Y96.467 E203.58865
G1 X124.799 Y107.263 E204.04568
G1 X124.799 Y106.697 E204.06262
G1 X114.572 Y96.47 E204.49557
G1 X115.141 Y96.473 E204.5126
G1 X124.785 Y106.117 E204.92086
G1 X124.71 Y105.476 E204.94018
G1 X115.709 Y96.476 E205.3212
G1 X116.295 Y96.496 E205.33875
G1 X124.52 Y104.721 E205.68694
G1 X124.324 Y104.265 E205.7018
G1 X124.041 Y103.778 E205.71866
G1 X123.704 Y103.342 E205.73515
G1 X123.327 Y102.961 E205.7512
G1 X122.883 Y102.611 E205.76812
G1 X122.003 Y102.048 E205.79939
G1 X122.02 Y102.022 E205.80032
G1 X121.573 Y101.634 E205.81804
G1 X121.1 Y101.109 E205.8392
G1 X120.696 Y100.525 E205.86045
G1 X120.487 Y100.122 E205.87404
G1 X116.948 Y96.583 E206.02386
G1 X117.282 Y96.66 E206.03412
G1 X117.807 Y96.851 E206.05084
G1 X118.303 Y97.109 E206.06758
G1 X118.763 Y97.427 E206.08432
G1 X119.189 Y97.81 E206.10147
G1 X119.53 Y98.205 E206.11709
G1 X119.863 Y98.71 E206.13519
G1 X120.078 Y99.147 E206.14977
G1 X117.767 Y96.837 E206.24758
G0 F600 X117.767 Y96.837 Z1.062
G0 F9000 X120.085 Y120.331
;TIME_ELAPSED:189.365776
;LAYER:-4
;TYPE:SUPPORT-INTERFACE
G1 F1200 X117.755 Y122.66 E206.3462
G1 X118.014 Y122.549 E206.35463
G1 X118.492 Y122.27 E206.3712
G1 X118.933 Y121.931 E206.38785
G1 X119.329 Y121.536 E206.40459
G1 X119.669 Y121.103 E206.42107
G1 X119.94 Y120.646 E206.43698
G1 X120.196 Y120.088 E206.45536
G1 X120.532 Y119.481 E206.47612
G1 X120.951 Y118.91 E206.49732
G1 X121.156 Y118.694 E206.50624
G1 X116.928 Y122.922 E206.68522
G1 X116.285 Y122.999 E206.70461
G1 X124.71 Y114.574 E207.06127
G1 X124.738 Y114.45 E207.06507
G1 X124.783 Y113.935 E207.08055
G1 X115.691 Y123.028 E207.46546
G1 X115.122 Y123.03 E207.48249
G1 X124.795 Y113.358 E207.89196
G1 X124.795 Y112.792 E207.90891
G1 X114.554 Y123.033 E208.34244
G1 X113.986 Y123.035 E208.35944
G1 X124.795 Y112.226 E208.81702
G1 X124.795 Y111.66 E208.83397
G1 X113.418 Y123.037 E209.31559
G1 X112.849 Y123.04 E209.33262
G1 X124.796 Y111.094 E209.83836
G1 X124.796 Y110.528 E209.8553
G1 X112.281 Y123.043 E210.3851
G1 X111.713 Y123.045 E210.4021
G1 X124.797 Y109.962 E210.95597
G1 X124.797 Y109.396 E210.97291
G1 X111.145 Y123.048 E211.55085
G1 X110.577 Y123.05 E211.56785
G1 X124.797 Y108.83 E212.16983
G1 X124.797 Y108.264 E212.18677
G1 X110.008 Y123.053 E212.81284
G1 X109.44 Y123.056 E212.82984
G1 X124.797 Y107.698 E213.47997
G1 X124.798 Y107.132 E213.49691
G1 X108.872 Y123.058 E214.17111
G1 X108.304 Y123.061 E214.18812
G1 X124.798 Y106.566 E214.88638
G1 X124.773 Y106.025 E214.90259
G1 X107.735 Y123.064 E215.62389
G1 X107.167 Y123.066 E215.64089
G1 X124.714 Y105.519 E216.38371
G1 X124.618 Y105.049 E216.39807
G1 X106.599 Y123.069 E217.1609
G1 X106.031 Y123.071 E217.1779
G1 X124.478 Y104.624 E217.95882
G1 X124.305 Y104.231 E217.97167
